(AltairCAM Generated G-Code)
G21 (Metric units)
G90 (Absolute positioning)
M3 S10000 (Start spindle)
G0 Z2.000 (Move to safe height)

(Drill holes)
(Drill holes)
G0 X0.049 Y0.065 Z2.000
G1 X0.049 Y0.065 Z-0.100 F100.0
G0 X0.049 Y0.065 Z2.000
G0 X0.049 Y0.062 Z2.000
G1 X0.049 Y0.062 Z-0.100 F100.0
G0 X0.049 Y0.062 Z2.000
G0 X0.049 Y0.060 Z2.000
G1 X0.049 Y0.060 Z-0.100 F100.0
G0 X0.049 Y0.060 Z2.000
G0 X0.049 Y0.057 Z2.000
G1 X0.049 Y0.057 Z-0.100 F100.0
G0 X0.049 Y0.057 Z2.000
G0 X0.049 Y0.055 Z2.000
G1 X0.049 Y0.055 Z-0.100 F100.0
G0 X0.049 Y0.055 Z2.000
G0 X0.049 Y0.052 Z2.000
G1 X0.049 Y0.052 Z-0.100 F100.0
G0 X0.049 Y0.052 Z2.000
G0 X0.049 Y0.050 Z2.000
G1 X0.049 Y0.050 Z-0.100 F100.0
G0 X0.049 Y0.050 Z2.000
G0 X0.049 Y0.047 Z2.000
G1 X0.049 Y0.047 Z-0.100 F100.0
G0 X0.049 Y0.047 Z2.000
G0 X0.049 Y0.045 Z2.000
G1 X0.049 Y0.045 Z-0.100 F100.0
G0 X0.049 Y0.045 Z2.000
G0 X0.049 Y0.042 Z2.000
G1 X0.049 Y0.042 Z-0.100 F100.0
G0 X0.049 Y0.042 Z2.000
G0 X0.049 Y0.040 Z2.000
G1 X0.049 Y0.040 Z-0.100 F100.0
G0 X0.049 Y0.040 Z2.000
G0 X0.049 Y0.037 Z2.000
G1 X0.049 Y0.037 Z-0.100 F100.0
G0 X0.049 Y0.037 Z2.000
G0 X0.049 Y0.035 Z2.000
G1 X0.049 Y0.035 Z-0.100 F100.0
G0 X0.049 Y0.035 Z2.000
G0 X0.026 Y0.070 Z2.000
G1 X0.026 Y0.070 Z-0.100 F100.0
G0 X0.026 Y0.070 Z2.000
G0 X0.026 Y0.068 Z2.000
G1 X0.026 Y0.068 Z-0.100 F100.0
G0 X0.026 Y0.068 Z2.000
G0 X0.026 Y0.065 Z2.000
G1 X0.026 Y0.065 Z-0.100 F100.0
G0 X0.026 Y0.065 Z2.000
G0 X0.026 Y0.062 Z2.000
G1 X0.026 Y0.062 Z-0.100 F100.0
G0 X0.026 Y0.062 Z2.000
G0 X0.026 Y0.060 Z2.000
G1 X0.026 Y0.060 Z-0.100 F100.0
G0 X0.026 Y0.060 Z2.000
G0 X0.026 Y0.057 Z2.000
G1 X0.026 Y0.057 Z-0.100 F100.0
G0 X0.026 Y0.057 Z2.000
G0 X0.026 Y0.055 Z2.000
G1 X0.026 Y0.055 Z-0.100 F100.0
G0 X0.026 Y0.055 Z2.000
G0 X0.026 Y0.052 Z2.000
G1 X0.026 Y0.052 Z-0.100 F100.0
G0 X0.026 Y0.052 Z2.000
G0 X0.026 Y0.047 Z2.000
G1 X0.026 Y0.047 Z-0.100 F100.0
G0 X0.026 Y0.047 Z2.000
G0 X0.026 Y0.045 Z2.000
G1 X0.026 Y0.045 Z-0.100 F100.0
G0 X0.026 Y0.045 Z2.000
G0 X0.026 Y0.042 Z2.000
G1 X0.026 Y0.042 Z-0.100 F100.0
G0 X0.026 Y0.042 Z2.000
G0 X0.026 Y0.040 Z2.000
G1 X0.026 Y0.040 Z-0.100 F100.0
G0 X0.026 Y0.040 Z2.000
G0 X0.026 Y0.037 Z2.000
G1 X0.026 Y0.037 Z-0.100 F100.0
G0 X0.026 Y0.037 Z2.000
G0 X0.026 Y0.035 Z2.000
G1 X0.026 Y0.035 Z-0.100 F100.0
G0 X0.026 Y0.035 Z2.000
G0 X0.030 Y0.003 Z2.000
G1 X0.030 Y0.003 Z-0.100 F100.0
G0 X0.030 Y0.003 Z2.000
G0 X0.025 Y0.003 Z2.000
G1 X0.025 Y0.003 Z-0.100 F100.0
G0 X0.025 Y0.003 Z2.000
G0 X0.018 Y0.031 Z2.000
G1 X0.018 Y0.031 Z-0.100 F100.0
G0 X0.018 Y0.031 Z2.000
G0 X0.008 Y0.031 Z2.000
G1 X0.008 Y0.031 Z-0.100 F100.0
G0 X0.008 Y0.031 Z2.000
G0 X0.018 Y0.012 Z2.000
G1 X0.018 Y0.012 Z-0.100 F100.0
G0 X0.018 Y0.012 Z2.000
G0 X0.016 Y0.012 Z2.000
G1 X0.016 Y0.012 Z-0.100 F100.0
G0 X0.016 Y0.012 Z2.000
G0 X0.013 Y0.012 Z2.000
G1 X0.013 Y0.012 Z-0.100 F100.0
G0 X0.013 Y0.012 Z2.000
G0 X0.005 Y0.031 Z2.000
G1 X0.005 Y0.031 Z-0.100 F100.0
G0 X0.005 Y0.031 Z2.000
G0 X0.003 Y0.031 Z2.000
G1 X0.003 Y0.031 Z-0.100 F100.0
G0 X0.003 Y0.031 Z2.000
G0 X0.066 Y0.060 Z2.000
G1 X0.066 Y0.060 Z-0.100 F100.0
G0 X0.066 Y0.060 Z2.000
G0 X0.066 Y0.056 Z2.000
G1 X0.066 Y0.056 Z-0.100 F100.0
G0 X0.066 Y0.056 Z2.000
G0 X0.066 Y0.052 Z2.000
G1 X0.066 Y0.052 Z-0.100 F100.0
G0 X0.066 Y0.052 Z2.000
G0 X0.066 Y0.049 Z2.000
G1 X0.066 Y0.049 Z-0.100 F100.0
G0 X0.066 Y0.049 Z2.000
G0 X0.066 Y0.045 Z2.000
G1 X0.066 Y0.045 Z-0.100 F100.0
G0 X0.066 Y0.045 Z2.000
G0 X0.063 Y0.060 Z2.000
G1 X0.063 Y0.060 Z-0.100 F100.0
G0 X0.063 Y0.060 Z2.000
G0 X0.063 Y0.056 Z2.000
G1 X0.063 Y0.056 Z-0.100 F100.0
G0 X0.063 Y0.056 Z2.000
G0 X0.063 Y0.052 Z2.000
G1 X0.063 Y0.052 Z-0.100 F100.0
G0 X0.063 Y0.052 Z2.000
G0 X0.063 Y0.049 Z2.000
G1 X0.063 Y0.049 Z-0.100 F100.0
G0 X0.063 Y0.049 Z2.000
G0 X0.063 Y0.045 Z2.000
G1 X0.063 Y0.045 Z-0.100 F100.0
G0 X0.063 Y0.045 Z2.000
G0 X0.061 Y0.060 Z2.000
G1 X0.061 Y0.060 Z-0.100 F100.0
G0 X0.061 Y0.060 Z2.000
G0 X0.061 Y0.056 Z2.000
G1 X0.061 Y0.056 Z-0.100 F100.0
G0 X0.061 Y0.056 Z2.000
G0 X0.061 Y0.052 Z2.000
G1 X0.061 Y0.052 Z-0.100 F100.0
G0 X0.061 Y0.052 Z2.000
G0 X0.061 Y0.049 Z2.000
G1 X0.061 Y0.049 Z-0.100 F100.0
G0 X0.061 Y0.049 Z2.000
G0 X0.061 Y0.045 Z2.000
G1 X0.061 Y0.045 Z-0.100 F100.0
G0 X0.061 Y0.045 Z2.000
G0 X0.018 Y0.022 Z2.000
G1 X0.018 Y0.022 Z-0.100 F100.0
G0 X0.018 Y0.022 Z2.000
G0 X0.015 Y0.070 Z2.000
G1 X0.015 Y0.070 Z-0.100 F100.0
G0 X0.015 Y0.070 Z2.000
G0 X0.015 Y0.066 Z2.000
G1 X0.015 Y0.066 Z-0.100 F100.0
G0 X0.015 Y0.066 Z2.000
G0 X0.015 Y0.062 Z2.000
G1 X0.015 Y0.062 Z-0.100 F100.0
G0 X0.015 Y0.062 Z2.000
G0 X0.015 Y0.058 Z2.000
G1 X0.015 Y0.058 Z-0.100 F100.0
G0 X0.015 Y0.058 Z2.000
G0 X0.015 Y0.054 Z2.000
G1 X0.015 Y0.054 Z-0.100 F100.0
G0 X0.015 Y0.054 Z2.000
G0 X0.015 Y0.051 Z2.000
G1 X0.015 Y0.051 Z-0.100 F100.0
G0 X0.015 Y0.051 Z2.000
G0 X0.015 Y0.047 Z2.000
G1 X0.015 Y0.047 Z-0.100 F100.0
G0 X0.015 Y0.047 Z2.000
G0 X0.013 Y0.022 Z2.000
G1 X0.013 Y0.022 Z-0.100 F100.0
G0 X0.013 Y0.022 Z2.000
G0 X0.012 Y0.070 Z2.000
G1 X0.012 Y0.070 Z-0.100 F100.0
G0 X0.012 Y0.070 Z2.000
G0 X0.012 Y0.066 Z2.000
G1 X0.012 Y0.066 Z-0.100 F100.0
G0 X0.012 Y0.066 Z2.000
G0 X0.012 Y0.062 Z2.000
G1 X0.012 Y0.062 Z-0.100 F100.0
G0 X0.012 Y0.062 Z2.000
G0 X0.012 Y0.058 Z2.000
G1 X0.012 Y0.058 Z-0.100 F100.0
G0 X0.012 Y0.058 Z2.000
G0 X0.012 Y0.054 Z2.000
G1 X0.012 Y0.054 Z-0.100 F100.0
G0 X0.012 Y0.054 Z2.000
G0 X0.012 Y0.051 Z2.000
G1 X0.012 Y0.051 Z-0.100 F100.0
G0 X0.012 Y0.051 Z2.000
G0 X0.012 Y0.047 Z2.000
G1 X0.012 Y0.047 Z-0.100 F100.0
G0 X0.012 Y0.047 Z2.000
G0 X0.010 Y0.070 Z2.000
G1 X0.010 Y0.070 Z-0.100 F100.0
G0 X0.010 Y0.070 Z2.000
G0 X0.010 Y0.066 Z2.000
G1 X0.010 Y0.066 Z-0.100 F100.0
G0 X0.010 Y0.066 Z2.000
G0 X0.010 Y0.062 Z2.000
G1 X0.010 Y0.062 Z-0.100 F100.0
G0 X0.010 Y0.062 Z2.000
G0 X0.010 Y0.058 Z2.000
G1 X0.010 Y0.058 Z-0.100 F100.0
G0 X0.010 Y0.058 Z2.000
G0 X0.010 Y0.054 Z2.000
G1 X0.010 Y0.054 Z-0.100 F100.0
G0 X0.010 Y0.054 Z2.000
G0 X0.010 Y0.051 Z2.000
G1 X0.010 Y0.051 Z-0.100 F100.0
G0 X0.010 Y0.051 Z2.000
G0 X0.010 Y0.047 Z2.000
G1 X0.010 Y0.047 Z-0.100 F100.0
G0 X0.010 Y0.047 Z2.000
G0 X0.016 Y0.004 Z2.000
G1 X0.016 Y0.004 Z-0.100 F100.0
G0 X0.016 Y0.004 Z2.000
G0 X0.011 Y0.004 Z2.000
G1 X0.011 Y0.004 Z-0.100 F100.0
G0 X0.011 Y0.004 Z2.000
G0 X0.068 Y0.074 Z2.000
G1 X0.068 Y0.074 Z-0.100 F100.0
G0 X0.068 Y0.074 Z2.000
G0 X0.068 Y0.003 Z2.000
G1 X0.068 Y0.003 Z-0.100 F100.0
G0 X0.068 Y0.003 Z2.000
G0 X0.003 Y0.074 Z2.000
G1 X0.003 Y0.074 Z-0.100 F100.0
G0 X0.003 Y0.074 Z2.000
G0 X0.003 Y0.003 Z2.000
G1 X0.003 Y0.003 Z-0.100 F100.0
G0 X0.003 Y0.003 Z2.000

G0 Z2.000 (Move to safe height)
M5 (Stop spindle)
M2 (End program)
