(AltairCAM Generated G-Code)
G21 (Metric units)
G90 (Absolute positioning)
M3 S10000 (Start spindle)
G0 Z2.000 (Move to safe height)

G0 X21.426 Y36.335 Z2.000
G1 X21.426 Y36.335 Z-0.050 F100.0
G1 X21.485 Y36.290 Z-0.050 F100.0
G0 X21.485 Y36.290 Z2.000
G0 X21.364 Y36.256 Z2.000
G1 X21.364 Y36.256 Z-0.050 F100.0
G1 X21.423 Y36.211 Z-0.050 F100.0
G0 X21.423 Y36.211 Z2.000
G0 X21.473 Y36.296 Z2.000
G1 X21.473 Y36.296 Z-0.050 F100.0
G1 X21.608 Y36.240 Z-0.050 F100.0
G0 X21.608 Y36.240 Z2.000
G0 X21.435 Y36.204 Z2.000
G1 X21.435 Y36.204 Z-0.050 F100.0
G1 X21.570 Y36.148 Z-0.050 F100.0
G0 X21.570 Y36.148 Z2.000
G0 X21.595 Y36.244 Z2.000
G1 X21.595 Y36.244 Z-0.050 F100.0
G1 X21.681 Y36.233 Z-0.050 F100.0
G0 X21.681 Y36.233 Z2.000
G0 X21.583 Y36.145 Z2.000
G1 X21.583 Y36.145 Z-0.050 F100.0
G1 X21.668 Y36.134 Z-0.050 F100.0
G0 X21.668 Y36.134 Z2.000
G0 X21.674 Y36.233 Z2.000
G1 X21.674 Y36.233 Z-0.050 F100.0
G1 X23.538 Y36.233 Z-0.050 F100.0
G0 X23.538 Y36.233 Z2.000
G0 X21.674 Y36.134 Z2.000
G1 X21.674 Y36.134 Z-0.050 F100.0
G1 X23.538 Y36.133 Z-0.050 F100.0
G0 X23.538 Y36.133 Z2.000
G0 X23.531 Y36.233 Z2.000
G1 X23.531 Y36.233 Z-0.050 F100.0
G1 X23.617 Y36.244 Z-0.050 F100.0
G0 X23.617 Y36.244 Z2.000
G0 X23.544 Y36.134 Z2.000
G1 X23.544 Y36.134 Z-0.050 F100.0
G1 X23.629 Y36.145 Z-0.050 F100.0
G0 X23.629 Y36.145 Z2.000
G0 X23.604 Y36.240 Z2.000
G1 X23.604 Y36.240 Z-0.050 F100.0
G1 X23.739 Y36.296 Z-0.050 F100.0
G0 X23.739 Y36.296 Z2.000
G0 X23.642 Y36.148 Z2.000
G1 X23.642 Y36.148 Z-0.050 F100.0
G1 X23.777 Y36.204 Z-0.050 F100.0
G0 X23.777 Y36.204 Z2.000
G0 X23.727 Y36.290 Z2.000
G1 X23.727 Y36.290 Z-0.050 F100.0
G1 X23.786 Y36.335 Z-0.050 F100.0
G0 X23.786 Y36.335 Z2.000
G0 X23.789 Y36.211 Z2.000
G1 X23.789 Y36.211 Z-0.050 F100.0
G1 X23.848 Y36.256 Z-0.050 F100.0
G0 X23.848 Y36.256 Z2.000
G0 X23.799 Y36.342 Z2.000
G1 X23.799 Y36.342 Z-0.050 F100.0
G1 X23.864 Y36.368 Z-0.050 F100.0
G0 X23.864 Y36.368 Z2.000
G0 X23.835 Y36.249 Z2.000
G1 X23.835 Y36.249 Z-0.050 F100.0
G1 X23.900 Y36.275 Z-0.050 F100.0
G0 X23.900 Y36.275 Z2.000
G0 X23.880 Y36.371 Z2.000
G1 X23.880 Y36.371 Z-0.050 F100.0
G1 X23.891 Y36.372 Z-0.050 F100.0
G0 X23.891 Y36.372 Z2.000
G0 X23.884 Y36.272 Z2.000
G1 X23.884 Y36.272 Z-0.050 F100.0
G1 X23.895 Y36.272 Z-0.050 F100.0
G0 X23.895 Y36.272 Z2.000
G0 X23.893 Y36.372 Z2.000
G1 X23.893 Y36.372 Z-0.050 F100.0
G1 X41.786 Y36.372 Z-0.050 F100.0
G0 X41.786 Y36.372 Z2.000
G0 X23.893 Y36.272 Z2.000
G1 X23.893 Y36.272 Z-0.050 F100.0
G1 X41.786 Y36.272 Z-0.050 F100.0
G0 X41.786 Y36.272 Z2.000
G0 X41.800 Y36.370 Z2.000
G1 X41.800 Y36.370 Z-0.050 F100.0
G1 X41.867 Y36.350 Z-0.050 F100.0
G0 X41.867 Y36.350 Z2.000
G0 X41.772 Y36.274 Z2.000
G1 X41.772 Y36.274 Z-0.050 F100.0
G1 X41.839 Y36.254 Z-0.050 F100.0
G0 X41.839 Y36.254 Z2.000
G0 X41.891 Y36.335 Z2.000
G1 X41.891 Y36.335 Z-0.050 F100.0
G1 X41.937 Y36.282 Z-0.050 F100.0
G0 X41.937 Y36.282 Z2.000
G0 X41.815 Y36.270 Z2.000
G1 X41.815 Y36.270 Z-0.050 F100.0
G1 X41.861 Y36.217 Z-0.050 F100.0
G0 X41.861 Y36.217 Z2.000
G0 X41.948 Y36.260 Z2.000
G1 X41.948 Y36.260 Z-0.050 F100.0
G1 X41.959 Y36.209 Z-0.050 F100.0
G0 X41.959 Y36.209 Z2.000
G0 X41.850 Y36.239 Z2.000
G1 X41.850 Y36.239 Z-0.050 F100.0
G1 X41.861 Y36.187 Z-0.050 F100.0
G0 X41.861 Y36.187 Z2.000
G0 X41.960 Y36.198 Z2.000
G1 X41.960 Y36.198 Z-0.050 F100.0
G1 X41.960 Y32.512 Z-0.050 F100.0
G0 X41.960 Y32.512 Z2.000
G0 X41.860 Y36.198 Z2.000
G1 X41.860 Y36.198 Z-0.050 F100.0
G1 X41.860 Y32.512 Z-0.050 F100.0
G0 X41.860 Y32.512 Z2.000
G0 X41.910 Y32.562 Z2.000
G1 X41.910 Y32.562 Z-0.050 F100.0
G1 X54.486 Y32.562 Z-0.050 F100.0
G0 X54.486 Y32.562 Z2.000
G0 X41.910 Y32.462 Z2.000
G1 X41.910 Y32.462 Z-0.050 F100.0
G1 X54.486 Y32.462 Z-0.050 F100.0
G0 X54.486 Y32.462 Z2.000
G0 X54.500 Y32.560 Z2.000
G1 X54.500 Y32.560 Z-0.050 F100.0
G1 X54.567 Y32.540 Z-0.050 F100.0
G0 X54.567 Y32.540 Z2.000
G0 X54.472 Y32.464 Z2.000
G1 X54.472 Y32.464 Z-0.050 F100.0
G1 X54.539 Y32.444 Z-0.050 F100.0
G0 X54.539 Y32.444 Z2.000
G0 X54.591 Y32.525 Z2.000
G1 X54.591 Y32.525 Z-0.050 F100.0
G1 X54.637 Y32.472 Z-0.050 F100.0
G0 X54.637 Y32.472 Z2.000
G0 X54.515 Y32.460 Z2.000
G1 X54.515 Y32.460 Z-0.050 F100.0
G1 X54.561 Y32.407 Z-0.050 F100.0
G0 X54.561 Y32.407 Z2.000
G0 X54.648 Y32.450 Z2.000
G1 X54.648 Y32.450 Z-0.050 F100.0
G1 X54.659 Y32.399 Z-0.050 F100.0
G0 X54.659 Y32.399 Z2.000
G0 X54.550 Y32.429 Z2.000
G1 X54.550 Y32.429 Z-0.050 F100.0
G1 X54.561 Y32.377 Z-0.050 F100.0
G0 X54.561 Y32.377 Z2.000
G0 X54.660 Y32.388 Z2.000
G1 X54.660 Y32.388 Z-0.050 F100.0
G1 X54.660 Y12.832 Z-0.050 F100.0
G0 X54.660 Y12.832 Z2.000
G0 X54.560 Y32.388 Z2.000
G1 X54.560 Y32.388 Z-0.050 F100.0
G1 X54.560 Y12.832 Z-0.050 F100.0
G0 X54.560 Y12.832 Z2.000
G0 X54.659 Y12.820 Z2.000
G1 X54.659 Y12.820 Z-0.050 F100.0
G1 X54.645 Y12.764 Z-0.050 F100.0
G0 X54.645 Y12.764 Z2.000
G0 X54.561 Y12.843 Z2.000
G1 X54.561 Y12.843 Z-0.050 F100.0
G1 X54.548 Y12.787 Z-0.050 F100.0
G0 X54.548 Y12.787 Z2.000
G0 X54.641 Y12.753 Z2.000
G1 X54.641 Y12.753 Z-0.050 F100.0
G1 X54.619 Y12.710 Z-0.050 F100.0
G0 X54.619 Y12.710 Z2.000
G0 X54.552 Y12.798 Z2.000
G1 X54.552 Y12.798 Z-0.050 F100.0
G1 X54.530 Y12.755 Z-0.050 F100.0
G0 X54.530 Y12.755 Z2.000
G0 X54.622 Y12.717 Z2.000
G1 X54.622 Y12.717 Z-0.050 F100.0
G1 X54.554 Y12.506 Z-0.050 F100.0
G0 X54.554 Y12.506 Z2.000
G0 X54.527 Y12.748 Z2.000
G1 X54.527 Y12.748 Z-0.050 F100.0
G1 X54.459 Y12.537 Z-0.050 F100.0
G0 X54.459 Y12.537 Z2.000
G0 X54.556 Y12.514 Z2.000
G1 X54.556 Y12.514 Z-0.050 F100.0
G1 X54.521 Y12.295 Z-0.050 F100.0
G0 X54.521 Y12.295 Z2.000
G0 X54.457 Y12.530 Z2.000
G1 X54.457 Y12.530 Z-0.050 F100.0
G1 X54.422 Y12.311 Z-0.050 F100.0
G0 X54.422 Y12.311 Z2.000
G0 X54.521 Y12.303 Z2.000
G1 X54.521 Y12.303 Z-0.050 F100.0
G1 X54.521 Y11.046 Z-0.050 F100.0
G0 X54.521 Y11.046 Z2.000
G0 X54.422 Y12.303 Z2.000
G1 X54.422 Y12.303 Z-0.050 F100.0
G1 X54.422 Y11.046 Z-0.050 F100.0
G0 X54.422 Y11.046 Z2.000
G0 X54.519 Y11.032 Z2.000
G1 X54.519 Y11.032 Z-0.050 F100.0
G1 X54.500 Y10.965 Z-0.050 F100.0
G0 X54.500 Y10.965 Z2.000
G0 X54.424 Y11.060 Z2.000
G1 X54.424 Y11.060 Z-0.050 F100.0
G1 X54.404 Y10.993 Z-0.050 F100.0
G0 X54.404 Y10.993 Z2.000
G0 X54.485 Y10.941 Z2.000
G1 X54.485 Y10.941 Z-0.050 F100.0
G1 X54.432 Y10.895 Z-0.050 F100.0
G0 X54.432 Y10.895 Z2.000
G0 X54.419 Y11.017 Z2.000
G1 X54.419 Y11.017 Z-0.050 F100.0
G1 X54.366 Y10.971 Z-0.050 F100.0
G0 X54.366 Y10.971 Z2.000
G0 X54.410 Y10.884 Z2.000
G1 X54.410 Y10.884 Z-0.050 F100.0
G1 X54.358 Y10.873 Z-0.050 F100.0
G0 X54.358 Y10.873 Z2.000
G0 X54.388 Y10.982 Z2.000
G1 X54.388 Y10.982 Z-0.050 F100.0
G1 X54.337 Y10.971 Z-0.050 F100.0
G0 X54.337 Y10.971 Z2.000
G0 X54.347 Y10.872 Z2.000
G1 X54.347 Y10.872 Z-0.050 F100.0
G1 X50.800 Y10.872 Z-0.050 F100.0
G0 X50.800 Y10.872 Z2.000
G0 X54.347 Y10.972 Z2.000
G1 X54.347 Y10.972 Z-0.050 F100.0
G1 X50.800 Y10.972 Z-0.050 F100.0
G0 X50.800 Y10.972 Z2.000
G0 X50.850 Y10.922 Z2.000
G1 X50.850 Y10.922 Z-0.050 F100.0
G1 X50.850 Y2.156 Z-0.050 F100.0
G0 X50.850 Y2.156 Z2.000
G0 X50.750 Y10.922 Z2.000
G1 X50.750 Y10.922 Z-0.050 F100.0
G1 X50.750 Y2.156 Z-0.050 F100.0
G0 X50.750 Y2.156 Z2.000
G0 X50.848 Y2.142 Z2.000
G1 X50.848 Y2.142 Z-0.050 F100.0
G1 X50.828 Y2.075 Z-0.050 F100.0
G0 X50.828 Y2.075 Z2.000
G0 X50.752 Y2.170 Z2.000
G1 X50.752 Y2.170 Z-0.050 F100.0
G1 X50.732 Y2.103 Z-0.050 F100.0
G0 X50.732 Y2.103 Z2.000
G0 X50.813 Y2.051 Z2.000
G1 X50.813 Y2.051 Z-0.050 F100.0
G1 X50.760 Y2.005 Z-0.050 F100.0
G0 X50.760 Y2.005 Z2.000
G0 X50.748 Y2.127 Z2.000
G1 X50.748 Y2.127 Z-0.050 F100.0
G1 X50.695 Y2.081 Z-0.050 F100.0
G0 X50.695 Y2.081 Z2.000
G0 X50.738 Y1.994 Z2.000
G1 X50.738 Y1.994 Z-0.050 F100.0
G1 X50.687 Y1.983 Z-0.050 F100.0
G0 X50.687 Y1.983 Z2.000
G0 X50.717 Y2.092 Z2.000
G1 X50.717 Y2.092 Z-0.050 F100.0
G1 X50.665 Y2.081 Z-0.050 F100.0
G0 X50.665 Y2.081 Z2.000
G0 X50.676 Y1.982 Z2.000
G1 X50.676 Y1.982 Z-0.050 F100.0
G1 X44.574 Y1.982 Z-0.050 F100.0
G0 X44.574 Y1.982 Z2.000
G0 X50.676 Y2.082 Z2.000
G1 X50.676 Y2.082 Z-0.050 F100.0
G1 X44.574 Y2.082 Z-0.050 F100.0
G0 X44.574 Y2.082 Z2.000
G0 X44.560 Y1.984 Z2.000
G1 X44.560 Y1.984 Z-0.050 F100.0
G1 X44.493 Y2.004 Z-0.050 F100.0
G0 X44.493 Y2.004 Z2.000
G0 X44.588 Y2.080 Z2.000
G1 X44.588 Y2.080 Z-0.050 F100.0
G1 X44.521 Y2.100 Z-0.050 F100.0
G0 X44.521 Y2.100 Z2.000
G0 X44.469 Y2.019 Z2.000
G1 X44.469 Y2.019 Z-0.050 F100.0
G1 X44.423 Y2.072 Z-0.050 F100.0
G0 X44.423 Y2.072 Z2.000
G0 X44.545 Y2.084 Z2.000
G1 X44.545 Y2.084 Z-0.050 F100.0
G1 X44.499 Y2.137 Z-0.050 F100.0
G0 X44.499 Y2.137 Z2.000
G0 X44.412 Y2.094 Z2.000
G1 X44.412 Y2.094 Z-0.050 F100.0
G1 X44.401 Y2.145 Z-0.050 F100.0
G0 X44.401 Y2.145 Z2.000
G0 X44.510 Y2.115 Z2.000
G1 X44.510 Y2.115 Z-0.050 F100.0
G1 X44.499 Y2.167 Z-0.050 F100.0
G0 X44.499 Y2.167 Z2.000
G0 X44.400 Y2.156 Z2.000
G1 X44.400 Y2.156 Z-0.050 F100.0
G1 X44.400 Y10.922 Z-0.050 F100.0
G0 X44.400 Y10.922 Z2.000
G0 X44.500 Y2.156 Z2.000
G1 X44.500 Y2.156 Z-0.050 F100.0
G1 X44.500 Y10.922 Z-0.050 F100.0
G0 X44.500 Y10.922 Z2.000
G0 X44.450 Y10.872 Z2.000
G1 X44.450 Y10.872 Z-0.050 F100.0
G1 X7.744 Y10.872 Z-0.050 F100.0
G0 X7.744 Y10.872 Z2.000
G0 X44.450 Y10.972 Z2.000
G1 X44.450 Y10.972 Z-0.050 F100.0
G1 X7.744 Y10.972 Z-0.050 F100.0
G0 X7.744 Y10.972 Z2.000
G0 X7.730 Y10.874 Z2.000
G1 X7.730 Y10.874 Z-0.050 F100.0
G1 X7.663 Y10.894 Z-0.050 F100.0
G0 X7.663 Y10.894 Z2.000
G0 X7.758 Y10.970 Z2.000
G1 X7.758 Y10.970 Z-0.050 F100.0
G1 X7.691 Y10.990 Z-0.050 F100.0
G0 X7.691 Y10.990 Z2.000
G0 X7.639 Y10.909 Z2.000
G1 X7.639 Y10.909 Z-0.050 F100.0
G1 X7.593 Y10.962 Z-0.050 F100.0
G0 X7.593 Y10.962 Z2.000
G0 X7.715 Y10.974 Z2.000
G1 X7.715 Y10.974 Z-0.050 F100.0
G1 X7.669 Y11.027 Z-0.050 F100.0
G0 X7.669 Y11.027 Z2.000
G0 X7.582 Y10.984 Z2.000
G1 X7.582 Y10.984 Z-0.050 F100.0
G1 X7.571 Y11.035 Z-0.050 F100.0
G0 X7.571 Y11.035 Z2.000
G0 X7.680 Y11.005 Z2.000
G1 X7.680 Y11.005 Z-0.050 F100.0
G1 X7.669 Y11.057 Z-0.050 F100.0
G0 X7.669 Y11.057 Z2.000
G0 X7.570 Y11.046 Z2.000
G1 X7.570 Y11.046 Z-0.050 F100.0
G1 X7.570 Y36.198 Z-0.050 F100.0
G0 X7.570 Y36.198 Z2.000
G0 X7.670 Y11.046 Z2.000
G1 X7.670 Y11.046 Z-0.050 F100.0
G1 X7.670 Y36.198 Z-0.050 F100.0
G0 X7.670 Y36.198 Z2.000
G0 X7.572 Y36.212 Z2.000
G1 X7.572 Y36.212 Z-0.050 F100.0
G1 X7.592 Y36.279 Z-0.050 F100.0
G0 X7.592 Y36.279 Z2.000
G0 X7.668 Y36.184 Z2.000
G1 X7.668 Y36.184 Z-0.050 F100.0
G1 X7.688 Y36.251 Z-0.050 F100.0
G0 X7.688 Y36.251 Z2.000
G0 X7.607 Y36.303 Z2.000
G1 X7.607 Y36.303 Z-0.050 F100.0
G1 X7.660 Y36.349 Z-0.050 F100.0
G0 X7.660 Y36.349 Z2.000
G0 X7.672 Y36.227 Z2.000
G1 X7.672 Y36.227 Z-0.050 F100.0
G1 X7.725 Y36.273 Z-0.050 F100.0
G0 X7.725 Y36.273 Z2.000
G0 X7.682 Y36.360 Z2.000
G1 X7.682 Y36.360 Z-0.050 F100.0
G1 X7.733 Y36.371 Z-0.050 F100.0
G0 X7.733 Y36.371 Z2.000
G0 X7.703 Y36.262 Z2.000
G1 X7.703 Y36.262 Z-0.050 F100.0
G1 X7.755 Y36.273 Z-0.050 F100.0
G0 X7.755 Y36.273 Z2.000
G0 X7.744 Y36.372 Z2.000
G1 X7.744 Y36.372 Z-0.050 F100.0
G1 X21.319 Y36.372 Z-0.050 F100.0
G0 X21.319 Y36.372 Z2.000
G0 X7.744 Y36.272 Z2.000
G1 X7.744 Y36.272 Z-0.050 F100.0
G1 X21.319 Y36.272 Z-0.050 F100.0
G0 X21.319 Y36.272 Z2.000
G0 X21.333 Y36.370 Z2.000
G1 X21.333 Y36.370 Z-0.050 F100.0
G1 X21.400 Y36.350 Z-0.050 F100.0
G0 X21.400 Y36.350 Z2.000
G0 X21.305 Y36.274 Z2.000
G1 X21.305 Y36.274 Z-0.050 F100.0
G1 X21.372 Y36.254 Z-0.050 F100.0
G0 X21.372 Y36.254 Z2.000
G0 X73.189 Y78.170 Z2.000
G1 X73.189 Y78.170 Z-0.050 F100.0
G1 X73.200 Y78.118 Z-0.050 F100.0
G0 X73.200 Y78.118 Z2.000
G0 X73.091 Y78.148 Z2.000
G1 X73.091 Y78.148 Z-0.050 F100.0
G1 X73.103 Y78.097 Z-0.050 F100.0
G0 X73.103 Y78.097 Z2.000
G0 X73.201 Y78.108 Z2.000
G1 X73.201 Y78.108 Z-0.050 F100.0
G1 X73.201 Y0.124 Z-0.050 F100.0
G0 X73.201 Y0.124 Z2.000
G0 X73.102 Y78.108 Z2.000
G1 X73.102 Y78.108 Z-0.050 F100.0
G1 X73.102 Y0.124 Z-0.050 F100.0
G0 X73.102 Y0.124 Z2.000
G0 X73.199 Y0.110 Z2.000
G1 X73.199 Y0.110 Z-0.050 F100.0
G1 X73.180 Y0.043 Z-0.050 F100.0
G0 X73.180 Y0.043 Z2.000
G0 X73.104 Y0.139 Z2.000
G1 X73.104 Y0.139 Z-0.050 F100.0
G1 X73.084 Y0.072 Z-0.050 F100.0
G0 X73.084 Y0.072 Z2.000
G0 X73.165 Y0.020 Z2.000
G1 X73.165 Y0.020 Z-0.050 F100.0
G1 X73.112 Y-0.026 Z-0.050 F100.0
G0 X73.112 Y-0.026 Z2.000
G0 X73.099 Y0.095 Z2.000
G1 X73.099 Y0.095 Z-0.050 F100.0
G1 X73.046 Y0.049 Z-0.050 F100.0
G0 X73.046 Y0.049 Z2.000
G0 X73.090 Y-0.037 Z2.000
G1 X73.090 Y-0.037 Z-0.050 F100.0
G1 X73.038 Y-0.048 Z-0.050 F100.0
G0 X73.038 Y-0.048 Z2.000
G0 X73.068 Y0.061 Z2.000
G1 X73.068 Y0.061 Z-0.050 F100.0
G1 X73.017 Y0.049 Z-0.050 F100.0
G0 X73.017 Y0.049 Z2.000
G0 X73.028 Y-0.050 Z2.000
G1 X73.028 Y-0.050 Z-0.050 F100.0
G1 X0.124 Y-0.050 Z-0.050 F100.0
G0 X0.124 Y-0.050 Z2.000
G0 X73.028 Y0.051 Z2.000
G1 X73.028 Y0.051 Z-0.050 F100.0
G1 X0.124 Y0.051 Z-0.050 F100.0
G0 X0.124 Y0.051 Z2.000
G0 X0.110 Y-0.047 Z2.000
G1 X0.110 Y-0.047 Z-0.050 F100.0
G1 X0.043 Y-0.028 Z-0.050 F100.0
G0 X0.043 Y-0.028 Z2.000
G0 X0.139 Y0.048 Z2.000
G1 X0.139 Y0.048 Z-0.050 F100.0
G1 X0.072 Y0.068 Z-0.050 F100.0
G0 X0.072 Y0.068 Z2.000
G0 X0.020 Y-0.013 Z2.000
G1 X0.020 Y-0.013 Z-0.050 F100.0
G1 X-0.026 Y0.040 Z-0.050 F100.0
G0 X-0.026 Y0.040 Z2.000
G0 X0.095 Y0.053 Z2.000
G1 X0.095 Y0.053 Z-0.050 F100.0
G1 X0.049 Y0.106 Z-0.050 F100.0
G0 X0.049 Y0.106 Z2.000
G0 X-0.037 Y0.062 Z2.000
G1 X-0.037 Y0.062 Z-0.050 F100.0
G1 X-0.048 Y0.114 Z-0.050 F100.0
G0 X-0.048 Y0.114 Z2.000
G0 X0.061 Y0.084 Z2.000
G1 X0.061 Y0.084 Z-0.050 F100.0
G1 X0.049 Y0.135 Z-0.050 F100.0
G0 X0.049 Y0.135 Z2.000
G0 X-0.050 Y0.124 Z2.000
G1 X-0.050 Y0.124 Z-0.050 F100.0
G1 X-0.050 Y3.677 Z-0.050 F100.0
G0 X-0.050 Y3.677 Z2.000
G0 X0.051 Y0.124 Z2.000
G1 X0.051 Y0.124 Z-0.050 F100.0
G1 X0.051 Y3.677 Z-0.050 F100.0
G0 X0.051 Y3.677 Z2.000
G0 X0.001 Y3.727 Z2.000
G1 X0.001 Y3.727 Z-0.050 F100.0
G1 X1.960 Y3.727 Z-0.050 F100.0
G0 X1.960 Y3.727 Z2.000
G0 X0.001 Y3.627 Z2.000
G1 X0.001 Y3.627 Z-0.050 F100.0
G1 X1.960 Y3.627 Z-0.050 F100.0
G0 X1.960 Y3.627 Z2.000
G0 X2.010 Y3.677 Z2.000
G1 X2.010 Y3.677 Z-0.050 F100.0
G1 X2.010 Y3.435 Z-0.050 F100.0
G0 X2.010 Y3.435 Z2.000
G0 X1.909 Y3.677 Z2.000
G1 X1.909 Y3.677 Z-0.050 F100.0
G1 X1.909 Y3.435 Z-0.050 F100.0
G0 X1.909 Y3.435 Z2.000
G0 X2.009 Y3.441 Z2.000
G1 X2.009 Y3.441 Z-0.050 F100.0
G1 X2.041 Y3.201 Z-0.050 F100.0
G0 X2.041 Y3.201 Z2.000
G0 X1.910 Y3.428 Z2.000
G1 X1.910 Y3.428 Z-0.050 F100.0
G1 X1.942 Y3.188 Z-0.050 F100.0
G0 X1.942 Y3.188 Z2.000
G0 X2.039 Y3.207 Z2.000
G1 X2.039 Y3.207 Z-0.050 F100.0
G1 X2.102 Y2.973 Z-0.050 F100.0
G0 X2.102 Y2.973 Z2.000
G0 X1.943 Y3.181 Z2.000
G1 X1.943 Y3.181 Z-0.050 F100.0
G1 X2.006 Y2.947 Z-0.050 F100.0
G0 X2.006 Y2.947 Z2.000
G0 X2.100 Y2.979 Z2.000
G1 X2.100 Y2.979 Z-0.050 F100.0
G1 X2.193 Y2.755 Z-0.050 F100.0
G0 X2.193 Y2.755 Z2.000
G0 X2.008 Y2.941 Z2.000
G1 X2.008 Y2.941 Z-0.050 F100.0
G1 X2.101 Y2.717 Z-0.050 F100.0
G0 X2.101 Y2.717 Z2.000
G0 X2.193 Y2.755 Z2.000
G1 X2.193 Y2.755 Z-0.050 F100.0
G1 X2.193 Y2.755 Z-0.050 F100.0
G0 X2.193 Y2.755 Z2.000
G0 X2.101 Y2.716 Z2.000
G1 X2.101 Y2.716 Z-0.050 F100.0
G1 X2.101 Y2.716 Z-0.050 F100.0
G0 X2.101 Y2.716 Z2.000
G0 X2.190 Y2.761 Z2.000
G1 X2.190 Y2.761 Z-0.050 F100.0
G1 X2.311 Y2.551 Z-0.050 F100.0
G0 X2.311 Y2.551 Z2.000
G0 X2.103 Y2.711 Z2.000
G1 X2.103 Y2.711 Z-0.050 F100.0
G1 X2.225 Y2.501 Z-0.050 F100.0
G0 X2.225 Y2.501 Z2.000
G0 X2.310 Y2.553 Z2.000
G1 X2.310 Y2.553 Z-0.050 F100.0
G1 X2.310 Y2.553 Z-0.050 F100.0
G0 X2.310 Y2.553 Z2.000
G0 X2.226 Y2.498 Z2.000
G1 X2.226 Y2.498 Z-0.050 F100.0
G1 X2.226 Y2.498 Z-0.050 F100.0
G0 X2.226 Y2.498 Z2.000
G0 X2.303 Y2.561 Z2.000
G1 X2.303 Y2.561 Z-0.050 F100.0
G1 X2.303 Y2.561 Z-0.050 F100.0
G0 X2.303 Y2.561 Z2.000
G0 X2.233 Y2.490 Z2.000
G1 X2.233 Y2.490 Z-0.050 F100.0
G1 X2.233 Y2.490 Z-0.050 F100.0
G0 X2.233 Y2.490 Z2.000
G0 X2.308 Y2.556 Z2.000
G1 X2.308 Y2.556 Z-0.050 F100.0
G1 X2.455 Y2.364 Z-0.050 F100.0
G0 X2.455 Y2.364 Z2.000
G0 X2.228 Y2.495 Z2.000
G1 X2.228 Y2.495 Z-0.050 F100.0
G1 X2.376 Y2.303 Z-0.050 F100.0
G0 X2.376 Y2.303 Z2.000
G0 X2.454 Y2.366 Z2.000
G1 X2.454 Y2.366 Z-0.050 F100.0
G1 X2.454 Y2.366 Z-0.050 F100.0
G0 X2.454 Y2.366 Z2.000
G0 X2.378 Y2.301 Z2.000
G1 X2.378 Y2.301 Z-0.050 F100.0
G1 X2.378 Y2.301 Z-0.050 F100.0
G0 X2.378 Y2.301 Z2.000
G0 X2.451 Y2.369 Z2.000
G1 X2.451 Y2.369 Z-0.050 F100.0
G1 X2.623 Y2.197 Z-0.050 F100.0
G0 X2.623 Y2.197 Z2.000
G0 X2.380 Y2.298 Z2.000
G1 X2.380 Y2.298 Z-0.050 F100.0
G1 X2.552 Y2.126 Z-0.050 F100.0
G0 X2.552 Y2.126 Z2.000
G0 X2.620 Y2.200 Z2.000
G1 X2.620 Y2.200 Z-0.050 F100.0
G1 X2.620 Y2.200 Z-0.050 F100.0
G0 X2.620 Y2.200 Z2.000
G0 X2.555 Y2.124 Z2.000
G1 X2.555 Y2.124 Z-0.050 F100.0
G1 X2.555 Y2.124 Z-0.050 F100.0
G0 X2.555 Y2.124 Z2.000
G0 X2.618 Y2.201 Z2.000
G1 X2.618 Y2.201 Z-0.050 F100.0
G1 X2.731 Y2.115 Z-0.050 F100.0
G0 X2.731 Y2.115 Z2.000
G0 X2.557 Y2.122 Z2.000
G1 X2.557 Y2.122 Z-0.050 F100.0
G1 X2.670 Y2.035 Z-0.050 F100.0
G0 X2.670 Y2.035 Z2.000
G0 X2.731 Y2.115 Z2.000
G1 X2.731 Y2.115 Z-0.050 F100.0
G1 X2.810 Y2.054 Z-0.050 F100.0
G0 X2.810 Y2.054 Z2.000
G0 X2.670 Y2.035 Z2.000
G1 X2.670 Y2.035 Z-0.050 F100.0
G1 X2.749 Y1.974 Z-0.050 F100.0
G0 X2.749 Y1.974 Z2.000
G0 X2.805 Y2.057 Z2.000
G1 X2.805 Y2.057 Z-0.050 F100.0
G1 X3.015 Y1.936 Z-0.050 F100.0
G0 X3.015 Y1.936 Z2.000
G0 X2.755 Y1.971 Z2.000
G1 X2.755 Y1.971 Z-0.050 F100.0
G1 X2.965 Y1.849 Z-0.050 F100.0
G0 X2.965 Y1.849 Z2.000
G0 X3.009 Y1.939 Z2.000
G1 X3.009 Y1.939 Z-0.050 F100.0
G1 X3.233 Y1.846 Z-0.050 F100.0
G0 X3.233 Y1.846 Z2.000
G0 X2.971 Y1.847 Z2.000
G1 X2.971 Y1.847 Z-0.050 F100.0
G1 X3.195 Y1.754 Z-0.050 F100.0
G0 X3.195 Y1.754 Z2.000
G0 X3.227 Y1.848 Z2.000
G1 X3.227 Y1.848 Z-0.050 F100.0
G1 X3.461 Y1.785 Z-0.050 F100.0
G0 X3.461 Y1.785 Z2.000
G0 X3.201 Y1.752 Z2.000
G1 X3.201 Y1.752 Z-0.050 F100.0
G1 X3.435 Y1.689 Z-0.050 F100.0
G0 X3.435 Y1.689 Z2.000
G0 X3.455 Y1.787 Z2.000
G1 X3.455 Y1.787 Z-0.050 F100.0
G1 X3.635 Y1.763 Z-0.050 F100.0
G0 X3.635 Y1.763 Z2.000
G0 X3.442 Y1.688 Z2.000
G1 X3.442 Y1.688 Z-0.050 F100.0
G1 X3.622 Y1.664 Z-0.050 F100.0
G0 X3.622 Y1.664 Z2.000
G0 X3.635 Y1.763 Z2.000
G1 X3.635 Y1.763 Z-0.050 F100.0
G1 X3.695 Y1.755 Z-0.050 F100.0
G0 X3.695 Y1.755 Z2.000
G0 X3.622 Y1.664 Z2.000
G1 X3.622 Y1.664 Z-0.050 F100.0
G1 X3.682 Y1.656 Z-0.050 F100.0
G0 X3.682 Y1.656 Z2.000
G0 X3.689 Y1.756 Z2.000
G1 X3.689 Y1.756 Z-0.050 F100.0
G1 X3.689 Y1.756 Z-0.050 F100.0
G0 X3.689 Y1.756 Z2.000
G0 X3.689 Y1.655 Z2.000
G1 X3.689 Y1.655 Z-0.050 F100.0
G1 X3.689 Y1.655 Z-0.050 F100.0
G0 X3.689 Y1.655 Z2.000
G0 X3.689 Y1.756 Z2.000
G1 X3.689 Y1.756 Z-0.050 F100.0
G1 X3.931 Y1.756 Z-0.050 F100.0
G0 X3.931 Y1.756 Z2.000
G0 X3.689 Y1.655 Z2.000
G1 X3.689 Y1.655 Z-0.050 F100.0
G1 X3.931 Y1.655 Z-0.050 F100.0
G0 X3.931 Y1.655 Z2.000
G0 X3.925 Y1.755 Z2.000
G1 X3.925 Y1.755 Z-0.050 F100.0
G1 X3.973 Y1.761 Z-0.050 F100.0
G0 X3.973 Y1.761 Z2.000
G0 X3.938 Y1.656 Z2.000
G1 X3.938 Y1.656 Z-0.050 F100.0
G1 X3.986 Y1.662 Z-0.050 F100.0
G0 X3.986 Y1.662 Z2.000
G0 X3.973 Y1.761 Z2.000
G1 X3.973 Y1.761 Z-0.050 F100.0
G1 X4.165 Y1.787 Z-0.050 F100.0
G0 X4.165 Y1.787 Z2.000
G0 X3.986 Y1.662 Z2.000
G1 X3.986 Y1.662 Z-0.050 F100.0
G1 X4.178 Y1.688 Z-0.050 F100.0
G0 X4.178 Y1.688 Z2.000
G0 X4.159 Y1.785 Z2.000
G1 X4.159 Y1.785 Z-0.050 F100.0
G1 X4.393 Y1.848 Z-0.050 F100.0
G0 X4.393 Y1.848 Z2.000
G0 X4.185 Y1.689 Z2.000
G1 X4.185 Y1.689 Z-0.050 F100.0
G1 X4.419 Y1.752 Z-0.050 F100.0
G0 X4.419 Y1.752 Z2.000
G0 X4.387 Y1.846 Z2.000
G1 X4.387 Y1.846 Z-0.050 F100.0
G1 X4.611 Y1.939 Z-0.050 F100.0
G0 X4.611 Y1.939 Z2.000
G0 X4.425 Y1.754 Z2.000
G1 X4.425 Y1.754 Z-0.050 F100.0
G1 X4.649 Y1.847 Z-0.050 F100.0
G0 X4.649 Y1.847 Z2.000
G0 X4.605 Y1.936 Z2.000
G1 X4.605 Y1.936 Z-0.050 F100.0
G1 X4.815 Y2.057 Z-0.050 F100.0
G0 X4.815 Y2.057 Z2.000
G0 X4.655 Y1.849 Z2.000
G1 X4.655 Y1.849 Z-0.050 F100.0
G1 X4.865 Y1.971 Z-0.050 F100.0
G0 X4.865 Y1.971 Z2.000
G0 X4.810 Y2.054 Z2.000
G1 X4.810 Y2.054 Z-0.050 F100.0
G1 X5.002 Y2.201 Z-0.050 F100.0
G0 X5.002 Y2.201 Z2.000
G0 X4.871 Y1.974 Z2.000
G1 X4.871 Y1.974 Z-0.050 F100.0
G1 X5.063 Y2.122 Z-0.050 F100.0
G0 X5.063 Y2.122 Z2.000
G0 X4.997 Y2.197 Z2.000
G1 X4.997 Y2.197 Z-0.050 F100.0
G1 X5.169 Y2.369 Z-0.050 F100.0
G0 X5.169 Y2.369 Z2.000
G0 X5.068 Y2.126 Z2.000
G1 X5.068 Y2.126 Z-0.050 F100.0
G1 X5.240 Y2.298 Z-0.050 F100.0
G0 X5.240 Y2.298 Z2.000
G0 X5.165 Y2.364 Z2.000
G1 X5.165 Y2.364 Z-0.050 F100.0
G1 X5.312 Y2.556 Z-0.050 F100.0
G0 X5.312 Y2.556 Z2.000
G0 X5.244 Y2.303 Z2.000
G1 X5.244 Y2.303 Z-0.050 F100.0
G1 X5.392 Y2.495 Z-0.050 F100.0
G0 X5.392 Y2.495 Z2.000
G0 X5.309 Y2.551 Z2.000
G1 X5.309 Y2.551 Z-0.050 F100.0
G1 X5.430 Y2.761 Z-0.050 F100.0
G0 X5.430 Y2.761 Z2.000
G0 X5.395 Y2.501 Z2.000
G1 X5.395 Y2.501 Z-0.050 F100.0
G1 X5.517 Y2.711 Z-0.050 F100.0
G0 X5.517 Y2.711 Z2.000
G0 X5.427 Y2.755 Z2.000
G1 X5.427 Y2.755 Z-0.050 F100.0
G1 X5.520 Y2.979 Z-0.050 F100.0
G0 X5.520 Y2.979 Z2.000
G0 X5.519 Y2.717 Z2.000
G1 X5.519 Y2.717 Z-0.050 F100.0
G1 X5.612 Y2.941 Z-0.050 F100.0
G0 X5.612 Y2.941 Z2.000
G0 X5.518 Y2.973 Z2.000
G1 X5.518 Y2.973 Z-0.050 F100.0
G1 X5.581 Y3.207 Z-0.050 F100.0
G0 X5.581 Y3.207 Z2.000
G0 X5.614 Y2.947 Z2.000
G1 X5.614 Y2.947 Z-0.050 F100.0
G1 X5.677 Y3.181 Z-0.050 F100.0
G0 X5.677 Y3.181 Z2.000
G0 X5.579 Y3.201 Z2.000
G1 X5.579 Y3.201 Z-0.050 F100.0
G1 X5.611 Y3.441 Z-0.050 F100.0
G0 X5.611 Y3.441 Z2.000
G0 X5.678 Y3.188 Z2.000
G1 X5.678 Y3.188 Z-0.050 F100.0
G1 X5.710 Y3.428 Z-0.050 F100.0
G0 X5.710 Y3.428 Z2.000
G0 X5.611 Y3.435 Z2.000
G1 X5.611 Y3.435 Z-0.050 F100.0
G1 X5.611 Y3.677 Z-0.050 F100.0
G0 X5.611 Y3.677 Z2.000
G0 X5.710 Y3.435 Z2.000
G1 X5.710 Y3.435 Z-0.050 F100.0
G1 X5.710 Y3.677 Z-0.050 F100.0
G0 X5.710 Y3.677 Z2.000
G0 X5.611 Y3.671 Z2.000
G1 X5.611 Y3.671 Z-0.050 F100.0
G1 X5.579 Y3.911 Z-0.050 F100.0
G0 X5.579 Y3.911 Z2.000
G0 X5.710 Y3.684 Z2.000
G1 X5.710 Y3.684 Z-0.050 F100.0
G1 X5.678 Y3.924 Z-0.050 F100.0
G0 X5.678 Y3.924 Z2.000
G0 X5.581 Y3.905 Z2.000
G1 X5.581 Y3.905 Z-0.050 F100.0
G1 X5.518 Y4.139 Z-0.050 F100.0
G0 X5.518 Y4.139 Z2.000
G0 X5.677 Y3.931 Z2.000
G1 X5.677 Y3.931 Z-0.050 F100.0
G1 X5.614 Y4.165 Z-0.050 F100.0
G0 X5.614 Y4.165 Z2.000
G0 X5.520 Y4.133 Z2.000
G1 X5.520 Y4.133 Z-0.050 F100.0
G1 X5.427 Y4.357 Z-0.050 F100.0
G0 X5.427 Y4.357 Z2.000
G0 X5.612 Y4.171 Z2.000
G1 X5.612 Y4.171 Z-0.050 F100.0
G1 X5.519 Y4.395 Z-0.050 F100.0
G0 X5.519 Y4.395 Z2.000
G0 X5.430 Y4.351 Z2.000
G1 X5.430 Y4.351 Z-0.050 F100.0
G1 X5.309 Y4.561 Z-0.050 F100.0
G0 X5.309 Y4.561 Z2.000
G0 X5.517 Y4.401 Z2.000
G1 X5.517 Y4.401 Z-0.050 F100.0
G1 X5.395 Y4.611 Z-0.050 F100.0
G0 X5.395 Y4.611 Z2.000
G0 X5.312 Y4.556 Z2.000
G1 X5.312 Y4.556 Z-0.050 F100.0
G1 X5.165 Y4.748 Z-0.050 F100.0
G0 X5.165 Y4.748 Z2.000
G0 X5.392 Y4.617 Z2.000
G1 X5.392 Y4.617 Z-0.050 F100.0
G1 X5.244 Y4.809 Z-0.050 F100.0
G0 X5.244 Y4.809 Z2.000
G0 X5.166 Y4.747 Z2.000
G1 X5.166 Y4.747 Z-0.050 F100.0
G1 X5.166 Y4.747 Z-0.050 F100.0
G0 X5.166 Y4.747 Z2.000
G0 X5.243 Y4.811 Z2.000
G1 X5.243 Y4.811 Z-0.050 F100.0
G1 X5.243 Y4.811 Z-0.050 F100.0
G0 X5.243 Y4.811 Z2.000
G0 X5.169 Y4.743 Z2.000
G1 X5.169 Y4.743 Z-0.050 F100.0
G1 X4.997 Y4.915 Z-0.050 F100.0
G0 X4.997 Y4.915 Z2.000
G0 X5.240 Y4.814 Z2.000
G1 X5.240 Y4.814 Z-0.050 F100.0
G1 X5.068 Y4.986 Z-0.050 F100.0
G0 X5.068 Y4.986 Z2.000
G0 X5.000 Y4.912 Z2.000
G1 X5.000 Y4.912 Z-0.050 F100.0
G1 X5.000 Y4.912 Z-0.050 F100.0
G0 X5.000 Y4.912 Z2.000
G0 X5.065 Y4.988 Z2.000
G1 X5.065 Y4.988 Z-0.050 F100.0
G1 X5.065 Y4.988 Z-0.050 F100.0
G0 X5.065 Y4.988 Z2.000
G0 X5.002 Y4.911 Z2.000
G1 X5.002 Y4.911 Z-0.050 F100.0
G1 X4.810 Y5.058 Z-0.050 F100.0
G0 X4.810 Y5.058 Z2.000
G0 X5.063 Y4.990 Z2.000
G1 X5.063 Y4.990 Z-0.050 F100.0
G1 X4.871 Y5.138 Z-0.050 F100.0
G0 X4.871 Y5.138 Z2.000
G0 X4.805 Y5.063 Z2.000
G1 X4.805 Y5.063 Z-0.050 F100.0
G1 X4.805 Y5.063 Z-0.050 F100.0
G0 X4.805 Y5.063 Z2.000
G0 X4.876 Y5.133 Z2.000
G1 X4.876 Y5.133 Z-0.050 F100.0
G1 X4.876 Y5.133 Z-0.050 F100.0
G0 X4.876 Y5.133 Z2.000
G0 X4.813 Y5.056 Z2.000
G1 X4.813 Y5.056 Z-0.050 F100.0
G1 X4.813 Y5.056 Z-0.050 F100.0
G0 X4.813 Y5.056 Z2.000
G0 X4.868 Y5.140 Z2.000
G1 X4.868 Y5.140 Z-0.050 F100.0
G1 X4.868 Y5.140 Z-0.050 F100.0
G0 X4.868 Y5.140 Z2.000
G0 X4.815 Y5.055 Z2.000
G1 X4.815 Y5.055 Z-0.050 F100.0
G1 X4.605 Y5.176 Z-0.050 F100.0
G0 X4.605 Y5.176 Z2.000
G0 X4.865 Y5.141 Z2.000
G1 X4.865 Y5.141 Z-0.050 F100.0
G1 X4.655 Y5.263 Z-0.050 F100.0
G0 X4.655 Y5.263 Z2.000
G0 X4.611 Y5.173 Z2.000
G1 X4.611 Y5.173 Z-0.050 F100.0
G1 X4.611 Y5.173 Z-0.050 F100.0
G0 X4.611 Y5.173 Z2.000
G0 X4.650 Y5.265 Z2.000
G1 X4.650 Y5.265 Z-0.050 F100.0
G1 X4.650 Y5.265 Z-0.050 F100.0
G0 X4.650 Y5.265 Z2.000
G0 X4.611 Y5.173 Z2.000
G1 X4.611 Y5.173 Z-0.050 F100.0
G1 X4.387 Y5.266 Z-0.050 F100.0
G0 X4.387 Y5.266 Z2.000
G0 X4.649 Y5.265 Z2.000
G1 X4.649 Y5.265 Z-0.050 F100.0
G1 X4.425 Y5.358 Z-0.050 F100.0
G0 X4.425 Y5.358 Z2.000
G0 X4.393 Y5.264 Z2.000
G1 X4.393 Y5.264 Z-0.050 F100.0
G1 X4.159 Y5.327 Z-0.050 F100.0
G0 X4.159 Y5.327 Z2.000
G0 X4.419 Y5.360 Z2.000
G1 X4.419 Y5.360 Z-0.050 F100.0
G1 X4.185 Y5.423 Z-0.050 F100.0
G0 X4.185 Y5.423 Z2.000
G0 X4.165 Y5.325 Z2.000
G1 X4.165 Y5.325 Z-0.050 F100.0
G1 X3.925 Y5.357 Z-0.050 F100.0
G0 X3.925 Y5.357 Z2.000
G0 X4.178 Y5.424 Z2.000
G1 X4.178 Y5.424 Z-0.050 F100.0
G1 X3.938 Y5.456 Z-0.050 F100.0
G0 X3.938 Y5.456 Z2.000
G0 X3.931 Y5.357 Z2.000
G1 X3.931 Y5.357 Z-0.050 F100.0
G1 X3.931 Y5.357 Z-0.050 F100.0
G0 X3.931 Y5.357 Z2.000
G0 X3.931 Y5.457 Z2.000
G1 X3.931 Y5.457 Z-0.050 F100.0
G1 X3.931 Y5.457 Z-0.050 F100.0
G0 X3.931 Y5.457 Z2.000
G0 X3.931 Y5.357 Z2.000
G1 X3.931 Y5.357 Z-0.050 F100.0
G1 X3.689 Y5.357 Z-0.050 F100.0
G0 X3.689 Y5.357 Z2.000
G0 X3.931 Y5.457 Z2.000
G1 X3.931 Y5.457 Z-0.050 F100.0
G1 X3.689 Y5.457 Z-0.050 F100.0
G0 X3.689 Y5.457 Z2.000
G0 X3.689 Y5.357 Z2.000
G1 X3.689 Y5.357 Z-0.050 F100.0
G1 X3.689 Y5.357 Z-0.050 F100.0
G0 X3.689 Y5.357 Z2.000
G0 X3.689 Y5.457 Z2.000
G1 X3.689 Y5.457 Z-0.050 F100.0
G1 X3.689 Y5.457 Z-0.050 F100.0
G0 X3.689 Y5.457 Z2.000
G0 X3.695 Y5.357 Z2.000
G1 X3.695 Y5.357 Z-0.050 F100.0
G1 X3.455 Y5.325 Z-0.050 F100.0
G0 X3.455 Y5.325 Z2.000
G0 X3.682 Y5.456 Z2.000
G1 X3.682 Y5.456 Z-0.050 F100.0
G1 X3.442 Y5.424 Z-0.050 F100.0
G0 X3.442 Y5.424 Z2.000
G0 X3.461 Y5.327 Z2.000
G1 X3.461 Y5.327 Z-0.050 F100.0
G1 X3.227 Y5.264 Z-0.050 F100.0
G0 X3.227 Y5.264 Z2.000
G0 X3.435 Y5.423 Z2.000
G1 X3.435 Y5.423 Z-0.050 F100.0
G1 X3.201 Y5.360 Z-0.050 F100.0
G0 X3.201 Y5.360 Z2.000
G0 X3.233 Y5.266 Z2.000
G1 X3.233 Y5.266 Z-0.050 F100.0
G1 X3.009 Y5.173 Z-0.050 F100.0
G0 X3.009 Y5.173 Z2.000
G0 X3.195 Y5.358 Z2.000
G1 X3.195 Y5.358 Z-0.050 F100.0
G1 X2.971 Y5.265 Z-0.050 F100.0
G0 X2.971 Y5.265 Z2.000
G0 X3.010 Y5.174 Z2.000
G1 X3.010 Y5.174 Z-0.050 F100.0
G1 X3.010 Y5.174 Z-0.050 F100.0
G0 X3.010 Y5.174 Z2.000
G0 X2.969 Y5.265 Z2.000
G1 X2.969 Y5.265 Z-0.050 F100.0
G1 X2.969 Y5.265 Z-0.050 F100.0
G0 X2.969 Y5.265 Z2.000
G0 X3.015 Y5.176 Z2.000
G1 X3.015 Y5.176 Z-0.050 F100.0
G1 X2.805 Y5.055 Z-0.050 F100.0
G0 X2.805 Y5.055 Z2.000
G0 X2.965 Y5.263 Z2.000
G1 X2.965 Y5.263 Z-0.050 F100.0
G1 X2.755 Y5.141 Z-0.050 F100.0
G0 X2.755 Y5.141 Z2.000
G0 X2.810 Y5.058 Z2.000
G1 X2.810 Y5.058 Z-0.050 F100.0
G1 X2.618 Y4.911 Z-0.050 F100.0
G0 X2.618 Y4.911 Z2.000
G0 X2.749 Y5.138 Z2.000
G1 X2.749 Y5.138 Z-0.050 F100.0
G1 X2.557 Y4.990 Z-0.050 F100.0
G0 X2.557 Y4.990 Z2.000
G0 X2.620 Y4.912 Z2.000
G1 X2.620 Y4.912 Z-0.050 F100.0
G1 X2.620 Y4.912 Z-0.050 F100.0
G0 X2.620 Y4.912 Z2.000
G0 X2.555 Y4.988 Z2.000
G1 X2.555 Y4.988 Z-0.050 F100.0
G1 X2.555 Y4.988 Z-0.050 F100.0
G0 X2.555 Y4.988 Z2.000
G0 X2.623 Y4.915 Z2.000
G1 X2.623 Y4.915 Z-0.050 F100.0
G1 X2.451 Y4.743 Z-0.050 F100.0
G0 X2.451 Y4.743 Z2.000
G0 X2.552 Y4.986 Z2.000
G1 X2.552 Y4.986 Z-0.050 F100.0
G1 X2.380 Y4.814 Z-0.050 F100.0
G0 X2.380 Y4.814 Z2.000
G0 X2.454 Y4.746 Z2.000
G1 X2.454 Y4.746 Z-0.050 F100.0
G1 X2.454 Y4.746 Z-0.050 F100.0
G0 X2.454 Y4.746 Z2.000
G0 X2.378 Y4.811 Z2.000
G1 X2.378 Y4.811 Z-0.050 F100.0
G1 X2.378 Y4.811 Z-0.050 F100.0
G0 X2.378 Y4.811 Z2.000
G0 X2.455 Y4.748 Z2.000
G1 X2.455 Y4.748 Z-0.050 F100.0
G1 X2.308 Y4.556 Z-0.050 F100.0
G0 X2.308 Y4.556 Z2.000
G0 X2.376 Y4.809 Z2.000
G1 X2.376 Y4.809 Z-0.050 F100.0
G1 X2.228 Y4.617 Z-0.050 F100.0
G0 X2.228 Y4.617 Z2.000
G0 X2.311 Y4.561 Z2.000
G1 X2.311 Y4.561 Z-0.050 F100.0
G1 X2.190 Y4.351 Z-0.050 F100.0
G0 X2.190 Y4.351 Z2.000
G0 X2.225 Y4.611 Z2.000
G1 X2.225 Y4.611 Z-0.050 F100.0
G1 X2.103 Y4.401 Z-0.050 F100.0
G0 X2.103 Y4.401 Z2.000
G0 X2.192 Y4.356 Z2.000
G1 X2.192 Y4.356 Z-0.050 F100.0
G1 X2.192 Y4.356 Z-0.050 F100.0
G0 X2.192 Y4.356 Z2.000
G0 X2.101 Y4.397 Z2.000
G1 X2.101 Y4.397 Z-0.050 F100.0
G1 X2.101 Y4.397 Z-0.050 F100.0
G0 X2.101 Y4.397 Z2.000
G0 X2.193 Y4.357 Z2.000
G1 X2.193 Y4.357 Z-0.050 F100.0
G1 X2.100 Y4.133 Z-0.050 F100.0
G0 X2.100 Y4.133 Z2.000
G0 X2.101 Y4.395 Z2.000
G1 X2.101 Y4.395 Z-0.050 F100.0
G1 X2.008 Y4.171 Z-0.050 F100.0
G0 X2.008 Y4.171 Z2.000
G0 X2.102 Y4.139 Z2.000
G1 X2.102 Y4.139 Z-0.050 F100.0
G1 X2.039 Y3.905 Z-0.050 F100.0
G0 X2.039 Y3.905 Z2.000
G0 X2.006 Y4.165 Z2.000
G1 X2.006 Y4.165 Z-0.050 F100.0
G1 X1.943 Y3.931 Z-0.050 F100.0
G0 X1.943 Y3.931 Z2.000
G0 X2.041 Y3.911 Z2.000
G1 X2.041 Y3.911 Z-0.050 F100.0
G1 X2.009 Y3.671 Z-0.050 F100.0
G0 X2.009 Y3.671 Z2.000
G0 X1.942 Y3.924 Z2.000
G1 X1.942 Y3.924 Z-0.050 F100.0
G1 X1.910 Y3.684 Z-0.050 F100.0
G0 X1.910 Y3.684 Z2.000
G0 X1.960 Y3.627 Z2.000
G1 X1.960 Y3.627 Z-0.050 F100.0
G1 X0.001 Y3.627 Z-0.050 F100.0
G0 X0.001 Y3.627 Z2.000
G0 X1.960 Y3.727 Z2.000
G1 X1.960 Y3.727 Z-0.050 F100.0
G1 X0.001 Y3.727 Z-0.050 F100.0
G0 X0.001 Y3.727 Z2.000
G0 X-0.050 Y3.677 Z2.000
G1 X-0.050 Y3.677 Z-0.050 F100.0
G1 X-0.050 Y60.563 Z-0.050 F100.0
G0 X-0.050 Y60.563 Z2.000
G0 X0.051 Y3.677 Z2.000
G1 X0.051 Y3.677 Z-0.050 F100.0
G1 X0.051 Y60.563 Z-0.050 F100.0
G0 X0.051 Y60.563 Z2.000
G0 X0.001 Y60.613 Z2.000
G1 X0.001 Y60.613 Z-0.050 F100.0
G1 X6.973 Y60.613 Z-0.050 F100.0
G0 X6.973 Y60.613 Z2.000
G0 X0.001 Y60.513 Z2.000
G1 X0.001 Y60.513 Z-0.050 F100.0
G1 X6.973 Y60.513 Z-0.050 F100.0
G0 X6.973 Y60.513 Z2.000
G0 X7.023 Y60.563 Z2.000
G1 X7.023 Y60.563 Z-0.050 F100.0
G1 X7.023 Y32.401 Z-0.050 F100.0
G0 X7.023 Y32.401 Z2.000
G0 X6.923 Y60.563 Z2.000
G1 X6.923 Y60.563 Z-0.050 F100.0
G1 X6.923 Y32.401 Z-0.050 F100.0
G0 X6.923 Y32.401 Z2.000
G0 X7.023 Y32.409 Z2.000
G1 X7.023 Y32.409 Z-0.050 F100.0
G1 X7.058 Y32.190 Z-0.050 F100.0
G0 X7.058 Y32.190 Z2.000
G0 X6.924 Y32.393 Z2.000
G1 X6.924 Y32.393 Z-0.050 F100.0
G1 X6.959 Y32.174 Z-0.050 F100.0
G0 X6.959 Y32.174 Z2.000
G0 X7.056 Y32.198 Z2.000
G1 X7.056 Y32.198 Z-0.050 F100.0
G1 X7.124 Y31.987 Z-0.050 F100.0
G0 X7.124 Y31.987 Z2.000
G0 X6.961 Y32.167 Z2.000
G1 X6.961 Y32.167 Z-0.050 F100.0
G1 X7.029 Y31.956 Z-0.050 F100.0
G0 X7.029 Y31.956 Z2.000
G0 X7.121 Y31.994 Z2.000
G1 X7.121 Y31.994 Z-0.050 F100.0
G1 X7.138 Y31.962 Z-0.050 F100.0
G0 X7.138 Y31.962 Z2.000
G0 X7.032 Y31.949 Z2.000
G1 X7.032 Y31.949 Z-0.050 F100.0
G1 X7.048 Y31.917 Z-0.050 F100.0
G0 X7.048 Y31.917 Z2.000
G0 X7.142 Y31.951 Z2.000
G1 X7.142 Y31.951 Z-0.050 F100.0
G1 X7.155 Y31.895 Z-0.050 F100.0
G0 X7.155 Y31.895 Z2.000
G0 X7.044 Y31.928 Z2.000
G1 X7.044 Y31.928 Z-0.050 F100.0
G1 X7.058 Y31.871 Z-0.050 F100.0
G0 X7.058 Y31.871 Z2.000
G0 X7.156 Y31.883 Z2.000
G1 X7.156 Y31.883 Z-0.050 F100.0
G1 X7.156 Y11.046 Z-0.050 F100.0
G0 X7.156 Y11.046 Z2.000
G0 X7.056 Y31.883 Z2.000
G1 X7.056 Y31.883 Z-0.050 F100.0
G1 X7.056 Y11.046 Z-0.050 F100.0
G0 X7.056 Y11.046 Z2.000
G0 X7.156 Y11.052 Z2.000
G1 X7.156 Y11.052 Z-0.050 F100.0
G1 X7.156 Y11.052 Z-0.050 F100.0
G0 X7.156 Y11.052 Z2.000
G0 X7.057 Y11.040 Z2.000
G1 X7.057 Y11.040 Z-0.050 F100.0
G1 X7.057 Y11.040 Z-0.050 F100.0
G0 X7.057 Y11.040 Z2.000
G0 X7.156 Y11.051 Z2.000
G1 X7.156 Y11.051 Z-0.050 F100.0
G1 X7.168 Y10.942 Z-0.050 F100.0
G0 X7.168 Y10.942 Z2.000
G0 X7.057 Y11.041 Z2.000
G1 X7.057 Y11.041 Z-0.050 F100.0
G1 X7.069 Y10.932 Z-0.050 F100.0
G0 X7.069 Y10.932 Z2.000
G0 X7.168 Y10.945 Z2.000
G1 X7.168 Y10.945 Z-0.050 F100.0
G1 X7.168 Y10.945 Z-0.050 F100.0
G0 X7.168 Y10.945 Z2.000
G0 X7.069 Y10.929 Z2.000
G1 X7.069 Y10.929 Z-0.050 F100.0
G1 X7.069 Y10.929 Z-0.050 F100.0
G0 X7.069 Y10.929 Z2.000
G0 X7.167 Y10.947 Z2.000
G1 X7.167 Y10.947 Z-0.050 F100.0
G1 X7.178 Y10.896 Z-0.050 F100.0
G0 X7.178 Y10.896 Z2.000
G0 X7.069 Y10.926 Z2.000
G1 X7.069 Y10.926 Z-0.050 F100.0
G1 X7.081 Y10.875 Z-0.050 F100.0
G0 X7.081 Y10.875 Z2.000
G0 X7.177 Y10.901 Z2.000
G1 X7.177 Y10.901 Z-0.050 F100.0
G1 X7.212 Y10.797 Z-0.050 F100.0
G0 X7.212 Y10.797 Z2.000
G0 X7.082 Y10.870 Z2.000
G1 X7.082 Y10.870 Z-0.050 F100.0
G1 X7.117 Y10.765 Z-0.050 F100.0
G0 X7.117 Y10.765 Z2.000
G0 X7.209 Y10.804 Z2.000
G1 X7.209 Y10.804 Z-0.050 F100.0
G1 X7.209 Y10.804 Z-0.050 F100.0
G0 X7.209 Y10.804 Z2.000
G0 X7.119 Y10.759 Z2.000
G1 X7.119 Y10.759 Z-0.050 F100.0
G1 X7.119 Y10.759 Z-0.050 F100.0
G0 X7.119 Y10.759 Z2.000
G0 X7.206 Y10.808 Z2.000
G1 X7.206 Y10.808 Z-0.050 F100.0
G1 X7.285 Y10.685 Z-0.050 F100.0
G0 X7.285 Y10.685 Z2.000
G0 X7.122 Y10.754 Z2.000
G1 X7.122 Y10.754 Z-0.050 F100.0
G1 X7.201 Y10.631 Z-0.050 F100.0
G0 X7.201 Y10.631 Z2.000
G0 X7.281 Y10.691 Z2.000
G1 X7.281 Y10.691 Z-0.050 F100.0
G1 X7.281 Y10.691 Z-0.050 F100.0
G0 X7.281 Y10.691 Z2.000
G0 X7.205 Y10.626 Z2.000
G1 X7.205 Y10.626 Z-0.050 F100.0
G1 X7.205 Y10.626 Z-0.050 F100.0
G0 X7.205 Y10.626 Z2.000
G0 X7.281 Y10.691 Z2.000
G1 X7.281 Y10.691 Z-0.050 F100.0
G1 X7.327 Y10.638 Z-0.050 F100.0
G0 X7.327 Y10.638 Z2.000
G0 X7.205 Y10.625 Z2.000
G1 X7.205 Y10.625 Z-0.050 F100.0
G1 X7.251 Y10.573 Z-0.050 F100.0
G0 X7.251 Y10.573 Z2.000
G0 X7.324 Y10.641 Z2.000
G1 X7.324 Y10.641 Z-0.050 F100.0
G1 X7.324 Y10.641 Z-0.050 F100.0
G0 X7.324 Y10.641 Z2.000
G0 X7.254 Y10.570 Z2.000
G1 X7.254 Y10.570 Z-0.050 F100.0
G1 X7.254 Y10.570 Z-0.050 F100.0
G0 X7.254 Y10.570 Z2.000
G0 X7.322 Y10.643 Z2.000
G1 X7.322 Y10.643 Z-0.050 F100.0
G1 X7.432 Y10.547 Z-0.050 F100.0
G0 X7.432 Y10.547 Z2.000
G0 X7.256 Y10.568 Z2.000
G1 X7.256 Y10.568 Z-0.050 F100.0
G1 X7.367 Y10.472 Z-0.050 F100.0
G0 X7.367 Y10.472 Z2.000
G0 X7.422 Y10.554 Z2.000
G1 X7.422 Y10.554 Z-0.050 F100.0
G1 X7.422 Y10.554 Z-0.050 F100.0
G0 X7.422 Y10.554 Z2.000
G0 X7.377 Y10.465 Z2.000
G1 X7.377 Y10.465 Z-0.050 F100.0
G1 X7.377 Y10.465 Z-0.050 F100.0
G0 X7.377 Y10.465 Z2.000
G0 X7.435 Y10.545 Z2.000
G1 X7.435 Y10.545 Z-0.050 F100.0
G1 X7.435 Y10.545 Z-0.050 F100.0
G0 X7.435 Y10.545 Z2.000
G0 X7.364 Y10.474 Z2.000
G1 X7.364 Y10.474 Z-0.050 F100.0
G1 X7.364 Y10.474 Z-0.050 F100.0
G0 X7.364 Y10.474 Z2.000
G0 X7.420 Y10.555 Z2.000
G1 X7.420 Y10.555 Z-0.050 F100.0
G1 X7.553 Y10.494 Z-0.050 F100.0
G0 X7.553 Y10.494 Z2.000
G0 X7.379 Y10.464 Z2.000
G1 X7.379 Y10.464 Z-0.050 F100.0
G1 X7.512 Y10.404 Z-0.050 F100.0
G0 X7.512 Y10.404 Z2.000
G0 X7.546 Y10.497 Z2.000
G1 X7.546 Y10.497 Z-0.050 F100.0
G1 X7.613 Y10.477 Z-0.050 F100.0
G0 X7.613 Y10.477 Z2.000
G0 X7.518 Y10.401 Z2.000
G1 X7.518 Y10.401 Z-0.050 F100.0
G1 X7.585 Y10.381 Z-0.050 F100.0
G0 X7.585 Y10.381 Z2.000
G0 X7.611 Y10.478 Z2.000
G1 X7.611 Y10.478 Z-0.050 F100.0
G1 X7.611 Y10.478 Z-0.050 F100.0
G0 X7.611 Y10.478 Z2.000
G0 X7.587 Y10.381 Z2.000
G1 X7.587 Y10.381 Z-0.050 F100.0
G1 X7.587 Y10.381 Z-0.050 F100.0
G0 X7.587 Y10.381 Z2.000
G0 X7.606 Y10.479 Z2.000
G1 X7.606 Y10.479 Z-0.050 F100.0
G1 X7.751 Y10.458 Z-0.050 F100.0
G0 X7.751 Y10.458 Z2.000
G0 X7.592 Y10.380 Z2.000
G1 X7.592 Y10.380 Z-0.050 F100.0
G1 X7.737 Y10.359 Z-0.050 F100.0
G0 X7.737 Y10.359 Z2.000
G0 X7.744 Y10.459 Z2.000
G1 X7.744 Y10.459 Z-0.050 F100.0
G1 X43.812 Y10.459 Z-0.050 F100.0
G0 X43.812 Y10.459 Z2.000
G0 X7.744 Y10.358 Z2.000
G1 X7.744 Y10.358 Z-0.050 F100.0
G1 X43.812 Y10.358 Z-0.050 F100.0
G0 X43.812 Y10.358 Z2.000
G0 X43.827 Y10.456 Z2.000
G1 X43.827 Y10.456 Z-0.050 F100.0
G1 X43.894 Y10.437 Z-0.050 F100.0
G0 X43.894 Y10.437 Z2.000
G0 X43.798 Y10.361 Z2.000
G1 X43.798 Y10.361 Z-0.050 F100.0
G1 X43.865 Y10.341 Z-0.050 F100.0
G0 X43.865 Y10.341 Z2.000
G0 X43.917 Y10.422 Z2.000
G1 X43.917 Y10.422 Z-0.050 F100.0
G1 X43.963 Y10.369 Z-0.050 F100.0
G0 X43.963 Y10.369 Z2.000
G0 X43.842 Y10.356 Z2.000
G1 X43.842 Y10.356 Z-0.050 F100.0
G1 X43.888 Y10.303 Z-0.050 F100.0
G0 X43.888 Y10.303 Z2.000
G0 X43.974 Y10.347 Z2.000
G1 X43.974 Y10.347 Z-0.050 F100.0
G1 X43.985 Y10.295 Z-0.050 F100.0
G0 X43.985 Y10.295 Z2.000
G0 X43.876 Y10.325 Z2.000
G1 X43.876 Y10.325 Z-0.050 F100.0
G1 X43.888 Y10.274 Z-0.050 F100.0
G0 X43.888 Y10.274 Z2.000
G0 X43.986 Y10.284 Z2.000
G1 X43.986 Y10.284 Z-0.050 F100.0
G1 X43.986 Y2.156 Z-0.050 F100.0
G0 X43.986 Y2.156 Z2.000
G0 X43.887 Y10.284 Z2.000
G1 X43.887 Y10.284 Z-0.050 F100.0
G1 X43.887 Y2.156 Z-0.050 F100.0
G0 X43.887 Y2.156 Z2.000
G0 X43.986 Y2.162 Z2.000
G1 X43.986 Y2.162 Z-0.050 F100.0
G1 X43.986 Y2.162 Z-0.050 F100.0
G0 X43.986 Y2.162 Z2.000
G0 X43.887 Y2.150 Z2.000
G1 X43.887 Y2.150 Z-0.050 F100.0
G1 X43.887 Y2.150 Z-0.050 F100.0
G0 X43.887 Y2.150 Z2.000
G0 X43.986 Y2.161 Z2.000
G1 X43.986 Y2.161 Z-0.050 F100.0
G1 X43.998 Y2.052 Z-0.050 F100.0
G0 X43.998 Y2.052 Z2.000
G0 X43.887 Y2.151 Z2.000
G1 X43.887 Y2.151 Z-0.050 F100.0
G1 X43.899 Y2.042 Z-0.050 F100.0
G0 X43.899 Y2.042 Z2.000
G0 X43.998 Y2.055 Z2.000
G1 X43.998 Y2.055 Z-0.050 F100.0
G1 X43.998 Y2.055 Z-0.050 F100.0
G0 X43.998 Y2.055 Z2.000
G0 X43.899 Y2.039 Z2.000
G1 X43.899 Y2.039 Z-0.050 F100.0
G1 X43.899 Y2.039 Z-0.050 F100.0
G0 X43.899 Y2.039 Z2.000
G0 X43.997 Y2.057 Z2.000
G1 X43.997 Y2.057 Z-0.050 F100.0
G1 X44.008 Y2.006 Z-0.050 F100.0
G0 X44.008 Y2.006 Z2.000
G0 X43.899 Y2.036 Z2.000
G1 X43.899 Y2.036 Z-0.050 F100.0
G1 X43.911 Y1.985 Z-0.050 F100.0
G0 X43.911 Y1.985 Z2.000
G0 X44.007 Y2.011 Z2.000
G1 X44.007 Y2.011 Z-0.050 F100.0
G1 X44.042 Y1.907 Z-0.050 F100.0
G0 X44.042 Y1.907 Z2.000
G0 X43.912 Y1.980 Z2.000
G1 X43.912 Y1.980 Z-0.050 F100.0
G1 X43.947 Y1.875 Z-0.050 F100.0
G0 X43.947 Y1.875 Z2.000
G0 X44.039 Y1.914 Z2.000
G1 X44.039 Y1.914 Z-0.050 F100.0
G1 X44.039 Y1.914 Z-0.050 F100.0
G0 X44.039 Y1.914 Z2.000
G0 X43.949 Y1.869 Z2.000
G1 X43.949 Y1.869 Z-0.050 F100.0
G1 X43.949 Y1.869 Z-0.050 F100.0
G0 X43.949 Y1.869 Z2.000
G0 X44.036 Y1.918 Z2.000
G1 X44.036 Y1.918 Z-0.050 F100.0
G1 X44.115 Y1.795 Z-0.050 F100.0
G0 X44.115 Y1.795 Z2.000
G0 X43.952 Y1.864 Z2.000
G1 X43.952 Y1.864 Z-0.050 F100.0
G1 X44.031 Y1.741 Z-0.050 F100.0
G0 X44.031 Y1.741 Z2.000
G0 X44.111 Y1.801 Z2.000
G1 X44.111 Y1.801 Z-0.050 F100.0
G1 X44.111 Y1.801 Z-0.050 F100.0
G0 X44.111 Y1.801 Z2.000
G0 X44.035 Y1.736 Z2.000
G1 X44.035 Y1.736 Z-0.050 F100.0
G1 X44.035 Y1.736 Z-0.050 F100.0
G0 X44.035 Y1.736 Z2.000
G0 X44.111 Y1.801 Z2.000
G1 X44.111 Y1.801 Z-0.050 F100.0
G1 X44.157 Y1.748 Z-0.050 F100.0
G0 X44.157 Y1.748 Z2.000
G0 X44.035 Y1.735 Z2.000
G1 X44.035 Y1.735 Z-0.050 F100.0
G1 X44.081 Y1.683 Z-0.050 F100.0
G0 X44.081 Y1.683 Z2.000
G0 X44.154 Y1.751 Z2.000
G1 X44.154 Y1.751 Z-0.050 F100.0
G1 X44.154 Y1.751 Z-0.050 F100.0
G0 X44.154 Y1.751 Z2.000
G0 X44.084 Y1.680 Z2.000
G1 X44.084 Y1.680 Z-0.050 F100.0
G1 X44.084 Y1.680 Z-0.050 F100.0
G0 X44.084 Y1.680 Z2.000
G0 X44.154 Y1.751 Z2.000
G1 X44.154 Y1.751 Z-0.050 F100.0
G1 X44.154 Y1.751 Z-0.050 F100.0
G0 X44.154 Y1.751 Z2.000
G0 X44.084 Y1.680 Z2.000
G1 X44.084 Y1.680 Z-0.050 F100.0
G1 X44.084 Y1.680 Z-0.050 F100.0
G0 X44.084 Y1.680 Z2.000
G0 X44.152 Y1.753 Z2.000
G1 X44.152 Y1.753 Z-0.050 F100.0
G1 X44.168 Y1.739 Z-0.050 F100.0
G0 X44.168 Y1.739 Z2.000
G0 X44.086 Y1.678 Z2.000
G1 X44.086 Y1.678 Z-0.050 F100.0
G1 X44.103 Y1.663 Z-0.050 F100.0
G0 X44.103 Y1.663 Z2.000
G0 X44.168 Y1.739 Z2.000
G1 X44.168 Y1.739 Z-0.050 F100.0
G1 X44.262 Y1.657 Z-0.050 F100.0
G0 X44.262 Y1.657 Z2.000
G0 X44.103 Y1.663 Z2.000
G1 X44.103 Y1.663 Z-0.050 F100.0
G1 X44.197 Y1.582 Z-0.050 F100.0
G0 X44.197 Y1.582 Z2.000
G0 X44.252 Y1.664 Z2.000
G1 X44.252 Y1.664 Z-0.050 F100.0
G1 X44.252 Y1.664 Z-0.050 F100.0
G0 X44.252 Y1.664 Z2.000
G0 X44.207 Y1.575 Z2.000
G1 X44.207 Y1.575 Z-0.050 F100.0
G1 X44.207 Y1.575 Z-0.050 F100.0
G0 X44.207 Y1.575 Z2.000
G0 X44.265 Y1.655 Z2.000
G1 X44.265 Y1.655 Z-0.050 F100.0
G1 X44.265 Y1.655 Z-0.050 F100.0
G0 X44.265 Y1.655 Z2.000
G0 X44.194 Y1.584 Z2.000
G1 X44.194 Y1.584 Z-0.050 F100.0
G1 X44.194 Y1.584 Z-0.050 F100.0
G0 X44.194 Y1.584 Z2.000
G0 X44.250 Y1.665 Z2.000
G1 X44.250 Y1.665 Z-0.050 F100.0
G1 X44.383 Y1.604 Z-0.050 F100.0
G0 X44.383 Y1.604 Z2.000
G0 X44.209 Y1.574 Z2.000
G1 X44.209 Y1.574 Z-0.050 F100.0
G1 X44.342 Y1.514 Z-0.050 F100.0
G0 X44.342 Y1.514 Z2.000
G0 X44.376 Y1.607 Z2.000
G1 X44.376 Y1.607 Z-0.050 F100.0
G1 X44.443 Y1.587 Z-0.050 F100.0
G0 X44.443 Y1.587 Z2.000
G0 X44.348 Y1.511 Z2.000
G1 X44.348 Y1.511 Z-0.050 F100.0
G1 X44.415 Y1.491 Z-0.050 F100.0
G0 X44.415 Y1.491 Z2.000
G0 X44.441 Y1.588 Z2.000
G1 X44.441 Y1.588 Z-0.050 F100.0
G1 X44.441 Y1.588 Z-0.050 F100.0
G0 X44.441 Y1.588 Z2.000
G0 X44.417 Y1.491 Z2.000
G1 X44.417 Y1.491 Z-0.050 F100.0
G1 X44.417 Y1.491 Z-0.050 F100.0
G0 X44.417 Y1.491 Z2.000
G0 X44.436 Y1.589 Z2.000
G1 X44.436 Y1.589 Z-0.050 F100.0
G1 X44.581 Y1.568 Z-0.050 F100.0
G0 X44.581 Y1.568 Z2.000
G0 X44.422 Y1.490 Z2.000
G1 X44.422 Y1.490 Z-0.050 F100.0
G1 X44.567 Y1.469 Z-0.050 F100.0
G0 X44.567 Y1.469 Z2.000
G0 X44.574 Y1.569 Z2.000
G1 X44.574 Y1.569 Z-0.050 F100.0
G1 X44.574 Y1.569 Z-0.050 F100.0
G0 X44.574 Y1.569 Z2.000
G0 X44.574 Y1.468 Z2.000
G1 X44.574 Y1.468 Z-0.050 F100.0
G1 X44.574 Y1.468 Z-0.050 F100.0
G0 X44.574 Y1.468 Z2.000
G0 X44.574 Y1.569 Z2.000
G1 X44.574 Y1.569 Z-0.050 F100.0
G1 X50.676 Y1.569 Z-0.050 F100.0
G0 X50.676 Y1.569 Z2.000
G0 X44.574 Y1.468 Z2.000
G1 X44.574 Y1.468 Z-0.050 F100.0
G1 X50.676 Y1.468 Z-0.050 F100.0
G0 X50.676 Y1.468 Z2.000
G0 X50.676 Y1.569 Z2.000
G1 X50.676 Y1.569 Z-0.050 F100.0
G1 X50.676 Y1.569 Z-0.050 F100.0
G0 X50.676 Y1.569 Z2.000
G0 X50.676 Y1.468 Z2.000
G1 X50.676 Y1.468 Z-0.050 F100.0
G1 X50.676 Y1.468 Z-0.050 F100.0
G0 X50.676 Y1.468 Z2.000
G0 X50.671 Y1.568 Z2.000
G1 X50.671 Y1.568 Z-0.050 F100.0
G1 X50.780 Y1.580 Z-0.050 F100.0
G0 X50.780 Y1.580 Z2.000
G0 X50.681 Y1.469 Z2.000
G1 X50.681 Y1.469 Z-0.050 F100.0
G1 X50.791 Y1.481 Z-0.050 F100.0
G0 X50.791 Y1.481 Z2.000
G0 X50.775 Y1.579 Z2.000
G1 X50.775 Y1.579 Z-0.050 F100.0
G1 X50.826 Y1.590 Z-0.050 F100.0
G0 X50.826 Y1.590 Z2.000
G0 X50.796 Y1.481 Z2.000
G1 X50.796 Y1.481 Z-0.050 F100.0
G1 X50.847 Y1.493 Z-0.050 F100.0
G0 X50.847 Y1.493 Z2.000
G0 X50.821 Y1.589 Z2.000
G1 X50.821 Y1.589 Z-0.050 F100.0
G1 X50.856 Y1.600 Z-0.050 F100.0
G0 X50.856 Y1.600 Z2.000
G0 X50.852 Y1.494 Z2.000
G1 X50.852 Y1.494 Z-0.050 F100.0
G1 X50.887 Y1.506 Z-0.050 F100.0
G0 X50.887 Y1.506 Z2.000
G0 X50.856 Y1.600 Z2.000
G1 X50.856 Y1.600 Z-0.050 F100.0
G1 X50.925 Y1.624 Z-0.050 F100.0
G0 X50.925 Y1.624 Z2.000
G0 X50.887 Y1.506 Z2.000
G1 X50.887 Y1.506 Z-0.050 F100.0
G1 X50.957 Y1.529 Z-0.050 F100.0
G0 X50.957 Y1.529 Z2.000
G0 X50.911 Y1.616 Z2.000
G1 X50.911 Y1.616 Z-0.050 F100.0
G1 X50.911 Y1.616 Z-0.050 F100.0
G0 X50.911 Y1.616 Z2.000
G0 X50.971 Y1.536 Z2.000
G1 X50.971 Y1.536 Z-0.050 F100.0
G1 X50.971 Y1.536 Z-0.050 F100.0
G0 X50.971 Y1.536 Z2.000
G0 X50.941 Y1.626 Z2.000
G1 X50.941 Y1.626 Z-0.050 F100.0
G1 X50.941 Y1.626 Z-0.050 F100.0
G0 X50.941 Y1.626 Z2.000
G0 X50.941 Y1.526 Z2.000
G1 X50.941 Y1.526 Z-0.050 F100.0
G1 X50.941 Y1.526 Z-0.050 F100.0
G0 X50.941 Y1.526 Z2.000
G0 X50.914 Y1.618 Z2.000
G1 X50.914 Y1.618 Z-0.050 F100.0
G1 X51.037 Y1.697 Z-0.050 F100.0
G0 X51.037 Y1.697 Z2.000
G0 X50.968 Y1.534 Z2.000
G1 X50.968 Y1.534 Z-0.050 F100.0
G1 X51.091 Y1.613 Z-0.050 F100.0
G0 X51.091 Y1.613 Z2.000
G0 X51.031 Y1.693 Z2.000
G1 X51.031 Y1.693 Z-0.050 F100.0
G1 X51.084 Y1.739 Z-0.050 F100.0
G0 X51.084 Y1.739 Z2.000
G0 X51.097 Y1.617 Z2.000
G1 X51.097 Y1.617 Z-0.050 F100.0
G1 X51.149 Y1.663 Z-0.050 F100.0
G0 X51.149 Y1.663 Z2.000
G0 X51.079 Y1.734 Z2.000
G1 X51.079 Y1.734 Z-0.050 F100.0
G1 X51.175 Y1.844 Z-0.050 F100.0
G0 X51.175 Y1.844 Z2.000
G0 X51.154 Y1.668 Z2.000
G1 X51.154 Y1.668 Z-0.050 F100.0
G1 X51.250 Y1.779 Z-0.050 F100.0
G0 X51.250 Y1.779 Z2.000
G0 X51.167 Y1.832 Z2.000
G1 X51.167 Y1.832 Z-0.050 F100.0
G1 X51.228 Y1.965 Z-0.050 F100.0
G0 X51.228 Y1.965 Z2.000
G0 X51.258 Y1.791 Z2.000
G1 X51.258 Y1.791 Z-0.050 F100.0
G1 X51.318 Y1.924 Z-0.050 F100.0
G0 X51.318 Y1.924 Z2.000
G0 X51.225 Y1.958 Z2.000
G1 X51.225 Y1.958 Z-0.050 F100.0
G1 X51.245 Y2.025 Z-0.050 F100.0
G0 X51.245 Y2.025 Z2.000
G0 X51.321 Y1.930 Z2.000
G1 X51.321 Y1.930 Z-0.050 F100.0
G1 X51.341 Y1.997 Z-0.050 F100.0
G0 X51.341 Y1.997 Z2.000
G0 X51.244 Y2.023 Z2.000
G1 X51.244 Y2.023 Z-0.050 F100.0
G1 X51.244 Y2.023 Z-0.050 F100.0
G0 X51.244 Y2.023 Z2.000
G0 X51.341 Y1.999 Z2.000
G1 X51.341 Y1.999 Z-0.050 F100.0
G1 X51.341 Y1.999 Z-0.050 F100.0
G0 X51.341 Y1.999 Z2.000
G0 X51.243 Y2.018 Z2.000
G1 X51.243 Y2.018 Z-0.050 F100.0
G1 X51.264 Y2.163 Z-0.050 F100.0
G0 X51.264 Y2.163 Z2.000
G0 X51.342 Y2.004 Z2.000
G1 X51.342 Y2.004 Z-0.050 F100.0
G1 X51.363 Y2.149 Z-0.050 F100.0
G0 X51.363 Y2.149 Z2.000
G0 X51.264 Y2.156 Z2.000
G1 X51.264 Y2.156 Z-0.050 F100.0
G1 X51.264 Y10.284 Z-0.050 F100.0
G0 X51.264 Y10.284 Z2.000
G0 X51.363 Y2.156 Z2.000
G1 X51.363 Y2.156 Z-0.050 F100.0
G1 X51.363 Y10.284 Z-0.050 F100.0
G0 X51.363 Y10.284 Z2.000
G0 X51.266 Y10.299 Z2.000
G1 X51.266 Y10.299 Z-0.050 F100.0
G1 X51.285 Y10.366 Z-0.050 F100.0
G0 X51.285 Y10.366 Z2.000
G0 X51.361 Y10.270 Z2.000
G1 X51.361 Y10.270 Z-0.050 F100.0
G1 X51.381 Y10.337 Z-0.050 F100.0
G0 X51.381 Y10.337 Z2.000
G0 X51.300 Y10.389 Z2.000
G1 X51.300 Y10.389 Z-0.050 F100.0
G1 X51.353 Y10.435 Z-0.050 F100.0
G0 X51.353 Y10.435 Z2.000
G0 X51.366 Y10.314 Z2.000
G1 X51.366 Y10.314 Z-0.050 F100.0
G1 X51.419 Y10.360 Z-0.050 F100.0
G0 X51.419 Y10.360 Z2.000
G0 X51.375 Y10.446 Z2.000
G1 X51.375 Y10.446 Z-0.050 F100.0
G1 X51.427 Y10.457 Z-0.050 F100.0
G0 X51.427 Y10.457 Z2.000
G0 X51.397 Y10.348 Z2.000
G1 X51.397 Y10.348 Z-0.050 F100.0
G1 X51.448 Y10.360 Z-0.050 F100.0
G0 X51.448 Y10.360 Z2.000
G0 X51.438 Y10.459 Z2.000
G1 X51.438 Y10.459 Z-0.050 F100.0
G1 X54.347 Y10.459 Z-0.050 F100.0
G0 X54.347 Y10.459 Z2.000
G0 X51.438 Y10.358 Z2.000
G1 X51.438 Y10.358 Z-0.050 F100.0
G1 X54.347 Y10.358 Z-0.050 F100.0
G0 X54.347 Y10.358 Z2.000
G0 X54.362 Y10.456 Z2.000
G1 X54.362 Y10.456 Z-0.050 F100.0
G1 X54.429 Y10.437 Z-0.050 F100.0
G0 X54.429 Y10.437 Z2.000
G0 X54.333 Y10.361 Z2.000
G1 X54.333 Y10.361 Z-0.050 F100.0
G1 X54.400 Y10.341 Z-0.050 F100.0
G0 X54.400 Y10.341 Z2.000
G0 X54.452 Y10.422 Z2.000
G1 X54.452 Y10.422 Z-0.050 F100.0
G1 X54.498 Y10.369 Z-0.050 F100.0
G0 X54.498 Y10.369 Z2.000
G0 X54.377 Y10.356 Z2.000
G1 X54.377 Y10.356 Z-0.050 F100.0
G1 X54.423 Y10.303 Z-0.050 F100.0
G0 X54.423 Y10.303 Z2.000
G0 X54.509 Y10.347 Z2.000
G1 X54.509 Y10.347 Z-0.050 F100.0
G1 X54.520 Y10.295 Z-0.050 F100.0
G0 X54.520 Y10.295 Z2.000
G0 X54.411 Y10.325 Z2.000
G1 X54.411 Y10.325 Z-0.050 F100.0
G1 X54.423 Y10.274 Z-0.050 F100.0
G0 X54.423 Y10.274 Z2.000
G0 X54.521 Y10.284 Z2.000
G1 X54.521 Y10.284 Z-0.050 F100.0
G1 X54.521 Y6.705 Z-0.050 F100.0
G0 X54.521 Y6.705 Z2.000
G0 X54.422 Y10.284 Z2.000
G1 X54.422 Y10.284 Z-0.050 F100.0
G1 X54.422 Y6.705 Z-0.050 F100.0
G0 X54.422 Y6.705 Z2.000
G0 X54.519 Y6.690 Z2.000
G1 X54.519 Y6.690 Z-0.050 F100.0
G1 X54.500 Y6.623 Z-0.050 F100.0
G0 X54.500 Y6.623 Z2.000
G0 X54.424 Y6.719 Z2.000
G1 X54.424 Y6.719 Z-0.050 F100.0
G1 X54.404 Y6.652 Z-0.050 F100.0
G0 X54.404 Y6.652 Z2.000
G0 X54.485 Y6.600 Z2.000
G1 X54.485 Y6.600 Z-0.050 F100.0
G1 X54.432 Y6.554 Z-0.050 F100.0
G0 X54.432 Y6.554 Z2.000
G0 X54.419 Y6.675 Z2.000
G1 X54.419 Y6.675 Z-0.050 F100.0
G1 X54.366 Y6.629 Z-0.050 F100.0
G0 X54.366 Y6.629 Z2.000
G0 X54.410 Y6.543 Z2.000
G1 X54.410 Y6.543 Z-0.050 F100.0
G1 X54.358 Y6.532 Z-0.050 F100.0
G0 X54.358 Y6.532 Z2.000
G0 X54.388 Y6.641 Z2.000
G1 X54.388 Y6.641 Z-0.050 F100.0
G1 X54.337 Y6.629 Z-0.050 F100.0
G0 X54.337 Y6.629 Z2.000
G0 X54.347 Y6.530 Z2.000
G1 X54.347 Y6.530 Z-0.050 F100.0
G1 X54.331 Y6.530 Z-0.050 F100.0
G0 X54.331 Y6.530 Z2.000
G0 X54.347 Y6.630 Z2.000
G1 X54.347 Y6.630 Z-0.050 F100.0
G1 X54.331 Y6.630 Z-0.050 F100.0
G0 X54.331 Y6.630 Z2.000
G0 X54.337 Y6.531 Z2.000
G1 X54.337 Y6.531 Z-0.050 F100.0
G1 X54.276 Y6.524 Z-0.050 F100.0
G0 X54.276 Y6.524 Z2.000
G0 X54.326 Y6.630 Z2.000
G1 X54.326 Y6.630 Z-0.050 F100.0
G1 X54.265 Y6.624 Z-0.050 F100.0
G0 X54.265 Y6.624 Z2.000
G0 X54.271 Y6.524 Z2.000
G1 X54.271 Y6.524 Z-0.050 F100.0
G1 X54.271 Y6.524 Z-0.050 F100.0
G0 X54.271 Y6.524 Z2.000
G0 X54.271 Y6.624 Z2.000
G1 X54.271 Y6.624 Z-0.050 F100.0
G1 X54.271 Y6.624 Z-0.050 F100.0
G0 X54.271 Y6.624 Z2.000
G0 X54.288 Y6.527 Z2.000
G1 X54.288 Y6.527 Z-0.050 F100.0
G1 X54.151 Y6.476 Z-0.050 F100.0
G0 X54.151 Y6.476 Z2.000
G0 X54.253 Y6.621 Z2.000
G1 X54.253 Y6.621 Z-0.050 F100.0
G1 X54.116 Y6.570 Z-0.050 F100.0
G0 X54.116 Y6.570 Z2.000
G0 X54.164 Y6.483 Z2.000
G1 X54.164 Y6.483 Z-0.050 F100.0
G1 X54.047 Y6.395 Z-0.050 F100.0
G0 X54.047 Y6.395 Z2.000
G0 X54.104 Y6.563 Z2.000
G1 X54.104 Y6.563 Z-0.050 F100.0
G1 X53.987 Y6.475 Z-0.050 F100.0
G0 X53.987 Y6.475 Z2.000
G0 X54.057 Y6.405 Z2.000
G1 X54.057 Y6.405 Z-0.050 F100.0
G1 X53.969 Y6.288 Z-0.050 F100.0
G0 X53.969 Y6.288 Z2.000
G0 X53.977 Y6.465 Z2.000
G1 X53.977 Y6.465 Z-0.050 F100.0
G1 X53.889 Y6.348 Z-0.050 F100.0
G0 X53.889 Y6.348 Z2.000
G0 X53.976 Y6.301 Z2.000
G1 X53.976 Y6.301 Z-0.050 F100.0
G1 X53.925 Y6.164 Z-0.050 F100.0
G0 X53.925 Y6.164 Z2.000
G0 X53.882 Y6.336 Z2.000
G1 X53.882 Y6.336 Z-0.050 F100.0
G1 X53.831 Y6.199 Z-0.050 F100.0
G0 X53.831 Y6.199 Z2.000
G0 X53.928 Y6.181 Z2.000
G1 X53.928 Y6.181 Z-0.050 F100.0
G1 X53.928 Y6.181 Z-0.050 F100.0
G0 X53.928 Y6.181 Z2.000
G0 X53.828 Y6.181 Z2.000
G1 X53.828 Y6.181 Z-0.050 F100.0
G1 X53.828 Y6.181 Z-0.050 F100.0
G0 X53.828 Y6.181 Z2.000
G0 X53.928 Y6.176 Z2.000
G1 X53.928 Y6.176 Z-0.050 F100.0
G1 X53.921 Y6.115 Z-0.050 F100.0
G0 X53.921 Y6.115 Z2.000
G0 X53.828 Y6.187 Z2.000
G1 X53.828 Y6.187 Z-0.050 F100.0
G1 X53.822 Y6.126 Z-0.050 F100.0
G0 X53.822 Y6.126 Z2.000
G0 X53.921 Y6.121 Z2.000
G1 X53.921 Y6.121 Z-0.050 F100.0
G1 X53.921 Y3.023 Z-0.050 F100.0
G0 X53.921 Y3.023 Z2.000
G0 X53.822 Y6.121 Z2.000
G1 X53.822 Y6.121 Z-0.050 F100.0
G1 X53.822 Y3.023 Z-0.050 F100.0
G0 X53.822 Y3.023 Z2.000
G0 X53.921 Y3.029 Z2.000
G1 X53.921 Y3.029 Z-0.050 F100.0
G1 X53.928 Y2.968 Z-0.050 F100.0
G0 X53.928 Y2.968 Z2.000
G0 X53.822 Y3.018 Z2.000
G1 X53.822 Y3.018 Z-0.050 F100.0
G1 X53.828 Y2.957 Z-0.050 F100.0
G0 X53.828 Y2.957 Z2.000
G0 X53.928 Y2.963 Z2.000
G1 X53.928 Y2.963 Z-0.050 F100.0
G1 X53.928 Y2.963 Z-0.050 F100.0
G0 X53.928 Y2.963 Z2.000
G0 X53.828 Y2.963 Z2.000
G1 X53.828 Y2.963 Z-0.050 F100.0
G1 X53.828 Y2.963 Z-0.050 F100.0
G0 X53.828 Y2.963 Z2.000
G0 X53.925 Y2.980 Z2.000
G1 X53.925 Y2.980 Z-0.050 F100.0
G1 X53.976 Y2.843 Z-0.050 F100.0
G0 X53.976 Y2.843 Z2.000
G0 X53.831 Y2.945 Z2.000
G1 X53.831 Y2.945 Z-0.050 F100.0
G1 X53.882 Y2.808 Z-0.050 F100.0
G0 X53.882 Y2.808 Z2.000
G0 X53.969 Y2.856 Z2.000
G1 X53.969 Y2.856 Z-0.050 F100.0
G1 X54.057 Y2.739 Z-0.050 F100.0
G0 X54.057 Y2.739 Z2.000
G0 X53.889 Y2.796 Z2.000
G1 X53.889 Y2.796 Z-0.050 F100.0
G1 X53.977 Y2.679 Z-0.050 F100.0
G0 X53.977 Y2.679 Z2.000
G0 X54.047 Y2.749 Z2.000
G1 X54.047 Y2.749 Z-0.050 F100.0
G1 X54.164 Y2.661 Z-0.050 F100.0
G0 X54.164 Y2.661 Z2.000
G0 X53.987 Y2.669 Z2.000
G1 X53.987 Y2.669 Z-0.050 F100.0
G1 X54.104 Y2.581 Z-0.050 F100.0
G0 X54.104 Y2.581 Z2.000
G0 X54.151 Y2.668 Z2.000
G1 X54.151 Y2.668 Z-0.050 F100.0
G1 X54.288 Y2.617 Z-0.050 F100.0
G0 X54.288 Y2.617 Z2.000
G0 X54.116 Y2.574 Z2.000
G1 X54.116 Y2.574 Z-0.050 F100.0
G1 X54.253 Y2.523 Z-0.050 F100.0
G0 X54.253 Y2.523 Z2.000
G0 X54.276 Y2.620 Z2.000
G1 X54.276 Y2.620 Z-0.050 F100.0
G1 X54.303 Y2.617 Z-0.050 F100.0
G0 X54.303 Y2.617 Z2.000
G0 X54.265 Y2.520 Z2.000
G1 X54.265 Y2.520 Z-0.050 F100.0
G1 X54.293 Y2.517 Z-0.050 F100.0
G0 X54.293 Y2.517 Z2.000
G0 X54.303 Y2.617 Z2.000
G1 X54.303 Y2.617 Z-0.050 F100.0
G1 X54.337 Y2.613 Z-0.050 F100.0
G0 X54.337 Y2.613 Z2.000
G0 X54.293 Y2.517 Z2.000
G1 X54.293 Y2.517 Z-0.050 F100.0
G1 X54.326 Y2.514 Z-0.050 F100.0
G0 X54.326 Y2.514 Z2.000
G0 X54.334 Y2.613 Z2.000
G1 X54.334 Y2.613 Z-0.050 F100.0
G1 X54.334 Y2.613 Z-0.050 F100.0
G0 X54.334 Y2.613 Z2.000
G0 X54.328 Y2.514 Z2.000
G1 X54.328 Y2.514 Z-0.050 F100.0
G1 X54.328 Y2.514 Z-0.050 F100.0
G0 X54.328 Y2.514 Z2.000
G0 X54.331 Y2.613 Z2.000
G1 X54.331 Y2.613 Z-0.050 F100.0
G1 X57.429 Y2.613 Z-0.050 F100.0
G0 X57.429 Y2.613 Z2.000
G0 X54.331 Y2.514 Z2.000
G1 X54.331 Y2.514 Z-0.050 F100.0
G1 X57.429 Y2.514 Z-0.050 F100.0
G0 X57.429 Y2.514 Z2.000
G0 X57.426 Y2.613 Z2.000
G1 X57.426 Y2.613 Z-0.050 F100.0
G1 X57.426 Y2.613 Z-0.050 F100.0
G0 X57.426 Y2.613 Z2.000
G0 X57.432 Y2.514 Z2.000
G1 X57.432 Y2.514 Z-0.050 F100.0
G1 X57.432 Y2.514 Z-0.050 F100.0
G0 X57.432 Y2.514 Z2.000
G0 X57.423 Y2.613 Z2.000
G1 X57.423 Y2.613 Z-0.050 F100.0
G1 X57.450 Y2.616 Z-0.050 F100.0
G0 X57.450 Y2.616 Z2.000
G0 X57.434 Y2.514 Z2.000
G1 X57.434 Y2.514 Z-0.050 F100.0
G1 X57.461 Y2.517 Z-0.050 F100.0
G0 X57.461 Y2.517 Z2.000
G0 X57.450 Y2.616 Z2.000
G1 X57.450 Y2.616 Z-0.050 F100.0
G1 X57.484 Y2.620 Z-0.050 F100.0
G0 X57.484 Y2.620 Z2.000
G0 X57.461 Y2.517 Z2.000
G1 X57.461 Y2.517 Z-0.050 F100.0
G1 X57.495 Y2.520 Z-0.050 F100.0
G0 X57.495 Y2.520 Z2.000
G0 X57.472 Y2.617 Z2.000
G1 X57.472 Y2.617 Z-0.050 F100.0
G1 X57.609 Y2.668 Z-0.050 F100.0
G0 X57.609 Y2.668 Z2.000
G0 X57.507 Y2.523 Z2.000
G1 X57.507 Y2.523 Z-0.050 F100.0
G1 X57.644 Y2.574 Z-0.050 F100.0
G0 X57.644 Y2.574 Z2.000
G0 X57.596 Y2.661 Z2.000
G1 X57.596 Y2.661 Z-0.050 F100.0
G1 X57.713 Y2.749 Z-0.050 F100.0
G0 X57.713 Y2.749 Z2.000
G0 X57.656 Y2.581 Z2.000
G1 X57.656 Y2.581 Z-0.050 F100.0
G1 X57.773 Y2.669 Z-0.050 F100.0
G0 X57.773 Y2.669 Z2.000
G0 X57.703 Y2.739 Z2.000
G1 X57.703 Y2.739 Z-0.050 F100.0
G1 X57.791 Y2.856 Z-0.050 F100.0
G0 X57.791 Y2.856 Z2.000
G0 X57.783 Y2.679 Z2.000
G1 X57.783 Y2.679 Z-0.050 F100.0
G1 X57.871 Y2.796 Z-0.050 F100.0
G0 X57.871 Y2.796 Z2.000
G0 X57.784 Y2.843 Z2.000
G1 X57.784 Y2.843 Z-0.050 F100.0
G1 X57.835 Y2.980 Z-0.050 F100.0
G0 X57.835 Y2.980 Z2.000
G0 X57.878 Y2.808 Z2.000
G1 X57.878 Y2.808 Z-0.050 F100.0
G1 X57.929 Y2.945 Z-0.050 F100.0
G0 X57.929 Y2.945 Z2.000
G0 X57.832 Y2.968 Z2.000
G1 X57.832 Y2.968 Z-0.050 F100.0
G1 X57.836 Y3.002 Z-0.050 F100.0
G0 X57.836 Y3.002 Z2.000
G0 X57.932 Y2.957 Z2.000
G1 X57.932 Y2.957 Z-0.050 F100.0
G1 X57.935 Y2.991 Z-0.050 F100.0
G0 X57.935 Y2.991 Z2.000
G0 X57.836 Y3.002 Z2.000
G1 X57.836 Y3.002 Z-0.050 F100.0
G1 X57.839 Y3.029 Z-0.050 F100.0
G0 X57.839 Y3.029 Z2.000
G0 X57.935 Y2.991 Z2.000
G1 X57.935 Y2.991 Z-0.050 F100.0
G1 X57.938 Y3.018 Z-0.050 F100.0
G0 X57.938 Y3.018 Z2.000
G0 X57.839 Y3.026 Z2.000
G1 X57.839 Y3.026 Z-0.050 F100.0
G1 X57.839 Y3.026 Z-0.050 F100.0
G0 X57.839 Y3.026 Z2.000
G0 X57.938 Y3.020 Z2.000
G1 X57.938 Y3.020 Z-0.050 F100.0
G1 X57.938 Y3.020 Z-0.050 F100.0
G0 X57.938 Y3.020 Z2.000
G0 X57.839 Y3.023 Z2.000
G1 X57.839 Y3.023 Z-0.050 F100.0
G1 X57.839 Y3.677 Z-0.050 F100.0
G0 X57.839 Y3.677 Z2.000
G0 X57.938 Y3.023 Z2.000
G1 X57.938 Y3.023 Z-0.050 F100.0
G1 X57.938 Y3.677 Z-0.050 F100.0
G0 X57.938 Y3.677 Z2.000
G0 X57.889 Y3.727 Z2.000
G1 X57.889 Y3.727 Z-0.050 F100.0
G1 X66.730 Y3.727 Z-0.050 F100.0
G0 X66.730 Y3.727 Z2.000
G0 X57.889 Y3.627 Z2.000
G1 X57.889 Y3.627 Z-0.050 F100.0
G1 X66.730 Y3.627 Z-0.050 F100.0
G0 X66.730 Y3.627 Z2.000
G0 X66.779 Y3.677 Z2.000
G1 X66.779 Y3.677 Z-0.050 F100.0
G1 X66.779 Y3.435 Z-0.050 F100.0
G0 X66.779 Y3.435 Z2.000
G0 X66.680 Y3.677 Z2.000
G1 X66.680 Y3.677 Z-0.050 F100.0
G1 X66.680 Y3.435 Z-0.050 F100.0
G0 X66.680 Y3.435 Z2.000
G0 X66.779 Y3.441 Z2.000
G1 X66.779 Y3.441 Z-0.050 F100.0
G1 X66.811 Y3.201 Z-0.050 F100.0
G0 X66.811 Y3.201 Z2.000
G0 X66.680 Y3.428 Z2.000
G1 X66.680 Y3.428 Z-0.050 F100.0
G1 X66.712 Y3.188 Z-0.050 F100.0
G0 X66.712 Y3.188 Z2.000
G0 X66.809 Y3.207 Z2.000
G1 X66.809 Y3.207 Z-0.050 F100.0
G1 X66.872 Y2.973 Z-0.050 F100.0
G0 X66.872 Y2.973 Z2.000
G0 X66.713 Y3.181 Z2.000
G1 X66.713 Y3.181 Z-0.050 F100.0
G1 X66.776 Y2.947 Z-0.050 F100.0
G0 X66.776 Y2.947 Z2.000
G0 X66.870 Y2.979 Z2.000
G1 X66.870 Y2.979 Z-0.050 F100.0
G1 X66.963 Y2.755 Z-0.050 F100.0
G0 X66.963 Y2.755 Z2.000
G0 X66.778 Y2.941 Z2.000
G1 X66.778 Y2.941 Z-0.050 F100.0
G1 X66.871 Y2.717 Z-0.050 F100.0
G0 X66.871 Y2.717 Z2.000
G0 X66.963 Y2.755 Z2.000
G1 X66.963 Y2.755 Z-0.050 F100.0
G1 X66.963 Y2.755 Z-0.050 F100.0
G0 X66.963 Y2.755 Z2.000
G0 X66.871 Y2.716 Z2.000
G1 X66.871 Y2.716 Z-0.050 F100.0
G1 X66.871 Y2.716 Z-0.050 F100.0
G0 X66.871 Y2.716 Z2.000
G0 X66.960 Y2.761 Z2.000
G1 X66.960 Y2.761 Z-0.050 F100.0
G1 X67.081 Y2.551 Z-0.050 F100.0
G0 X67.081 Y2.551 Z2.000
G0 X66.873 Y2.711 Z2.000
G1 X66.873 Y2.711 Z-0.050 F100.0
G1 X66.995 Y2.501 Z-0.050 F100.0
G0 X66.995 Y2.501 Z2.000
G0 X67.080 Y2.553 Z2.000
G1 X67.080 Y2.553 Z-0.050 F100.0
G1 X67.080 Y2.553 Z-0.050 F100.0
G0 X67.080 Y2.553 Z2.000
G0 X66.996 Y2.498 Z2.000
G1 X66.996 Y2.498 Z-0.050 F100.0
G1 X66.996 Y2.498 Z-0.050 F100.0
G0 X66.996 Y2.498 Z2.000
G0 X67.073 Y2.561 Z2.000
G1 X67.073 Y2.561 Z-0.050 F100.0
G1 X67.073 Y2.561 Z-0.050 F100.0
G0 X67.073 Y2.561 Z2.000
G0 X67.003 Y2.490 Z2.000
G1 X67.003 Y2.490 Z-0.050 F100.0
G1 X67.003 Y2.490 Z-0.050 F100.0
G0 X67.003 Y2.490 Z2.000
G0 X67.078 Y2.556 Z2.000
G1 X67.078 Y2.556 Z-0.050 F100.0
G1 X67.225 Y2.364 Z-0.050 F100.0
G0 X67.225 Y2.364 Z2.000
G0 X66.998 Y2.495 Z2.000
G1 X66.998 Y2.495 Z-0.050 F100.0
G1 X67.146 Y2.303 Z-0.050 F100.0
G0 X67.146 Y2.303 Z2.000
G0 X67.224 Y2.366 Z2.000
G1 X67.224 Y2.366 Z-0.050 F100.0
G1 X67.224 Y2.366 Z-0.050 F100.0
G0 X67.224 Y2.366 Z2.000
G0 X67.148 Y2.301 Z2.000
G1 X67.148 Y2.301 Z-0.050 F100.0
G1 X67.148 Y2.301 Z-0.050 F100.0
G0 X67.148 Y2.301 Z2.000
G0 X67.221 Y2.369 Z2.000
G1 X67.221 Y2.369 Z-0.050 F100.0
G1 X67.393 Y2.197 Z-0.050 F100.0
G0 X67.393 Y2.197 Z2.000
G0 X67.150 Y2.298 Z2.000
G1 X67.150 Y2.298 Z-0.050 F100.0
G1 X67.322 Y2.126 Z-0.050 F100.0
G0 X67.322 Y2.126 Z2.000
G0 X67.390 Y2.200 Z2.000
G1 X67.390 Y2.200 Z-0.050 F100.0
G1 X67.390 Y2.200 Z-0.050 F100.0
G0 X67.390 Y2.200 Z2.000
G0 X67.325 Y2.124 Z2.000
G1 X67.325 Y2.124 Z-0.050 F100.0
G1 X67.325 Y2.124 Z-0.050 F100.0
G0 X67.325 Y2.124 Z2.000
G0 X67.388 Y2.201 Z2.000
G1 X67.388 Y2.201 Z-0.050 F100.0
G1 X67.501 Y2.115 Z-0.050 F100.0
G0 X67.501 Y2.115 Z2.000
G0 X67.327 Y2.122 Z2.000
G1 X67.327 Y2.122 Z-0.050 F100.0
G1 X67.440 Y2.035 Z-0.050 F100.0
G0 X67.440 Y2.035 Z2.000
G0 X67.501 Y2.115 Z2.000
G1 X67.501 Y2.115 Z-0.050 F100.0
G1 X67.580 Y2.054 Z-0.050 F100.0
G0 X67.580 Y2.054 Z2.000
G0 X67.440 Y2.035 Z2.000
G1 X67.440 Y2.035 Z-0.050 F100.0
G1 X67.519 Y1.974 Z-0.050 F100.0
G0 X67.519 Y1.974 Z2.000
G0 X67.575 Y2.057 Z2.000
G1 X67.575 Y2.057 Z-0.050 F100.0
G1 X67.785 Y1.936 Z-0.050 F100.0
G0 X67.785 Y1.936 Z2.000
G0 X67.525 Y1.971 Z2.000
G1 X67.525 Y1.971 Z-0.050 F100.0
G1 X67.735 Y1.849 Z-0.050 F100.0
G0 X67.735 Y1.849 Z2.000
G0 X67.779 Y1.939 Z2.000
G1 X67.779 Y1.939 Z-0.050 F100.0
G1 X68.003 Y1.846 Z-0.050 F100.0
G0 X68.003 Y1.846 Z2.000
G0 X67.741 Y1.847 Z2.000
G1 X67.741 Y1.847 Z-0.050 F100.0
G1 X67.965 Y1.754 Z-0.050 F100.0
G0 X67.965 Y1.754 Z2.000
G0 X67.997 Y1.848 Z2.000
G1 X67.997 Y1.848 Z-0.050 F100.0
G1 X68.231 Y1.785 Z-0.050 F100.0
G0 X68.231 Y1.785 Z2.000
G0 X67.971 Y1.752 Z2.000
G1 X67.971 Y1.752 Z-0.050 F100.0
G1 X68.205 Y1.689 Z-0.050 F100.0
G0 X68.205 Y1.689 Z2.000
G0 X68.225 Y1.787 Z2.000
G1 X68.225 Y1.787 Z-0.050 F100.0
G1 X68.405 Y1.763 Z-0.050 F100.0
G0 X68.405 Y1.763 Z2.000
G0 X68.212 Y1.688 Z2.000
G1 X68.212 Y1.688 Z-0.050 F100.0
G1 X68.392 Y1.664 Z-0.050 F100.0
G0 X68.392 Y1.664 Z2.000
G0 X68.405 Y1.763 Z2.000
G1 X68.405 Y1.763 Z-0.050 F100.0
G1 X68.465 Y1.755 Z-0.050 F100.0
G0 X68.465 Y1.755 Z2.000
G0 X68.392 Y1.664 Z2.000
G1 X68.392 Y1.664 Z-0.050 F100.0
G1 X68.452 Y1.656 Z-0.050 F100.0
G0 X68.452 Y1.656 Z2.000
G0 X68.459 Y1.756 Z2.000
G1 X68.459 Y1.756 Z-0.050 F100.0
G1 X68.459 Y1.756 Z-0.050 F100.0
G0 X68.459 Y1.756 Z2.000
G0 X68.459 Y1.655 Z2.000
G1 X68.459 Y1.655 Z-0.050 F100.0
G1 X68.459 Y1.655 Z-0.050 F100.0
G0 X68.459 Y1.655 Z2.000
G0 X68.459 Y1.756 Z2.000
G1 X68.459 Y1.756 Z-0.050 F100.0
G1 X68.701 Y1.756 Z-0.050 F100.0
G0 X68.701 Y1.756 Z2.000
G0 X68.459 Y1.655 Z2.000
G1 X68.459 Y1.655 Z-0.050 F100.0
G1 X68.701 Y1.655 Z-0.050 F100.0
G0 X68.701 Y1.655 Z2.000
G0 X68.695 Y1.755 Z2.000
G1 X68.695 Y1.755 Z-0.050 F100.0
G1 X68.743 Y1.761 Z-0.050 F100.0
G0 X68.743 Y1.761 Z2.000
G0 X68.708 Y1.656 Z2.000
G1 X68.708 Y1.656 Z-0.050 F100.0
G1 X68.756 Y1.662 Z-0.050 F100.0
G0 X68.756 Y1.662 Z2.000
G0 X68.743 Y1.761 Z2.000
G1 X68.743 Y1.761 Z-0.050 F100.0
G1 X68.935 Y1.787 Z-0.050 F100.0
G0 X68.935 Y1.787 Z2.000
G0 X68.756 Y1.662 Z2.000
G1 X68.756 Y1.662 Z-0.050 F100.0
G1 X68.948 Y1.688 Z-0.050 F100.0
G0 X68.948 Y1.688 Z2.000
G0 X68.929 Y1.785 Z2.000
G1 X68.929 Y1.785 Z-0.050 F100.0
G1 X69.163 Y1.848 Z-0.050 F100.0
G0 X69.163 Y1.848 Z2.000
G0 X68.955 Y1.689 Z2.000
G1 X68.955 Y1.689 Z-0.050 F100.0
G1 X69.189 Y1.752 Z-0.050 F100.0
G0 X69.189 Y1.752 Z2.000
G0 X69.157 Y1.846 Z2.000
G1 X69.157 Y1.846 Z-0.050 F100.0
G1 X69.381 Y1.939 Z-0.050 F100.0
G0 X69.381 Y1.939 Z2.000
G0 X69.195 Y1.754 Z2.000
G1 X69.195 Y1.754 Z-0.050 F100.0
G1 X69.419 Y1.847 Z-0.050 F100.0
G0 X69.419 Y1.847 Z2.000
G0 X69.375 Y1.936 Z2.000
G1 X69.375 Y1.936 Z-0.050 F100.0
G1 X69.585 Y2.057 Z-0.050 F100.0
G0 X69.585 Y2.057 Z2.000
G0 X69.425 Y1.849 Z2.000
G1 X69.425 Y1.849 Z-0.050 F100.0
G1 X69.635 Y1.971 Z-0.050 F100.0
G0 X69.635 Y1.971 Z2.000
G0 X69.580 Y2.054 Z2.000
G1 X69.580 Y2.054 Z-0.050 F100.0
G1 X69.772 Y2.201 Z-0.050 F100.0
G0 X69.772 Y2.201 Z2.000
G0 X69.641 Y1.974 Z2.000
G1 X69.641 Y1.974 Z-0.050 F100.0
G1 X69.833 Y2.122 Z-0.050 F100.0
G0 X69.833 Y2.122 Z2.000
G0 X69.767 Y2.197 Z2.000
G1 X69.767 Y2.197 Z-0.050 F100.0
G1 X69.939 Y2.369 Z-0.050 F100.0
G0 X69.939 Y2.369 Z2.000
G0 X69.838 Y2.126 Z2.000
G1 X69.838 Y2.126 Z-0.050 F100.0
G1 X70.010 Y2.298 Z-0.050 F100.0
G0 X70.010 Y2.298 Z2.000
G0 X69.935 Y2.364 Z2.000
G1 X69.935 Y2.364 Z-0.050 F100.0
G1 X70.082 Y2.556 Z-0.050 F100.0
G0 X70.082 Y2.556 Z2.000
G0 X70.014 Y2.303 Z2.000
G1 X70.014 Y2.303 Z-0.050 F100.0
G1 X70.162 Y2.495 Z-0.050 F100.0
G0 X70.162 Y2.495 Z2.000
G0 X70.079 Y2.551 Z2.000
G1 X70.079 Y2.551 Z-0.050 F100.0
G1 X70.200 Y2.761 Z-0.050 F100.0
G0 X70.200 Y2.761 Z2.000
G0 X70.165 Y2.501 Z2.000
G1 X70.165 Y2.501 Z-0.050 F100.0
G1 X70.287 Y2.711 Z-0.050 F100.0
G0 X70.287 Y2.711 Z2.000
G0 X70.197 Y2.755 Z2.000
G1 X70.197 Y2.755 Z-0.050 F100.0
G1 X70.290 Y2.979 Z-0.050 F100.0
G0 X70.290 Y2.979 Z2.000
G0 X70.289 Y2.717 Z2.000
G1 X70.289 Y2.717 Z-0.050 F100.0
G1 X70.382 Y2.941 Z-0.050 F100.0
G0 X70.382 Y2.941 Z2.000
G0 X70.288 Y2.973 Z2.000
G1 X70.288 Y2.973 Z-0.050 F100.0
G1 X70.351 Y3.207 Z-0.050 F100.0
G0 X70.351 Y3.207 Z2.000
G0 X70.384 Y2.947 Z2.000
G1 X70.384 Y2.947 Z-0.050 F100.0
G1 X70.447 Y3.181 Z-0.050 F100.0
G0 X70.447 Y3.181 Z2.000
G0 X70.349 Y3.201 Z2.000
G1 X70.349 Y3.201 Z-0.050 F100.0
G1 X70.381 Y3.441 Z-0.050 F100.0
G0 X70.381 Y3.441 Z2.000
G0 X70.448 Y3.188 Z2.000
G1 X70.448 Y3.188 Z-0.050 F100.0
G1 X70.480 Y3.428 Z-0.050 F100.0
G0 X70.480 Y3.428 Z2.000
G0 X70.380 Y3.435 Z2.000
G1 X70.380 Y3.435 Z-0.050 F100.0
G1 X70.380 Y3.677 Z-0.050 F100.0
G0 X70.380 Y3.677 Z2.000
G0 X70.480 Y3.435 Z2.000
G1 X70.480 Y3.435 Z-0.050 F100.0
G1 X70.480 Y3.677 Z-0.050 F100.0
G0 X70.480 Y3.677 Z2.000
G0 X70.381 Y3.671 Z2.000
G1 X70.381 Y3.671 Z-0.050 F100.0
G1 X70.349 Y3.911 Z-0.050 F100.0
G0 X70.349 Y3.911 Z2.000
G0 X70.480 Y3.684 Z2.000
G1 X70.480 Y3.684 Z-0.050 F100.0
G1 X70.448 Y3.924 Z-0.050 F100.0
G0 X70.448 Y3.924 Z2.000
G0 X70.351 Y3.905 Z2.000
G1 X70.351 Y3.905 Z-0.050 F100.0
G1 X70.288 Y4.139 Z-0.050 F100.0
G0 X70.288 Y4.139 Z2.000
G0 X70.447 Y3.931 Z2.000
G1 X70.447 Y3.931 Z-0.050 F100.0
G1 X70.384 Y4.165 Z-0.050 F100.0
G0 X70.384 Y4.165 Z2.000
G0 X70.290 Y4.133 Z2.000
G1 X70.290 Y4.133 Z-0.050 F100.0
G1 X70.197 Y4.357 Z-0.050 F100.0
G0 X70.197 Y4.357 Z2.000
G0 X70.382 Y4.171 Z2.000
G1 X70.382 Y4.171 Z-0.050 F100.0
G1 X70.289 Y4.395 Z-0.050 F100.0
G0 X70.289 Y4.395 Z2.000
G0 X70.200 Y4.351 Z2.000
G1 X70.200 Y4.351 Z-0.050 F100.0
G1 X70.079 Y4.561 Z-0.050 F100.0
G0 X70.079 Y4.561 Z2.000
G0 X70.287 Y4.401 Z2.000
G1 X70.287 Y4.401 Z-0.050 F100.0
G1 X70.165 Y4.611 Z-0.050 F100.0
G0 X70.165 Y4.611 Z2.000
G0 X70.082 Y4.556 Z2.000
G1 X70.082 Y4.556 Z-0.050 F100.0
G1 X69.935 Y4.748 Z-0.050 F100.0
G0 X69.935 Y4.748 Z2.000
G0 X70.162 Y4.617 Z2.000
G1 X70.162 Y4.617 Z-0.050 F100.0
G1 X70.014 Y4.809 Z-0.050 F100.0
G0 X70.014 Y4.809 Z2.000
G0 X69.936 Y4.747 Z2.000
G1 X69.936 Y4.747 Z-0.050 F100.0
G1 X69.936 Y4.747 Z-0.050 F100.0
G0 X69.936 Y4.747 Z2.000
G0 X70.013 Y4.811 Z2.000
G1 X70.013 Y4.811 Z-0.050 F100.0
G1 X70.013 Y4.811 Z-0.050 F100.0
G0 X70.013 Y4.811 Z2.000
G0 X69.939 Y4.743 Z2.000
G1 X69.939 Y4.743 Z-0.050 F100.0
G1 X69.767 Y4.915 Z-0.050 F100.0
G0 X69.767 Y4.915 Z2.000
G0 X70.010 Y4.814 Z2.000
G1 X70.010 Y4.814 Z-0.050 F100.0
G1 X69.838 Y4.986 Z-0.050 F100.0
G0 X69.838 Y4.986 Z2.000
G0 X69.770 Y4.912 Z2.000
G1 X69.770 Y4.912 Z-0.050 F100.0
G1 X69.770 Y4.912 Z-0.050 F100.0
G0 X69.770 Y4.912 Z2.000
G0 X69.835 Y4.988 Z2.000
G1 X69.835 Y4.988 Z-0.050 F100.0
G1 X69.835 Y4.988 Z-0.050 F100.0
G0 X69.835 Y4.988 Z2.000
G0 X69.772 Y4.911 Z2.000
G1 X69.772 Y4.911 Z-0.050 F100.0
G1 X69.580 Y5.058 Z-0.050 F100.0
G0 X69.580 Y5.058 Z2.000
G0 X69.833 Y4.990 Z2.000
G1 X69.833 Y4.990 Z-0.050 F100.0
G1 X69.641 Y5.138 Z-0.050 F100.0
G0 X69.641 Y5.138 Z2.000
G0 X69.575 Y5.063 Z2.000
G1 X69.575 Y5.063 Z-0.050 F100.0
G1 X69.575 Y5.063 Z-0.050 F100.0
G0 X69.575 Y5.063 Z2.000
G0 X69.646 Y5.133 Z2.000
G1 X69.646 Y5.133 Z-0.050 F100.0
G1 X69.646 Y5.133 Z-0.050 F100.0
G0 X69.646 Y5.133 Z2.000
G0 X69.583 Y5.056 Z2.000
G1 X69.583 Y5.056 Z-0.050 F100.0
G1 X69.583 Y5.056 Z-0.050 F100.0
G0 X69.583 Y5.056 Z2.000
G0 X69.638 Y5.140 Z2.000
G1 X69.638 Y5.140 Z-0.050 F100.0
G1 X69.638 Y5.140 Z-0.050 F100.0
G0 X69.638 Y5.140 Z2.000
G0 X69.585 Y5.055 Z2.000
G1 X69.585 Y5.055 Z-0.050 F100.0
G1 X69.375 Y5.176 Z-0.050 F100.0
G0 X69.375 Y5.176 Z2.000
G0 X69.635 Y5.141 Z2.000
G1 X69.635 Y5.141 Z-0.050 F100.0
G1 X69.425 Y5.263 Z-0.050 F100.0
G0 X69.425 Y5.263 Z2.000
G0 X69.381 Y5.173 Z2.000
G1 X69.381 Y5.173 Z-0.050 F100.0
G1 X69.381 Y5.173 Z-0.050 F100.0
G0 X69.381 Y5.173 Z2.000
G0 X69.420 Y5.265 Z2.000
G1 X69.420 Y5.265 Z-0.050 F100.0
G1 X69.420 Y5.265 Z-0.050 F100.0
G0 X69.420 Y5.265 Z2.000
G0 X69.381 Y5.173 Z2.000
G1 X69.381 Y5.173 Z-0.050 F100.0
G1 X69.157 Y5.266 Z-0.050 F100.0
G0 X69.157 Y5.266 Z2.000
G0 X69.419 Y5.265 Z2.000
G1 X69.419 Y5.265 Z-0.050 F100.0
G1 X69.195 Y5.358 Z-0.050 F100.0
G0 X69.195 Y5.358 Z2.000
G0 X69.163 Y5.264 Z2.000
G1 X69.163 Y5.264 Z-0.050 F100.0
G1 X68.929 Y5.327 Z-0.050 F100.0
G0 X68.929 Y5.327 Z2.000
G0 X69.189 Y5.360 Z2.000
G1 X69.189 Y5.360 Z-0.050 F100.0
G1 X68.955 Y5.423 Z-0.050 F100.0
G0 X68.955 Y5.423 Z2.000
G0 X68.935 Y5.325 Z2.000
G1 X68.935 Y5.325 Z-0.050 F100.0
G1 X68.695 Y5.357 Z-0.050 F100.0
G0 X68.695 Y5.357 Z2.000
G0 X68.948 Y5.424 Z2.000
G1 X68.948 Y5.424 Z-0.050 F100.0
G1 X68.708 Y5.456 Z-0.050 F100.0
G0 X68.708 Y5.456 Z2.000
G0 X68.701 Y5.357 Z2.000
G1 X68.701 Y5.357 Z-0.050 F100.0
G1 X68.701 Y5.357 Z-0.050 F100.0
G0 X68.701 Y5.357 Z2.000
G0 X68.701 Y5.457 Z2.000
G1 X68.701 Y5.457 Z-0.050 F100.0
G1 X68.701 Y5.457 Z-0.050 F100.0
G0 X68.701 Y5.457 Z2.000
G0 X68.701 Y5.357 Z2.000
G1 X68.701 Y5.357 Z-0.050 F100.0
G1 X68.459 Y5.357 Z-0.050 F100.0
G0 X68.459 Y5.357 Z2.000
G0 X68.701 Y5.457 Z2.000
G1 X68.701 Y5.457 Z-0.050 F100.0
G1 X68.459 Y5.457 Z-0.050 F100.0
G0 X68.459 Y5.457 Z2.000
G0 X68.459 Y5.357 Z2.000
G1 X68.459 Y5.357 Z-0.050 F100.0
G1 X68.459 Y5.357 Z-0.050 F100.0
G0 X68.459 Y5.357 Z2.000
G0 X68.459 Y5.457 Z2.000
G1 X68.459 Y5.457 Z-0.050 F100.0
G1 X68.459 Y5.457 Z-0.050 F100.0
G0 X68.459 Y5.457 Z2.000
G0 X68.465 Y5.357 Z2.000
G1 X68.465 Y5.357 Z-0.050 F100.0
G1 X68.225 Y5.325 Z-0.050 F100.0
G0 X68.225 Y5.325 Z2.000
G0 X68.452 Y5.456 Z2.000
G1 X68.452 Y5.456 Z-0.050 F100.0
G1 X68.212 Y5.424 Z-0.050 F100.0
G0 X68.212 Y5.424 Z2.000
G0 X68.231 Y5.327 Z2.000
G1 X68.231 Y5.327 Z-0.050 F100.0
G1 X67.997 Y5.264 Z-0.050 F100.0
G0 X67.997 Y5.264 Z2.000
G0 X68.205 Y5.423 Z2.000
G1 X68.205 Y5.423 Z-0.050 F100.0
G1 X67.971 Y5.360 Z-0.050 F100.0
G0 X67.971 Y5.360 Z2.000
G0 X68.003 Y5.266 Z2.000
G1 X68.003 Y5.266 Z-0.050 F100.0
G1 X67.779 Y5.173 Z-0.050 F100.0
G0 X67.779 Y5.173 Z2.000
G0 X67.965 Y5.358 Z2.000
G1 X67.965 Y5.358 Z-0.050 F100.0
G1 X67.741 Y5.265 Z-0.050 F100.0
G0 X67.741 Y5.265 Z2.000
G0 X67.780 Y5.174 Z2.000
G1 X67.780 Y5.174 Z-0.050 F100.0
G1 X67.780 Y5.174 Z-0.050 F100.0
G0 X67.780 Y5.174 Z2.000
G0 X67.739 Y5.265 Z2.000
G1 X67.739 Y5.265 Z-0.050 F100.0
G1 X67.739 Y5.265 Z-0.050 F100.0
G0 X67.739 Y5.265 Z2.000
G0 X67.785 Y5.176 Z2.000
G1 X67.785 Y5.176 Z-0.050 F100.0
G1 X67.575 Y5.055 Z-0.050 F100.0
G0 X67.575 Y5.055 Z2.000
G0 X67.735 Y5.263 Z2.000
G1 X67.735 Y5.263 Z-0.050 F100.0
G1 X67.525 Y5.141 Z-0.050 F100.0
G0 X67.525 Y5.141 Z2.000
G0 X67.580 Y5.058 Z2.000
G1 X67.580 Y5.058 Z-0.050 F100.0
G1 X67.388 Y4.911 Z-0.050 F100.0
G0 X67.388 Y4.911 Z2.000
G0 X67.519 Y5.138 Z2.000
G1 X67.519 Y5.138 Z-0.050 F100.0
G1 X67.327 Y4.990 Z-0.050 F100.0
G0 X67.327 Y4.990 Z2.000
G0 X67.390 Y4.912 Z2.000
G1 X67.390 Y4.912 Z-0.050 F100.0
G1 X67.390 Y4.912 Z-0.050 F100.0
G0 X67.390 Y4.912 Z2.000
G0 X67.325 Y4.988 Z2.000
G1 X67.325 Y4.988 Z-0.050 F100.0
G1 X67.325 Y4.988 Z-0.050 F100.0
G0 X67.325 Y4.988 Z2.000
G0 X67.393 Y4.915 Z2.000
G1 X67.393 Y4.915 Z-0.050 F100.0
G1 X67.221 Y4.743 Z-0.050 F100.0
G0 X67.221 Y4.743 Z2.000
G0 X67.322 Y4.986 Z2.000
G1 X67.322 Y4.986 Z-0.050 F100.0
G1 X67.150 Y4.814 Z-0.050 F100.0
G0 X67.150 Y4.814 Z2.000
G0 X67.224 Y4.746 Z2.000
G1 X67.224 Y4.746 Z-0.050 F100.0
G1 X67.224 Y4.746 Z-0.050 F100.0
G0 X67.224 Y4.746 Z2.000
G0 X67.148 Y4.811 Z2.000
G1 X67.148 Y4.811 Z-0.050 F100.0
G1 X67.148 Y4.811 Z-0.050 F100.0
G0 X67.148 Y4.811 Z2.000
G0 X67.225 Y4.748 Z2.000
G1 X67.225 Y4.748 Z-0.050 F100.0
G1 X67.078 Y4.556 Z-0.050 F100.0
G0 X67.078 Y4.556 Z2.000
G0 X67.146 Y4.809 Z2.000
G1 X67.146 Y4.809 Z-0.050 F100.0
G1 X66.998 Y4.617 Z-0.050 F100.0
G0 X66.998 Y4.617 Z2.000
G0 X67.081 Y4.561 Z2.000
G1 X67.081 Y4.561 Z-0.050 F100.0
G1 X66.960 Y4.351 Z-0.050 F100.0
G0 X66.960 Y4.351 Z2.000
G0 X66.995 Y4.611 Z2.000
G1 X66.995 Y4.611 Z-0.050 F100.0
G1 X66.873 Y4.401 Z-0.050 F100.0
G0 X66.873 Y4.401 Z2.000
G0 X66.962 Y4.356 Z2.000
G1 X66.962 Y4.356 Z-0.050 F100.0
G1 X66.962 Y4.356 Z-0.050 F100.0
G0 X66.962 Y4.356 Z2.000
G0 X66.871 Y4.397 Z2.000
G1 X66.871 Y4.397 Z-0.050 F100.0
G1 X66.871 Y4.397 Z-0.050 F100.0
G0 X66.871 Y4.397 Z2.000
G0 X66.963 Y4.357 Z2.000
G1 X66.963 Y4.357 Z-0.050 F100.0
G1 X66.870 Y4.133 Z-0.050 F100.0
G0 X66.870 Y4.133 Z2.000
G0 X66.871 Y4.395 Z2.000
G1 X66.871 Y4.395 Z-0.050 F100.0
G1 X66.778 Y4.171 Z-0.050 F100.0
G0 X66.778 Y4.171 Z2.000
G0 X66.872 Y4.139 Z2.000
G1 X66.872 Y4.139 Z-0.050 F100.0
G1 X66.809 Y3.905 Z-0.050 F100.0
G0 X66.809 Y3.905 Z2.000
G0 X66.776 Y4.165 Z2.000
G1 X66.776 Y4.165 Z-0.050 F100.0
G1 X66.713 Y3.931 Z-0.050 F100.0
G0 X66.713 Y3.931 Z2.000
G0 X66.811 Y3.911 Z2.000
G1 X66.811 Y3.911 Z-0.050 F100.0
G1 X66.779 Y3.671 Z-0.050 F100.0
G0 X66.779 Y3.671 Z2.000
G0 X66.712 Y3.924 Z2.000
G1 X66.712 Y3.924 Z-0.050 F100.0
G1 X66.680 Y3.684 Z-0.050 F100.0
G0 X66.680 Y3.684 Z2.000
G0 X66.730 Y3.627 Z2.000
G1 X66.730 Y3.627 Z-0.050 F100.0
G1 X57.889 Y3.627 Z-0.050 F100.0
G0 X57.889 Y3.627 Z2.000
G0 X66.730 Y3.727 Z2.000
G1 X66.730 Y3.727 Z-0.050 F100.0
G1 X57.889 Y3.727 Z-0.050 F100.0
G0 X57.889 Y3.727 Z2.000
G0 X57.839 Y3.677 Z2.000
G1 X57.839 Y3.677 Z-0.050 F100.0
G1 X57.839 Y6.121 Z-0.050 F100.0
G0 X57.839 Y6.121 Z2.000
G0 X57.938 Y3.677 Z2.000
G1 X57.938 Y3.677 Z-0.050 F100.0
G1 X57.938 Y6.121 Z-0.050 F100.0
G0 X57.938 Y6.121 Z2.000
G0 X57.839 Y6.118 Z2.000
G1 X57.839 Y6.118 Z-0.050 F100.0
G1 X57.839 Y6.118 Z-0.050 F100.0
G0 X57.839 Y6.118 Z2.000
G0 X57.938 Y6.124 Z2.000
G1 X57.938 Y6.124 Z-0.050 F100.0
G1 X57.938 Y6.124 Z-0.050 F100.0
G0 X57.938 Y6.124 Z2.000
G0 X57.839 Y6.115 Z2.000
G1 X57.839 Y6.115 Z-0.050 F100.0
G1 X57.835 Y6.146 Z-0.050 F100.0
G0 X57.835 Y6.146 Z2.000
G0 X57.938 Y6.126 Z2.000
G1 X57.938 Y6.126 Z-0.050 F100.0
G1 X57.935 Y6.157 Z-0.050 F100.0
G0 X57.935 Y6.157 Z2.000
G0 X57.835 Y6.146 Z2.000
G1 X57.835 Y6.146 Z-0.050 F100.0
G1 X57.832 Y6.176 Z-0.050 F100.0
G0 X57.832 Y6.176 Z2.000
G0 X57.935 Y6.157 Z2.000
G1 X57.935 Y6.157 Z-0.050 F100.0
G1 X57.932 Y6.187 Z-0.050 F100.0
G0 X57.932 Y6.187 Z2.000
G0 X57.835 Y6.164 Z2.000
G1 X57.835 Y6.164 Z-0.050 F100.0
G1 X57.784 Y6.301 Z-0.050 F100.0
G0 X57.784 Y6.301 Z2.000
G0 X57.929 Y6.199 Z2.000
G1 X57.929 Y6.199 Z-0.050 F100.0
G1 X57.878 Y6.336 Z-0.050 F100.0
G0 X57.878 Y6.336 Z2.000
G0 X57.791 Y6.288 Z2.000
G1 X57.791 Y6.288 Z-0.050 F100.0
G1 X57.703 Y6.405 Z-0.050 F100.0
G0 X57.703 Y6.405 Z2.000
G0 X57.871 Y6.348 Z2.000
G1 X57.871 Y6.348 Z-0.050 F100.0
G1 X57.783 Y6.465 Z-0.050 F100.0
G0 X57.783 Y6.465 Z2.000
G0 X57.713 Y6.395 Z2.000
G1 X57.713 Y6.395 Z-0.050 F100.0
G1 X57.596 Y6.483 Z-0.050 F100.0
G0 X57.596 Y6.483 Z2.000
G0 X57.773 Y6.475 Z2.000
G1 X57.773 Y6.475 Z-0.050 F100.0
G1 X57.656 Y6.563 Z-0.050 F100.0
G0 X57.656 Y6.563 Z2.000
G0 X57.609 Y6.476 Z2.000
G1 X57.609 Y6.476 Z-0.050 F100.0
G1 X57.472 Y6.527 Z-0.050 F100.0
G0 X57.472 Y6.527 Z2.000
G0 X57.644 Y6.570 Z2.000
G1 X57.644 Y6.570 Z-0.050 F100.0
G1 X57.507 Y6.621 Z-0.050 F100.0
G0 X57.507 Y6.621 Z2.000
G0 X57.484 Y6.524 Z2.000
G1 X57.484 Y6.524 Z-0.050 F100.0
G1 X57.423 Y6.531 Z-0.050 F100.0
G0 X57.423 Y6.531 Z2.000
G0 X57.495 Y6.624 Z2.000
G1 X57.495 Y6.624 Z-0.050 F100.0
G1 X57.434 Y6.630 Z-0.050 F100.0
G0 X57.434 Y6.630 Z2.000
G0 X57.429 Y6.530 Z2.000
G1 X57.429 Y6.530 Z-0.050 F100.0
G1 X57.429 Y6.530 Z-0.050 F100.0
G0 X57.429 Y6.530 Z2.000
G0 X57.429 Y6.630 Z2.000
G1 X57.429 Y6.630 Z-0.050 F100.0
G1 X57.429 Y6.630 Z-0.050 F100.0
G0 X57.429 Y6.630 Z2.000
G0 X57.429 Y6.530 Z2.000
G1 X57.429 Y6.530 Z-0.050 F100.0
G1 X57.413 Y6.530 Z-0.050 F100.0
G0 X57.413 Y6.530 Z2.000
G0 X57.429 Y6.630 Z2.000
G1 X57.429 Y6.630 Z-0.050 F100.0
G1 X57.413 Y6.630 Z-0.050 F100.0
G0 X57.413 Y6.630 Z2.000
G0 X57.398 Y6.533 Z2.000
G1 X57.398 Y6.533 Z-0.050 F100.0
G1 X57.331 Y6.552 Z-0.050 F100.0
G0 X57.331 Y6.552 Z2.000
G0 X57.427 Y6.628 Z2.000
G1 X57.427 Y6.628 Z-0.050 F100.0
G1 X57.360 Y6.648 Z-0.050 F100.0
G0 X57.360 Y6.648 Z2.000
G0 X57.308 Y6.567 Z2.000
G1 X57.308 Y6.567 Z-0.050 F100.0
G1 X57.262 Y6.620 Z-0.050 F100.0
G0 X57.262 Y6.620 Z2.000
G0 X57.383 Y6.633 Z2.000
G1 X57.383 Y6.633 Z-0.050 F100.0
G1 X57.337 Y6.686 Z-0.050 F100.0
G0 X57.337 Y6.686 Z2.000
G0 X57.251 Y6.642 Z2.000
G1 X57.251 Y6.642 Z-0.050 F100.0
G1 X57.240 Y6.694 Z-0.050 F100.0
G0 X57.240 Y6.694 Z2.000
G0 X57.349 Y6.664 Z2.000
G1 X57.349 Y6.664 Z-0.050 F100.0
G1 X57.337 Y6.715 Z-0.050 F100.0
G0 X57.337 Y6.715 Z2.000
G0 X57.239 Y6.705 Z2.000
G1 X57.239 Y6.705 Z-0.050 F100.0
G1 X57.239 Y11.275 Z-0.050 F100.0
G0 X57.239 Y11.275 Z2.000
G0 X57.338 Y6.705 Z2.000
G1 X57.338 Y6.705 Z-0.050 F100.0
G1 X57.338 Y11.275 Z-0.050 F100.0
G0 X57.338 Y11.275 Z2.000
G0 X57.241 Y11.289 Z2.000
G1 X57.241 Y11.289 Z-0.050 F100.0
G1 X57.260 Y11.356 Z-0.050 F100.0
G0 X57.260 Y11.356 Z2.000
G0 X57.336 Y11.261 Z2.000
G1 X57.336 Y11.261 Z-0.050 F100.0
G1 X57.356 Y11.328 Z-0.050 F100.0
G0 X57.356 Y11.328 Z2.000
G0 X57.275 Y11.380 Z2.000
G1 X57.275 Y11.380 Z-0.050 F100.0
G1 X57.328 Y11.426 Z-0.050 F100.0
G0 X57.328 Y11.426 Z2.000
G0 X57.341 Y11.304 Z2.000
G1 X57.341 Y11.304 Z-0.050 F100.0
G1 X57.394 Y11.350 Z-0.050 F100.0
G0 X57.394 Y11.350 Z2.000
G0 X57.354 Y11.437 Z2.000
G1 X57.354 Y11.437 Z-0.050 F100.0
G1 X57.423 Y11.447 Z-0.050 F100.0
G0 X57.423 Y11.447 Z2.000
G0 X57.368 Y11.338 Z2.000
G1 X57.368 Y11.338 Z-0.050 F100.0
G1 X57.437 Y11.348 Z-0.050 F100.0
G0 X57.437 Y11.348 Z2.000
G0 X57.451 Y11.443 Z2.000
G1 X57.451 Y11.443 Z-0.050 F100.0
G1 X57.514 Y11.414 Z-0.050 F100.0
G0 X57.514 Y11.414 Z2.000
G0 X57.409 Y11.352 Z2.000
G1 X57.409 Y11.352 Z-0.050 F100.0
G1 X57.473 Y11.323 Z-0.050 F100.0
G0 X57.473 Y11.323 Z2.000
G0 X57.528 Y11.405 Z2.000
G1 X57.528 Y11.405 Z-0.050 F100.0
G1 X57.534 Y11.399 Z-0.050 F100.0
G0 X57.534 Y11.399 Z2.000
G0 X57.460 Y11.332 Z2.000
G1 X57.460 Y11.332 Z-0.050 F100.0
G1 X57.466 Y11.326 Z-0.050 F100.0
G0 X57.466 Y11.326 Z2.000
G0 X57.536 Y11.398 Z2.000
G1 X57.536 Y11.398 Z-0.050 F100.0
G1 X57.628 Y11.306 Z-0.050 F100.0
G0 X57.628 Y11.306 Z2.000
G0 X57.465 Y11.327 Z2.000
G1 X57.465 Y11.327 Z-0.050 F100.0
G1 X57.557 Y11.235 Z-0.050 F100.0
G0 X57.557 Y11.235 Z2.000
G0 X57.622 Y11.311 Z2.000
G1 X57.622 Y11.311 Z-0.050 F100.0
G1 X57.776 Y11.199 Z-0.050 F100.0
G0 X57.776 Y11.199 Z2.000
G0 X57.563 Y11.230 Z2.000
G1 X57.563 Y11.230 Z-0.050 F100.0
G1 X57.717 Y11.118 Z-0.050 F100.0
G0 X57.717 Y11.118 Z2.000
G0 X57.769 Y11.203 Z2.000
G1 X57.769 Y11.203 Z-0.050 F100.0
G1 X57.849 Y11.162 Z-0.050 F100.0
G0 X57.849 Y11.162 Z2.000
G0 X57.724 Y11.114 Z2.000
G1 X57.724 Y11.114 Z-0.050 F100.0
G1 X57.804 Y11.073 Z-0.050 F100.0
G0 X57.804 Y11.073 Z2.000
G0 X57.849 Y11.162 Z2.000
G1 X57.849 Y11.162 Z-0.050 F100.0
G1 X57.939 Y11.117 Z-0.050 F100.0
G0 X57.939 Y11.117 Z2.000
G0 X57.804 Y11.073 Z2.000
G1 X57.804 Y11.073 Z-0.050 F100.0
G1 X57.893 Y11.027 Z-0.050 F100.0
G0 X57.893 Y11.027 Z2.000
G0 X57.916 Y11.122 Z2.000
G1 X57.916 Y11.122 Z-0.050 F100.0
G1 X57.916 Y11.122 Z-0.050 F100.0
G0 X57.916 Y11.122 Z2.000
G0 X57.916 Y11.022 Z2.000
G1 X57.916 Y11.022 Z-0.050 F100.0
G1 X57.916 Y11.022 Z-0.050 F100.0
G0 X57.916 Y11.022 Z2.000
G0 X57.944 Y11.114 Z2.000
G1 X57.944 Y11.114 Z-0.050 F100.0
G1 X57.944 Y11.114 Z-0.050 F100.0
G0 X57.944 Y11.114 Z2.000
G0 X57.888 Y11.030 Z2.000
G1 X57.888 Y11.030 Z-0.050 F100.0
G1 X57.888 Y11.030 Z-0.050 F100.0
G0 X57.888 Y11.030 Z2.000
G0 X57.932 Y11.120 Z2.000
G1 X57.932 Y11.120 Z-0.050 F100.0
G1 X58.029 Y11.088 Z-0.050 F100.0
G0 X58.029 Y11.088 Z2.000
G0 X57.901 Y11.024 Z2.000
G1 X57.901 Y11.024 Z-0.050 F100.0
G1 X57.998 Y10.993 Z-0.050 F100.0
G0 X57.998 Y10.993 Z2.000
G0 X58.029 Y11.088 Z2.000
G1 X58.029 Y11.088 Z-0.050 F100.0
G1 X58.112 Y11.061 Z-0.050 F100.0
G0 X58.112 Y11.061 Z2.000
G0 X57.998 Y10.993 Z2.000
G1 X57.998 Y10.993 Z-0.050 F100.0
G1 X58.082 Y10.966 Z-0.050 F100.0
G0 X58.082 Y10.966 Z2.000
G0 X58.105 Y11.063 Z2.000
G1 X58.105 Y11.063 Z-0.050 F100.0
G1 X58.293 Y11.033 Z-0.050 F100.0
G0 X58.293 Y11.033 Z2.000
G0 X58.089 Y10.964 Z2.000
G1 X58.089 Y10.964 Z-0.050 F100.0
G1 X58.277 Y10.934 Z-0.050 F100.0
G0 X58.277 Y10.934 Z2.000
G0 X58.285 Y11.034 Z2.000
G1 X58.285 Y11.034 Z-0.050 F100.0
G1 X58.285 Y11.034 Z-0.050 F100.0
G0 X58.285 Y11.034 Z2.000
G0 X58.285 Y10.933 Z2.000
G1 X58.285 Y10.933 Z-0.050 F100.0
G1 X58.285 Y10.933 Z-0.050 F100.0
G0 X58.285 Y10.933 Z2.000
G0 X58.285 Y11.034 Z2.000
G1 X58.285 Y11.034 Z-0.050 F100.0
G1 X58.475 Y11.034 Z-0.050 F100.0
G0 X58.475 Y11.034 Z2.000
G0 X58.285 Y10.933 Z2.000
G1 X58.285 Y10.933 Z-0.050 F100.0
G1 X58.475 Y10.933 Z-0.050 F100.0
G0 X58.475 Y10.933 Z2.000
G0 X58.467 Y11.033 Z2.000
G1 X58.467 Y11.033 Z-0.050 F100.0
G1 X58.655 Y11.063 Z-0.050 F100.0
G0 X58.655 Y11.063 Z2.000
G0 X58.483 Y10.934 Z2.000
G1 X58.483 Y10.934 Z-0.050 F100.0
G1 X58.671 Y10.964 Z-0.050 F100.0
G0 X58.671 Y10.964 Z2.000
G0 X58.648 Y11.061 Z2.000
G1 X58.648 Y11.061 Z-0.050 F100.0
G1 X58.828 Y11.120 Z-0.050 F100.0
G0 X58.828 Y11.120 Z2.000
G0 X58.678 Y10.966 Z2.000
G1 X58.678 Y10.966 Z-0.050 F100.0
G1 X58.859 Y11.024 Z-0.050 F100.0
G0 X58.859 Y11.024 Z2.000
G0 X58.821 Y11.117 Z2.000
G1 X58.821 Y11.117 Z-0.050 F100.0
G1 X58.991 Y11.203 Z-0.050 F100.0
G0 X58.991 Y11.203 Z2.000
G0 X58.867 Y11.027 Z2.000
G1 X58.867 Y11.027 Z-0.050 F100.0
G1 X59.036 Y11.114 Z-0.050 F100.0
G0 X59.036 Y11.114 Z2.000
G0 X58.984 Y11.199 Z2.000
G1 X58.984 Y11.199 Z-0.050 F100.0
G1 X59.138 Y11.311 Z-0.050 F100.0
G0 X59.138 Y11.311 Z2.000
G0 X59.043 Y11.118 Z2.000
G1 X59.043 Y11.118 Z-0.050 F100.0
G1 X59.197 Y11.230 Z-0.050 F100.0
G0 X59.197 Y11.230 Z2.000
G0 X59.132 Y11.306 Z2.000
G1 X59.132 Y11.306 Z-0.050 F100.0
G1 X59.266 Y11.440 Z-0.050 F100.0
G0 X59.266 Y11.440 Z2.000
G0 X59.203 Y11.235 Z2.000
G1 X59.203 Y11.235 Z-0.050 F100.0
G1 X59.337 Y11.369 Z-0.050 F100.0
G0 X59.337 Y11.369 Z2.000
G0 X59.261 Y11.434 Z2.000
G1 X59.261 Y11.434 Z-0.050 F100.0
G1 X59.373 Y11.588 Z-0.050 F100.0
G0 X59.373 Y11.588 Z2.000
G0 X59.342 Y11.375 Z2.000
G1 X59.342 Y11.375 Z-0.050 F100.0
G1 X59.454 Y11.529 Z-0.050 F100.0
G0 X59.454 Y11.529 Z2.000
G0 X59.369 Y11.581 Z2.000
G1 X59.369 Y11.581 Z-0.050 F100.0
G1 X59.455 Y11.751 Z-0.050 F100.0
G0 X59.455 Y11.751 Z2.000
G0 X59.458 Y11.536 Z2.000
G1 X59.458 Y11.536 Z-0.050 F100.0
G1 X59.545 Y11.705 Z-0.050 F100.0
G0 X59.545 Y11.705 Z2.000
G0 X59.452 Y11.744 Z2.000
G1 X59.452 Y11.744 Z-0.050 F100.0
G1 X59.511 Y11.924 Z-0.050 F100.0
G0 X59.511 Y11.924 Z2.000
G0 X59.548 Y11.713 Z2.000
G1 X59.548 Y11.713 Z-0.050 F100.0
G1 X59.606 Y11.894 Z-0.050 F100.0
G0 X59.606 Y11.894 Z2.000
G0 X59.509 Y11.917 Z2.000
G1 X59.509 Y11.917 Z-0.050 F100.0
G1 X59.539 Y12.105 Z-0.050 F100.0
G0 X59.539 Y12.105 Z2.000
G0 X59.608 Y11.901 Z2.000
G1 X59.608 Y11.901 Z-0.050 F100.0
G1 X59.638 Y12.089 Z-0.050 F100.0
G0 X59.638 Y12.089 Z2.000
G0 X59.539 Y12.097 Z2.000
G1 X59.539 Y12.097 Z-0.050 F100.0
G1 X59.539 Y12.287 Z-0.050 F100.0
G0 X59.539 Y12.287 Z2.000
G0 X59.639 Y12.097 Z2.000
G1 X59.639 Y12.097 Z-0.050 F100.0
G1 X59.639 Y12.287 Z-0.050 F100.0
G0 X59.639 Y12.287 Z2.000
G0 X59.539 Y12.279 Z2.000
G1 X59.539 Y12.279 Z-0.050 F100.0
G1 X59.509 Y12.467 Z-0.050 F100.0
G0 X59.509 Y12.467 Z2.000
G0 X59.638 Y12.295 Z2.000
G1 X59.638 Y12.295 Z-0.050 F100.0
G1 X59.608 Y12.483 Z-0.050 F100.0
G0 X59.608 Y12.483 Z2.000
G0 X59.511 Y12.460 Z2.000
G1 X59.511 Y12.460 Z-0.050 F100.0
G1 X59.452 Y12.640 Z-0.050 F100.0
G0 X59.452 Y12.640 Z2.000
G0 X59.606 Y12.490 Z2.000
G1 X59.606 Y12.490 Z-0.050 F100.0
G1 X59.548 Y12.671 Z-0.050 F100.0
G0 X59.548 Y12.671 Z2.000
G0 X59.455 Y12.633 Z2.000
G1 X59.455 Y12.633 Z-0.050 F100.0
G1 X59.383 Y12.775 Z-0.050 F100.0
G0 X59.383 Y12.775 Z2.000
G0 X59.545 Y12.679 Z2.000
G1 X59.545 Y12.679 Z-0.050 F100.0
G1 X59.472 Y12.821 Z-0.050 F100.0
G0 X59.472 Y12.821 Z2.000
G0 X59.383 Y12.775 Z2.000
G1 X59.383 Y12.775 Z-0.050 F100.0
G1 X59.369 Y12.803 Z-0.050 F100.0
G0 X59.369 Y12.803 Z2.000
G0 X59.472 Y12.821 Z2.000
G1 X59.472 Y12.821 Z-0.050 F100.0
G1 X59.458 Y12.848 Z-0.050 F100.0
G0 X59.458 Y12.848 Z2.000
G0 X59.373 Y12.796 Z2.000
G1 X59.373 Y12.796 Z-0.050 F100.0
G1 X59.261 Y12.950 Z-0.050 F100.0
G0 X59.261 Y12.950 Z2.000
G0 X59.454 Y12.855 Z2.000
G1 X59.454 Y12.855 Z-0.050 F100.0
G1 X59.342 Y13.009 Z-0.050 F100.0
G0 X59.342 Y13.009 Z2.000
G0 X59.266 Y12.944 Z2.000
G1 X59.266 Y12.944 Z-0.050 F100.0
G1 X59.132 Y13.078 Z-0.050 F100.0
G0 X59.132 Y13.078 Z2.000
G0 X59.337 Y13.015 Z2.000
G1 X59.337 Y13.015 Z-0.050 F100.0
G1 X59.203 Y13.149 Z-0.050 F100.0
G0 X59.203 Y13.149 Z2.000
G0 X59.138 Y13.073 Z2.000
G1 X59.138 Y13.073 Z-0.050 F100.0
G1 X58.984 Y13.185 Z-0.050 F100.0
G0 X58.984 Y13.185 Z2.000
G0 X59.197 Y13.154 Z2.000
G1 X59.197 Y13.154 Z-0.050 F100.0
G1 X59.043 Y13.266 Z-0.050 F100.0
G0 X59.043 Y13.266 Z2.000
G0 X58.991 Y13.181 Z2.000
G1 X58.991 Y13.181 Z-0.050 F100.0
G1 X58.821 Y13.267 Z-0.050 F100.0
G0 X58.821 Y13.267 Z2.000
G0 X59.036 Y13.270 Z2.000
G1 X59.036 Y13.270 Z-0.050 F100.0
G1 X58.867 Y13.357 Z-0.050 F100.0
G0 X58.867 Y13.357 Z2.000
G0 X58.828 Y13.264 Z2.000
G1 X58.828 Y13.264 Z-0.050 F100.0
G1 X58.648 Y13.323 Z-0.050 F100.0
G0 X58.648 Y13.323 Z2.000
G0 X58.859 Y13.360 Z2.000
G1 X58.859 Y13.360 Z-0.050 F100.0
G1 X58.678 Y13.418 Z-0.050 F100.0
G0 X58.678 Y13.418 Z2.000
G0 X58.655 Y13.321 Z2.000
G1 X58.655 Y13.321 Z-0.050 F100.0
G1 X58.467 Y13.351 Z-0.050 F100.0
G0 X58.467 Y13.351 Z2.000
G0 X58.671 Y13.420 Z2.000
G1 X58.671 Y13.420 Z-0.050 F100.0
G1 X58.483 Y13.450 Z-0.050 F100.0
G0 X58.483 Y13.450 Z2.000
G0 X58.475 Y13.350 Z2.000
G1 X58.475 Y13.350 Z-0.050 F100.0
G1 X58.475 Y13.350 Z-0.050 F100.0
G0 X58.475 Y13.350 Z2.000
G0 X58.475 Y13.450 Z2.000
G1 X58.475 Y13.450 Z-0.050 F100.0
G1 X58.475 Y13.450 Z-0.050 F100.0
G0 X58.475 Y13.450 Z2.000
G0 X58.475 Y13.350 Z2.000
G1 X58.475 Y13.350 Z-0.050 F100.0
G1 X58.285 Y13.350 Z-0.050 F100.0
G0 X58.285 Y13.350 Z2.000
G0 X58.475 Y13.450 Z2.000
G1 X58.475 Y13.450 Z-0.050 F100.0
G1 X58.285 Y13.450 Z-0.050 F100.0
G0 X58.285 Y13.450 Z2.000
G0 X58.285 Y13.350 Z2.000
G1 X58.285 Y13.350 Z-0.050 F100.0
G1 X58.285 Y13.350 Z-0.050 F100.0
G0 X58.285 Y13.350 Z2.000
G0 X58.285 Y13.450 Z2.000
G1 X58.285 Y13.450 Z-0.050 F100.0
G1 X58.285 Y13.450 Z-0.050 F100.0
G0 X58.285 Y13.450 Z2.000
G0 X58.293 Y13.351 Z2.000
G1 X58.293 Y13.351 Z-0.050 F100.0
G1 X58.105 Y13.321 Z-0.050 F100.0
G0 X58.105 Y13.321 Z2.000
G0 X58.277 Y13.450 Z2.000
G1 X58.277 Y13.450 Z-0.050 F100.0
G1 X58.089 Y13.420 Z-0.050 F100.0
G0 X58.089 Y13.420 Z2.000
G0 X58.112 Y13.323 Z2.000
G1 X58.112 Y13.323 Z-0.050 F100.0
G1 X57.932 Y13.264 Z-0.050 F100.0
G0 X57.932 Y13.264 Z2.000
G0 X58.082 Y13.418 Z2.000
G1 X58.082 Y13.418 Z-0.050 F100.0
G1 X57.901 Y13.360 Z-0.050 F100.0
G0 X57.901 Y13.360 Z2.000
G0 X57.939 Y13.267 Z2.000
G1 X57.939 Y13.267 Z-0.050 F100.0
G1 X57.769 Y13.181 Z-0.050 F100.0
G0 X57.769 Y13.181 Z2.000
G0 X57.893 Y13.357 Z2.000
G1 X57.893 Y13.357 Z-0.050 F100.0
G1 X57.724 Y13.270 Z-0.050 F100.0
G0 X57.724 Y13.270 Z2.000
G0 X57.776 Y13.185 Z2.000
G1 X57.776 Y13.185 Z-0.050 F100.0
G1 X57.688 Y13.121 Z-0.050 F100.0
G0 X57.688 Y13.121 Z2.000
G0 X57.717 Y13.266 Z2.000
G1 X57.717 Y13.266 Z-0.050 F100.0
G1 X57.629 Y13.202 Z-0.050 F100.0
G0 X57.629 Y13.202 Z2.000
G0 X57.688 Y13.121 Z2.000
G1 X57.688 Y13.121 Z-0.050 F100.0
G1 X57.622 Y13.073 Z-0.050 F100.0
G0 X57.622 Y13.073 Z2.000
G0 X57.629 Y13.202 Z2.000
G1 X57.629 Y13.202 Z-0.050 F100.0
G1 X57.563 Y13.154 Z-0.050 F100.0
G0 X57.563 Y13.154 Z2.000
G0 X57.628 Y13.078 Z2.000
G1 X57.628 Y13.078 Z-0.050 F100.0
G1 X57.628 Y13.078 Z-0.050 F100.0
G0 X57.628 Y13.078 Z2.000
G0 X57.557 Y13.149 Z2.000
G1 X57.557 Y13.149 Z-0.050 F100.0
G1 X57.557 Y13.149 Z-0.050 F100.0
G0 X57.557 Y13.149 Z2.000
G0 X57.593 Y13.064 Z2.000
G1 X57.593 Y13.064 Z-0.050 F100.0
G1 X57.593 Y13.064 Z-0.050 F100.0
G0 X57.593 Y13.064 Z2.000
G0 X57.593 Y13.164 Z2.000
G1 X57.593 Y13.164 Z-0.050 F100.0
G1 X57.593 Y13.164 Z-0.050 F100.0
G0 X57.593 Y13.164 Z2.000
G0 X57.628 Y13.078 Z2.000
G1 X57.628 Y13.078 Z-0.050 F100.0
G1 X57.494 Y12.944 Z-0.050 F100.0
G0 X57.494 Y12.944 Z2.000
G0 X57.557 Y13.149 Z2.000
G1 X57.557 Y13.149 Z-0.050 F100.0
G1 X57.423 Y13.015 Z-0.050 F100.0
G0 X57.423 Y13.015 Z2.000
G0 X57.508 Y12.979 Z2.000
G1 X57.508 Y12.979 Z-0.050 F100.0
G1 X57.508 Y12.979 Z-0.050 F100.0
G0 X57.508 Y12.979 Z2.000
G0 X57.408 Y12.979 Z2.000
G1 X57.408 Y12.979 Z-0.050 F100.0
G1 X57.408 Y12.979 Z-0.050 F100.0
G0 X57.408 Y12.979 Z2.000
G0 X57.494 Y12.944 Z2.000
G1 X57.494 Y12.944 Z-0.050 F100.0
G1 X57.494 Y12.944 Z-0.050 F100.0
G0 X57.494 Y12.944 Z2.000
G0 X57.423 Y13.015 Z2.000
G1 X57.423 Y13.015 Z-0.050 F100.0
G1 X57.423 Y13.015 Z-0.050 F100.0
G0 X57.423 Y13.015 Z2.000
G0 X57.499 Y12.950 Z2.000
G1 X57.499 Y12.950 Z-0.050 F100.0
G1 X57.395 Y12.808 Z-0.050 F100.0
G0 X57.395 Y12.808 Z2.000
G0 X57.418 Y13.009 Z2.000
G1 X57.418 Y13.009 Z-0.050 F100.0
G1 X57.314 Y12.866 Z-0.050 F100.0
G0 X57.314 Y12.866 Z2.000
G0 X57.395 Y12.808 Z2.000
G1 X57.395 Y12.808 Z-0.050 F100.0
G1 X57.384 Y12.792 Z-0.050 F100.0
G0 X57.384 Y12.792 Z2.000
G0 X57.314 Y12.866 Z2.000
G1 X57.314 Y12.866 Z-0.050 F100.0
G1 X57.303 Y12.851 Z-0.050 F100.0
G0 X57.303 Y12.851 Z2.000
G0 X57.314 Y12.781 Z2.000
G1 X57.314 Y12.781 Z-0.050 F100.0
G1 X57.312 Y12.782 Z-0.050 F100.0
G0 X57.312 Y12.782 Z2.000
G0 X57.373 Y12.862 Z2.000
G1 X57.373 Y12.862 Z-0.050 F100.0
G1 X57.371 Y12.863 Z-0.050 F100.0
G0 X57.371 Y12.863 Z2.000
G0 X57.375 Y12.786 Z2.000
G1 X57.375 Y12.786 Z-0.050 F100.0
G1 X57.330 Y12.745 Z-0.050 F100.0
G0 X57.330 Y12.745 Z2.000
G0 X57.308 Y12.860 Z2.000
G1 X57.308 Y12.860 Z-0.050 F100.0
G1 X57.263 Y12.819 Z-0.050 F100.0
G0 X57.263 Y12.819 Z2.000
G0 X57.305 Y12.732 Z2.000
G1 X57.305 Y12.732 Z-0.050 F100.0
G1 X57.236 Y12.721 Z-0.050 F100.0
G0 X57.236 Y12.721 Z2.000
G0 X57.288 Y12.831 Z2.000
G1 X57.288 Y12.831 Z-0.050 F100.0
G1 X57.219 Y12.820 Z-0.050 F100.0
G0 X57.219 Y12.820 Z2.000
G0 X57.208 Y12.724 Z2.000
G1 X57.208 Y12.724 Z-0.050 F100.0
G1 X57.144 Y12.752 Z-0.050 F100.0
G0 X57.144 Y12.752 Z2.000
G0 X57.247 Y12.816 Z2.000
G1 X57.247 Y12.816 Z-0.050 F100.0
G1 X57.183 Y12.844 Z-0.050 F100.0
G0 X57.183 Y12.844 Z2.000
G0 X57.124 Y12.767 Z2.000
G1 X57.124 Y12.767 Z-0.050 F100.0
G1 X57.093 Y12.806 Z-0.050 F100.0
G0 X57.093 Y12.806 Z2.000
G0 X57.202 Y12.829 Z2.000
G1 X57.202 Y12.829 Z-0.050 F100.0
G1 X57.171 Y12.868 Z-0.050 F100.0
G0 X57.171 Y12.868 Z2.000
G0 X57.088 Y12.814 Z2.000
G1 X57.088 Y12.814 Z-0.050 F100.0
G1 X57.040 Y12.908 Z-0.050 F100.0
G0 X57.040 Y12.908 Z2.000
G0 X57.177 Y12.860 Z2.000
G1 X57.177 Y12.860 Z-0.050 F100.0
G1 X57.129 Y12.953 Z-0.050 F100.0
G0 X57.129 Y12.953 Z2.000
G0 X57.044 Y12.901 Z2.000
G1 X57.044 Y12.901 Z-0.050 F100.0
G1 X57.009 Y12.950 Z-0.050 F100.0
G0 X57.009 Y12.950 Z2.000
G0 X57.125 Y12.960 Z2.000
G1 X57.125 Y12.960 Z-0.050 F100.0
G1 X57.089 Y13.009 Z-0.050 F100.0
G0 X57.089 Y13.009 Z2.000
G0 X57.009 Y12.950 Z2.000
G1 X57.009 Y12.950 Z-0.050 F100.0
G1 X56.914 Y13.080 Z-0.050 F100.0
G0 X56.914 Y13.080 Z2.000
G0 X57.089 Y13.009 Z2.000
G1 X57.089 Y13.009 Z-0.050 F100.0
G1 X56.995 Y13.139 Z-0.050 F100.0
G0 X56.995 Y13.139 Z2.000
G0 X56.919 Y13.074 Z2.000
G1 X56.919 Y13.074 Z-0.050 F100.0
G1 X56.762 Y13.231 Z-0.050 F100.0
G0 X56.762 Y13.231 Z2.000
G0 X56.990 Y13.145 Z2.000
G1 X56.990 Y13.145 Z-0.050 F100.0
G1 X56.833 Y13.302 Z-0.050 F100.0
G0 X56.833 Y13.302 Z2.000
G0 X56.768 Y13.226 Z2.000
G1 X56.768 Y13.226 Z-0.050 F100.0
G1 X56.589 Y13.356 Z-0.050 F100.0
G0 X56.589 Y13.356 Z2.000
G0 X56.827 Y13.307 Z2.000
G1 X56.827 Y13.307 Z-0.050 F100.0
G1 X56.648 Y13.437 Z-0.050 F100.0
G0 X56.648 Y13.437 Z2.000
G0 X56.596 Y13.352 Z2.000
G1 X56.596 Y13.352 Z-0.050 F100.0
G1 X56.588 Y13.356 Z-0.050 F100.0
G0 X56.588 Y13.356 Z2.000
G0 X56.641 Y13.441 Z2.000
G1 X56.641 Y13.441 Z-0.050 F100.0
G1 X56.633 Y13.445 Z-0.050 F100.0
G0 X56.633 Y13.445 Z2.000
G0 X56.588 Y13.356 Z2.000
G1 X56.588 Y13.356 Z-0.050 F100.0
G1 X56.398 Y13.453 Z-0.050 F100.0
G0 X56.398 Y13.453 Z2.000
G0 X56.633 Y13.445 Z2.000
G1 X56.633 Y13.445 Z-0.050 F100.0
G1 X56.443 Y13.542 Z-0.050 F100.0
G0 X56.443 Y13.542 Z2.000
G0 X56.405 Y13.450 Z2.000
G1 X56.405 Y13.450 Z-0.050 F100.0
G1 X56.194 Y13.518 Z-0.050 F100.0
G0 X56.194 Y13.518 Z2.000
G0 X56.436 Y13.545 Z2.000
G1 X56.436 Y13.545 Z-0.050 F100.0
G1 X56.225 Y13.613 Z-0.050 F100.0
G0 X56.225 Y13.613 Z2.000
G0 X56.202 Y13.516 Z2.000
G1 X56.202 Y13.516 Z-0.050 F100.0
G1 X55.983 Y13.551 Z-0.050 F100.0
G0 X55.983 Y13.551 Z2.000
G0 X56.218 Y13.615 Z2.000
G1 X56.218 Y13.615 Z-0.050 F100.0
G1 X55.999 Y13.650 Z-0.050 F100.0
G0 X55.999 Y13.650 Z2.000
G0 X55.991 Y13.550 Z2.000
G1 X55.991 Y13.550 Z-0.050 F100.0
G1 X55.769 Y13.550 Z-0.050 F100.0
G0 X55.769 Y13.550 Z2.000
G0 X55.991 Y13.651 Z2.000
G1 X55.991 Y13.651 Z-0.050 F100.0
G1 X55.769 Y13.651 Z-0.050 F100.0
G0 X55.769 Y13.651 Z2.000
G0 X55.777 Y13.551 Z2.000
G1 X55.777 Y13.551 Z-0.050 F100.0
G1 X55.709 Y13.540 Z-0.050 F100.0
G0 X55.709 Y13.540 Z2.000
G0 X55.761 Y13.650 Z2.000
G1 X55.761 Y13.650 Z-0.050 F100.0
G1 X55.693 Y13.639 Z-0.050 F100.0
G0 X55.693 Y13.639 Z2.000
G0 X55.709 Y13.540 Z2.000
G1 X55.709 Y13.540 Z-0.050 F100.0
G1 X55.558 Y13.516 Z-0.050 F100.0
G0 X55.558 Y13.516 Z2.000
G0 X55.693 Y13.639 Z2.000
G1 X55.693 Y13.639 Z-0.050 F100.0
G1 X55.542 Y13.615 Z-0.050 F100.0
G0 X55.542 Y13.615 Z2.000
G0 X55.566 Y13.518 Z2.000
G1 X55.566 Y13.518 Z-0.050 F100.0
G1 X55.468 Y13.486 Z-0.050 F100.0
G0 X55.468 Y13.486 Z2.000
G0 X55.535 Y13.613 Z2.000
G1 X55.535 Y13.613 Z-0.050 F100.0
G1 X55.437 Y13.582 Z-0.050 F100.0
G0 X55.437 Y13.582 Z2.000
G0 X55.468 Y13.486 Z2.000
G1 X55.468 Y13.486 Z-0.050 F100.0
G1 X55.355 Y13.450 Z-0.050 F100.0
G0 X55.355 Y13.450 Z2.000
G0 X55.437 Y13.582 Z2.000
G1 X55.437 Y13.582 Z-0.050 F100.0
G1 X55.324 Y13.545 Z-0.050 F100.0
G0 X55.324 Y13.545 Z2.000
G0 X55.355 Y13.450 Z2.000
G1 X55.355 Y13.450 Z-0.050 F100.0
G1 X55.355 Y13.450 Z-0.050 F100.0
G0 X55.355 Y13.450 Z2.000
G0 X55.324 Y13.545 Z2.000
G1 X55.324 Y13.545 Z-0.050 F100.0
G1 X55.324 Y13.545 Z-0.050 F100.0
G0 X55.324 Y13.545 Z2.000
G0 X55.362 Y13.453 Z2.000
G1 X55.362 Y13.453 Z-0.050 F100.0
G1 X55.362 Y13.453 Z-0.050 F100.0
G0 X55.362 Y13.453 Z2.000
G0 X55.317 Y13.542 Z2.000
G1 X55.317 Y13.542 Z-0.050 F100.0
G1 X55.317 Y13.542 Z-0.050 F100.0
G0 X55.317 Y13.542 Z2.000
G0 X55.362 Y13.453 Z2.000
G1 X55.362 Y13.453 Z-0.050 F100.0
G1 X55.326 Y13.435 Z-0.050 F100.0
G0 X55.326 Y13.435 Z2.000
G0 X55.317 Y13.542 Z2.000
G1 X55.317 Y13.542 Z-0.050 F100.0
G1 X55.281 Y13.524 Z-0.050 F100.0
G0 X55.281 Y13.524 Z2.000
G0 X55.313 Y13.430 Z2.000
G1 X55.313 Y13.430 Z-0.050 F100.0
G1 X55.244 Y13.417 Z-0.050 F100.0
G0 X55.244 Y13.417 Z2.000
G0 X55.295 Y13.528 Z2.000
G1 X55.295 Y13.528 Z-0.050 F100.0
G1 X55.226 Y13.515 Z-0.050 F100.0
G0 X55.226 Y13.515 Z2.000
G0 X55.216 Y13.420 Z2.000
G1 X55.216 Y13.420 Z-0.050 F100.0
G1 X55.152 Y13.446 Z-0.050 F100.0
G0 X55.152 Y13.446 Z2.000
G0 X55.254 Y13.513 Z2.000
G1 X55.254 Y13.513 Z-0.050 F100.0
G1 X55.189 Y13.539 Z-0.050 F100.0
G0 X55.189 Y13.539 Z2.000
G0 X55.130 Y13.464 Z2.000
G1 X55.130 Y13.464 Z-0.050 F100.0
G1 X55.089 Y13.521 Z-0.050 F100.0
G0 X55.089 Y13.521 Z2.000
G0 X55.211 Y13.521 Z2.000
G1 X55.211 Y13.521 Z-0.050 F100.0
G1 X55.171 Y13.579 Z-0.050 F100.0
G0 X55.171 Y13.579 Z2.000
G0 X55.081 Y13.542 Z2.000
G1 X55.081 Y13.542 Z-0.050 F100.0
G1 X55.074 Y13.582 Z-0.050 F100.0
G0 X55.074 Y13.582 Z2.000
G0 X55.179 Y13.558 Z2.000
G1 X55.179 Y13.558 Z-0.050 F100.0
G1 X55.173 Y13.598 Z-0.050 F100.0
G0 X55.173 Y13.598 Z2.000
G0 X55.074 Y13.590 Z2.000
G1 X55.074 Y13.590 Z-0.050 F100.0
G1 X55.074 Y29.709 Z-0.050 F100.0
G0 X55.074 Y29.709 Z2.000
G0 X55.173 Y13.590 Z2.000
G1 X55.173 Y13.590 Z-0.050 F100.0
G1 X55.173 Y29.709 Z-0.050 F100.0
G0 X55.173 Y29.709 Z2.000
G0 X55.076 Y29.724 Z2.000
G1 X55.076 Y29.724 Z-0.050 F100.0
G1 X55.095 Y29.791 Z-0.050 F100.0
G0 X55.095 Y29.791 Z2.000
G0 X55.171 Y29.695 Z2.000
G1 X55.171 Y29.695 Z-0.050 F100.0
G1 X55.191 Y29.762 Z-0.050 F100.0
G0 X55.191 Y29.762 Z2.000
G0 X55.110 Y29.814 Z2.000
G1 X55.110 Y29.814 Z-0.050 F100.0
G1 X55.163 Y29.860 Z-0.050 F100.0
G0 X55.163 Y29.860 Z2.000
G0 X55.176 Y29.739 Z2.000
G1 X55.176 Y29.739 Z-0.050 F100.0
G1 X55.229 Y29.785 Z-0.050 F100.0
G0 X55.229 Y29.785 Z2.000
G0 X55.185 Y29.871 Z2.000
G1 X55.185 Y29.871 Z-0.050 F100.0
G1 X55.237 Y29.882 Z-0.050 F100.0
G0 X55.237 Y29.882 Z2.000
G0 X55.207 Y29.773 Z2.000
G1 X55.207 Y29.773 Z-0.050 F100.0
G1 X55.258 Y29.785 Z-0.050 F100.0
G0 X55.258 Y29.785 Z2.000
G0 X55.248 Y29.884 Z2.000
G1 X55.248 Y29.884 Z-0.050 F100.0
G1 X57.261 Y29.884 Z-0.050 F100.0
G0 X57.261 Y29.884 Z2.000
G0 X55.248 Y29.784 Z2.000
G1 X55.248 Y29.784 Z-0.050 F100.0
G1 X57.261 Y29.784 Z-0.050 F100.0
G0 X57.261 Y29.784 Z2.000
G0 X57.261 Y29.884 Z2.000
G1 X57.261 Y29.884 Z-0.050 F100.0
G1 X57.261 Y29.884 Z-0.050 F100.0
G0 X57.261 Y29.884 Z2.000
G0 X57.261 Y29.784 Z2.000
G1 X57.261 Y29.784 Z-0.050 F100.0
G1 X57.261 Y29.784 Z-0.050 F100.0
G0 X57.261 Y29.784 Z2.000
G0 X57.253 Y29.883 Z2.000
G1 X57.253 Y29.883 Z-0.050 F100.0
G1 X57.472 Y29.918 Z-0.050 F100.0
G0 X57.472 Y29.918 Z2.000
G0 X57.269 Y29.784 Z2.000
G1 X57.269 Y29.784 Z-0.050 F100.0
G1 X57.488 Y29.819 Z-0.050 F100.0
G0 X57.488 Y29.819 Z2.000
G0 X57.464 Y29.916 Z2.000
G1 X57.464 Y29.916 Z-0.050 F100.0
G1 X57.675 Y29.984 Z-0.050 F100.0
G0 X57.675 Y29.984 Z2.000
G0 X57.495 Y29.821 Z2.000
G1 X57.495 Y29.821 Z-0.050 F100.0
G1 X57.706 Y29.889 Z-0.050 F100.0
G0 X57.706 Y29.889 Z2.000
G0 X57.668 Y29.981 Z2.000
G1 X57.668 Y29.981 Z-0.050 F100.0
G1 X57.866 Y30.082 Z-0.050 F100.0
G0 X57.866 Y30.082 Z2.000
G0 X57.713 Y29.892 Z2.000
G1 X57.713 Y29.892 Z-0.050 F100.0
G1 X57.911 Y29.993 Z-0.050 F100.0
G0 X57.911 Y29.993 Z2.000
G0 X57.859 Y30.078 Z2.000
G1 X57.859 Y30.078 Z-0.050 F100.0
G1 X58.038 Y30.208 Z-0.050 F100.0
G0 X58.038 Y30.208 Z2.000
G0 X57.918 Y29.997 Z2.000
G1 X57.918 Y29.997 Z-0.050 F100.0
G1 X58.097 Y30.127 Z-0.050 F100.0
G0 X58.097 Y30.127 Z2.000
G0 X58.032 Y30.203 Z2.000
G1 X58.032 Y30.203 Z-0.050 F100.0
G1 X58.189 Y30.360 Z-0.050 F100.0
G0 X58.189 Y30.360 Z2.000
G0 X58.103 Y30.132 Z2.000
G1 X58.103 Y30.132 Z-0.050 F100.0
G1 X58.260 Y30.289 Z-0.050 F100.0
G0 X58.260 Y30.289 Z2.000
G0 X58.189 Y30.360 Z2.000
G1 X58.189 Y30.360 Z-0.050 F100.0
G1 X59.217 Y31.388 Z-0.050 F100.0
G0 X59.217 Y31.388 Z2.000
G0 X58.260 Y30.289 Z2.000
G1 X58.260 Y30.289 Z-0.050 F100.0
G1 X59.288 Y31.317 Z-0.050 F100.0
G0 X59.288 Y31.317 Z2.000
G0 X59.253 Y31.403 Z2.000
G1 X59.253 Y31.403 Z-0.050 F100.0
G1 X62.092 Y31.403 Z-0.050 F100.0
G0 X62.092 Y31.403 Z2.000
G0 X59.253 Y31.303 Z2.000
G1 X59.253 Y31.303 Z-0.050 F100.0
G1 X62.092 Y31.303 Z-0.050 F100.0
G0 X62.092 Y31.303 Z2.000
G0 X62.142 Y31.353 Z2.000
G1 X62.142 Y31.353 Z-0.050 F100.0
G1 X62.142 Y31.131 Z-0.050 F100.0
G0 X62.142 Y31.131 Z2.000
G0 X62.042 Y31.353 Z2.000
G1 X62.042 Y31.353 Z-0.050 F100.0
G1 X62.042 Y31.131 Z-0.050 F100.0
G0 X62.042 Y31.131 Z2.000
G0 X62.141 Y31.139 Z2.000
G1 X62.141 Y31.139 Z-0.050 F100.0
G1 X62.176 Y30.920 Z-0.050 F100.0
G0 X62.176 Y30.920 Z2.000
G0 X62.042 Y31.123 Z2.000
G1 X62.042 Y31.123 Z-0.050 F100.0
G1 X62.077 Y30.904 Z-0.050 F100.0
G0 X62.077 Y30.904 Z2.000
G0 X62.174 Y30.928 Z2.000
G1 X62.174 Y30.928 Z-0.050 F100.0
G1 X62.242 Y30.717 Z-0.050 F100.0
G0 X62.242 Y30.717 Z2.000
G0 X62.079 Y30.897 Z2.000
G1 X62.079 Y30.897 Z-0.050 F100.0
G1 X62.147 Y30.686 Z-0.050 F100.0
G0 X62.147 Y30.686 Z2.000
G0 X62.239 Y30.724 Z2.000
G1 X62.239 Y30.724 Z-0.050 F100.0
G1 X62.340 Y30.526 Z-0.050 F100.0
G0 X62.340 Y30.526 Z2.000
G0 X62.150 Y30.679 Z2.000
G1 X62.150 Y30.679 Z-0.050 F100.0
G1 X62.251 Y30.481 Z-0.050 F100.0
G0 X62.251 Y30.481 Z2.000
G0 X62.336 Y30.533 Z2.000
G1 X62.336 Y30.533 Z-0.050 F100.0
G1 X62.466 Y30.354 Z-0.050 F100.0
G0 X62.466 Y30.354 Z2.000
G0 X62.255 Y30.474 Z2.000
G1 X62.255 Y30.474 Z-0.050 F100.0
G1 X62.385 Y30.295 Z-0.050 F100.0
G0 X62.385 Y30.295 Z2.000
G0 X62.461 Y30.360 Z2.000
G1 X62.461 Y30.360 Z-0.050 F100.0
G1 X62.618 Y30.203 Z-0.050 F100.0
G0 X62.618 Y30.203 Z2.000
G0 X62.390 Y30.289 Z2.000
G1 X62.390 Y30.289 Z-0.050 F100.0
G1 X62.547 Y30.132 Z-0.050 F100.0
G0 X62.547 Y30.132 Z2.000
G0 X62.612 Y30.208 Z2.000
G1 X62.612 Y30.208 Z-0.050 F100.0
G1 X62.791 Y30.078 Z-0.050 F100.0
G0 X62.791 Y30.078 Z2.000
G0 X62.553 Y30.127 Z2.000
G1 X62.553 Y30.127 Z-0.050 F100.0
G1 X62.732 Y29.997 Z-0.050 F100.0
G0 X62.732 Y29.997 Z2.000
G0 X62.784 Y30.082 Z2.000
G1 X62.784 Y30.082 Z-0.050 F100.0
G1 X62.878 Y30.034 Z-0.050 F100.0
G0 X62.878 Y30.034 Z2.000
G0 X62.739 Y29.993 Z2.000
G1 X62.739 Y29.993 Z-0.050 F100.0
G1 X62.832 Y29.945 Z-0.050 F100.0
G0 X62.832 Y29.945 Z2.000
G0 X62.878 Y30.034 Z2.000
G1 X62.878 Y30.034 Z-0.050 F100.0
G1 X62.982 Y29.981 Z-0.050 F100.0
G0 X62.982 Y29.981 Z2.000
G0 X62.832 Y29.945 Z2.000
G1 X62.832 Y29.945 Z-0.050 F100.0
G1 X62.937 Y29.892 Z-0.050 F100.0
G0 X62.937 Y29.892 Z2.000
G0 X62.959 Y29.987 Z2.000
G1 X62.959 Y29.987 Z-0.050 F100.0
G1 X62.959 Y29.987 Z-0.050 F100.0
G0 X62.959 Y29.987 Z2.000
G0 X62.959 Y29.887 Z2.000
G1 X62.959 Y29.887 Z-0.050 F100.0
G1 X62.959 Y29.887 Z-0.050 F100.0
G0 X62.959 Y29.887 Z2.000
G0 X62.987 Y29.978 Z2.000
G1 X62.987 Y29.978 Z-0.050 F100.0
G1 X62.987 Y29.978 Z-0.050 F100.0
G0 X62.987 Y29.978 Z2.000
G0 X62.932 Y29.895 Z2.000
G1 X62.932 Y29.895 Z-0.050 F100.0
G1 X62.932 Y29.895 Z-0.050 F100.0
G0 X62.932 Y29.895 Z2.000
G0 X62.975 Y29.984 Z2.000
G1 X62.975 Y29.984 Z-0.050 F100.0
G1 X63.186 Y29.916 Z-0.050 F100.0
G0 X63.186 Y29.916 Z2.000
G0 X62.944 Y29.889 Z2.000
G1 X62.944 Y29.889 Z-0.050 F100.0
G1 X63.155 Y29.821 Z-0.050 F100.0
G0 X63.155 Y29.821 Z2.000
G0 X63.178 Y29.918 Z2.000
G1 X63.178 Y29.918 Z-0.050 F100.0
G1 X63.397 Y29.883 Z-0.050 F100.0
G0 X63.397 Y29.883 Z2.000
G0 X63.162 Y29.819 Z2.000
G1 X63.162 Y29.819 Z-0.050 F100.0
G1 X63.381 Y29.784 Z-0.050 F100.0
G0 X63.381 Y29.784 Z2.000
G0 X63.389 Y29.884 Z2.000
G1 X63.389 Y29.884 Z-0.050 F100.0
G1 X63.389 Y29.884 Z-0.050 F100.0
G0 X63.389 Y29.884 Z2.000
G0 X63.389 Y29.784 Z2.000
G1 X63.389 Y29.784 Z-0.050 F100.0
G1 X63.389 Y29.784 Z-0.050 F100.0
G0 X63.389 Y29.784 Z2.000
G0 X63.389 Y29.884 Z2.000
G1 X63.389 Y29.884 Z-0.050 F100.0
G1 X66.151 Y29.884 Z-0.050 F100.0
G0 X66.151 Y29.884 Z2.000
G0 X63.389 Y29.784 Z2.000
G1 X63.389 Y29.784 Z-0.050 F100.0
G1 X66.151 Y29.784 Z-0.050 F100.0
G0 X66.151 Y29.784 Z2.000
G0 X66.151 Y29.884 Z2.000
G1 X66.151 Y29.884 Z-0.050 F100.0
G1 X66.151 Y29.884 Z-0.050 F100.0
G0 X66.151 Y29.884 Z2.000
G0 X66.151 Y29.784 Z2.000
G1 X66.151 Y29.784 Z-0.050 F100.0
G1 X66.151 Y29.784 Z-0.050 F100.0
G0 X66.151 Y29.784 Z2.000
G0 X66.143 Y29.883 Z2.000
G1 X66.143 Y29.883 Z-0.050 F100.0
G1 X66.362 Y29.918 Z-0.050 F100.0
G0 X66.362 Y29.918 Z2.000
G0 X66.159 Y29.784 Z2.000
G1 X66.159 Y29.784 Z-0.050 F100.0
G1 X66.378 Y29.819 Z-0.050 F100.0
G0 X66.378 Y29.819 Z2.000
G0 X66.354 Y29.916 Z2.000
G1 X66.354 Y29.916 Z-0.050 F100.0
G1 X66.565 Y29.984 Z-0.050 F100.0
G0 X66.565 Y29.984 Z2.000
G0 X66.385 Y29.821 Z2.000
