(AltairCAM Generated G-Code)
G21 (Metric units)
G90 (Absolute positioning)
M3 S10000 (Start spindle)
G0 Z2.000 (Move to safe height)

(Drill holes)
G0 X3.810 Y3.556 Z2.000
G1 X3.810 Y3.556 Z-1.700 F100.0
G0 X3.810 Y3.556 Z2.000
G0 X22.606 Y35.052 Z2.000
G1 X22.606 Y35.052 Z-1.700 F100.0
G0 X22.606 Y35.052 Z2.000
G0 X22.606 Y37.592 Z2.000
G1 X22.606 Y37.592 Z-1.700 F100.0
G0 X22.606 Y37.592 Z2.000
G0 X22.606 Y40.132 Z2.000
G1 X22.606 Y40.132 Z-1.700 F100.0
G0 X22.606 Y40.132 Z2.000
G0 X22.606 Y42.672 Z2.000
G1 X22.606 Y42.672 Z-1.700 F100.0
G0 X22.606 Y42.672 Z2.000
G0 X22.606 Y45.212 Z2.000
G1 X22.606 Y45.212 Z-1.700 F100.0
G0 X22.606 Y45.212 Z2.000
G0 X22.606 Y47.752 Z2.000
G1 X22.606 Y47.752 Z-1.700 F100.0
G0 X22.606 Y47.752 Z2.000
G0 X22.606 Y50.292 Z2.000
G1 X22.606 Y50.292 Z-1.700 F100.0
G0 X22.606 Y50.292 Z2.000
G0 X22.606 Y52.832 Z2.000
G1 X22.606 Y52.832 Z-1.700 F100.0
G0 X22.606 Y52.832 Z2.000
G0 X22.606 Y55.372 Z2.000
G1 X22.606 Y55.372 Z-1.700 F100.0
G0 X22.606 Y55.372 Z2.000
G0 X22.606 Y57.912 Z2.000
G1 X22.606 Y57.912 Z-1.700 F100.0
G0 X22.606 Y57.912 Z2.000
G0 X22.606 Y60.452 Z2.000
G1 X22.606 Y60.452 Z-1.700 F100.0
G0 X22.606 Y60.452 Z2.000
G0 X22.606 Y62.992 Z2.000
G1 X22.606 Y62.992 Z-1.700 F100.0
G0 X22.606 Y62.992 Z2.000
G0 X22.606 Y65.532 Z2.000
G1 X22.606 Y65.532 Z-1.700 F100.0
G0 X22.606 Y65.532 Z2.000
G0 X10.922 Y60.452 Z2.000
G1 X10.922 Y60.452 Z-1.700 F100.0
G0 X10.922 Y60.452 Z2.000
G0 X8.382 Y60.452 Z2.000
G1 X8.382 Y60.452 Z-1.700 F100.0
G0 X8.382 Y60.452 Z2.000
G0 X5.842 Y60.452 Z2.000
G1 X5.842 Y60.452 Z-1.700 F100.0
G0 X5.842 Y60.452 Z2.000
G0 X5.842 Y56.642 Z2.000
G1 X5.842 Y56.642 Z-1.700 F100.0
G0 X5.842 Y56.642 Z2.000
G0 X8.382 Y56.642 Z2.000
G1 X8.382 Y56.642 Z-1.700 F100.0
G0 X8.382 Y56.642 Z2.000
G0 X10.922 Y56.642 Z2.000
G1 X10.922 Y56.642 Z-1.700 F100.0
G0 X10.922 Y56.642 Z2.000
G0 X10.922 Y52.832 Z2.000
G1 X10.922 Y52.832 Z-1.700 F100.0
G0 X10.922 Y52.832 Z2.000
G0 X8.382 Y52.832 Z2.000
G1 X8.382 Y52.832 Z-1.700 F100.0
G0 X8.382 Y52.832 Z2.000
G0 X5.842 Y52.832 Z2.000
G1 X5.842 Y52.832 Z-1.700 F100.0
G0 X5.842 Y52.832 Z2.000
G0 X5.842 Y49.022 Z2.000
G1 X5.842 Y49.022 Z-1.700 F100.0
G0 X5.842 Y49.022 Z2.000
G0 X8.382 Y49.022 Z2.000
G1 X8.382 Y49.022 Z-1.700 F100.0
G0 X8.382 Y49.022 Z2.000
G0 X10.922 Y49.022 Z2.000
G1 X10.922 Y49.022 Z-1.700 F100.0
G0 X10.922 Y49.022 Z2.000
G0 X10.922 Y45.212 Z2.000
G1 X10.922 Y45.212 Z-1.700 F100.0
G0 X10.922 Y45.212 Z2.000
G0 X8.382 Y45.212 Z2.000
G1 X8.382 Y45.212 Z-1.700 F100.0
G0 X8.382 Y45.212 Z2.000
G0 X5.842 Y45.212 Z2.000
G1 X5.842 Y45.212 Z-1.700 F100.0
G0 X5.842 Y45.212 Z2.000
G0 X3.810 Y74.676 Z2.000
G1 X3.810 Y74.676 Z-1.700 F100.0
G0 X3.810 Y74.676 Z2.000
G0 X45.466 Y70.612 Z2.000
G1 X45.466 Y70.612 Z-1.700 F100.0
G0 X45.466 Y70.612 Z2.000
G0 X45.466 Y68.072 Z2.000
G1 X45.466 Y68.072 Z-1.700 F100.0
G0 X45.466 Y68.072 Z2.000
G0 X45.466 Y65.532 Z2.000
G1 X45.466 Y65.532 Z-1.700 F100.0
G0 X45.466 Y65.532 Z2.000
G0 X45.466 Y62.992 Z2.000
G1 X45.466 Y62.992 Z-1.700 F100.0
G0 X45.466 Y62.992 Z2.000
G0 X45.466 Y60.452 Z2.000
G1 X45.466 Y60.452 Z-1.700 F100.0
G0 X45.466 Y60.452 Z2.000
G0 X45.466 Y57.912 Z2.000
G1 X45.466 Y57.912 Z-1.700 F100.0
G0 X45.466 Y57.912 Z2.000
G0 X45.466 Y55.372 Z2.000
G1 X45.466 Y55.372 Z-1.700 F100.0
G0 X45.466 Y55.372 Z2.000
G0 X45.466 Y52.832 Z2.000
G1 X45.466 Y52.832 Z-1.700 F100.0
G0 X45.466 Y52.832 Z2.000
G0 X45.466 Y47.752 Z2.000
G1 X45.466 Y47.752 Z-1.700 F100.0
G0 X45.466 Y47.752 Z2.000
G0 X45.466 Y45.212 Z2.000
G1 X45.466 Y45.212 Z-1.700 F100.0
G0 X45.466 Y45.212 Z2.000
G0 X45.466 Y42.672 Z2.000
G1 X45.466 Y42.672 Z-1.700 F100.0
G0 X45.466 Y42.672 Z2.000
G0 X45.466 Y40.132 Z2.000
G1 X45.466 Y40.132 Z-1.700 F100.0
G0 X45.466 Y40.132 Z2.000
G0 X45.466 Y37.592 Z2.000
G1 X45.466 Y37.592 Z-1.700 F100.0
G0 X45.466 Y37.592 Z2.000
G0 X45.466 Y35.052 Z2.000
G1 X45.466 Y35.052 Z-1.700 F100.0
G0 X45.466 Y35.052 Z2.000
G0 X53.340 Y31.242 Z2.000
G1 X53.340 Y31.242 Z-1.700 F100.0
G0 X53.340 Y31.242 Z2.000
G0 X53.512 Y22.352 Z2.000
G1 X53.512 Y22.352 Z-1.700 F100.0
G0 X53.512 Y22.352 Z2.000
G0 X58.512 Y22.352 Z2.000
G1 X58.512 Y22.352 Z-1.700 F100.0
G0 X58.512 Y22.352 Z2.000
G0 X58.380 Y12.192 Z2.000
G1 X58.380 Y12.192 Z-1.700 F100.0
G0 X58.380 Y12.192 Z2.000
G0 X55.880 Y12.192 Z2.000
G1 X55.880 Y12.192 Z-1.700 F100.0
G0 X55.880 Y12.192 Z2.000
G0 X53.380 Y12.192 Z2.000
G1 X53.380 Y12.192 Z-1.700 F100.0
G0 X53.380 Y12.192 Z2.000
G0 X55.880 Y4.572 Z2.000
G1 X55.880 Y4.572 Z-1.700 F100.0
G0 X55.880 Y4.572 Z2.000
G0 X60.960 Y4.572 Z2.000
G1 X60.960 Y4.572 Z-1.700 F100.0
G0 X60.960 Y4.572 Z2.000
G0 X68.580 Y3.556 Z2.000
G1 X68.580 Y3.556 Z-1.700 F100.0
G0 X68.580 Y3.556 Z2.000
G0 X46.910 Y3.302 Z2.000
G1 X46.910 Y3.302 Z-1.700 F100.0
G0 X46.910 Y3.302 Z2.000
G0 X41.910 Y3.302 Z2.000
G1 X41.910 Y3.302 Z-1.700 F100.0
G0 X41.910 Y3.302 Z2.000
G0 X63.500 Y31.242 Z2.000
G1 X63.500 Y31.242 Z-1.700 F100.0
G0 X63.500 Y31.242 Z2.000
G0 X66.040 Y31.242 Z2.000
G1 X66.040 Y31.242 Z-1.700 F100.0
G0 X66.040 Y31.242 Z2.000
G0 X68.580 Y31.242 Z2.000
G1 X68.580 Y31.242 Z-1.700 F100.0
G0 X68.580 Y31.242 Z2.000
G0 X61.722 Y47.244 Z2.000
G1 X61.722 Y47.244 Z-1.700 F100.0
G0 X61.722 Y47.244 Z2.000
G0 X59.182 Y47.244 Z2.000
G1 X59.182 Y47.244 Z-1.700 F100.0
G0 X59.182 Y47.244 Z2.000
G0 X56.642 Y47.244 Z2.000
G1 X56.642 Y47.244 Z-1.700 F100.0
G0 X56.642 Y47.244 Z2.000
G0 X56.642 Y51.054 Z2.000
G1 X56.642 Y51.054 Z-1.700 F100.0
G0 X56.642 Y51.054 Z2.000
G0 X59.182 Y51.054 Z2.000
G1 X59.182 Y51.054 Z-1.700 F100.0
G0 X59.182 Y51.054 Z2.000
G0 X61.722 Y51.054 Z2.000
G1 X61.722 Y51.054 Z-1.700 F100.0
G0 X61.722 Y51.054 Z2.000
G0 X61.722 Y54.864 Z2.000
G1 X61.722 Y54.864 Z-1.700 F100.0
G0 X61.722 Y54.864 Z2.000
G0 X59.182 Y54.864 Z2.000
G1 X59.182 Y54.864 Z-1.700 F100.0
G0 X59.182 Y54.864 Z2.000
G0 X56.642 Y54.864 Z2.000
G1 X56.642 Y54.864 Z-1.700 F100.0
G0 X56.642 Y54.864 Z2.000
G0 X56.642 Y58.674 Z2.000
G1 X56.642 Y58.674 Z-1.700 F100.0
G0 X56.642 Y58.674 Z2.000
G0 X59.182 Y58.674 Z2.000
G1 X59.182 Y58.674 Z-1.700 F100.0
G0 X59.182 Y58.674 Z2.000
G0 X61.722 Y58.674 Z2.000
G1 X61.722 Y58.674 Z-1.700 F100.0
G0 X61.722 Y58.674 Z2.000
G0 X61.722 Y62.738 Z2.000
G1 X61.722 Y62.738 Z-1.700 F100.0
G0 X61.722 Y62.738 Z2.000
G0 X59.182 Y62.738 Z2.000
G1 X59.182 Y62.738 Z-1.700 F100.0
G0 X59.182 Y62.738 Z2.000
G0 X56.642 Y62.738 Z2.000
G1 X56.642 Y62.738 Z-1.700 F100.0
G0 X56.642 Y62.738 Z2.000
G0 X56.642 Y66.548 Z2.000
G1 X56.642 Y66.548 Z-1.700 F100.0
G0 X56.642 Y66.548 Z2.000
G0 X59.182 Y66.548 Z2.000
G1 X59.182 Y66.548 Z-1.700 F100.0
G0 X59.182 Y66.548 Z2.000
G0 X61.722 Y66.548 Z2.000
G1 X61.722 Y66.548 Z-1.700 F100.0
G0 X61.722 Y66.548 Z2.000
G0 X61.722 Y70.358 Z2.000
G1 X61.722 Y70.358 Z-1.700 F100.0
G0 X61.722 Y70.358 Z2.000
G0 X59.182 Y70.358 Z2.000
G1 X59.182 Y70.358 Z-1.700 F100.0
G0 X59.182 Y70.358 Z2.000
G0 X56.642 Y70.358 Z2.000
G1 X56.642 Y70.358 Z-1.700 F100.0
G0 X56.642 Y70.358 Z2.000
G0 X68.580 Y74.676 Z2.000
G1 X68.580 Y74.676 Z-1.700 F100.0
G0 X68.580 Y74.676 Z2.000

G0 Z2.000 (Move to safe height)
M5 (Stop spindle)
M2 (End program)
