(AltairCAM Generated G-Code)
G21 (Metric units)
G90 (Absolute positioning)
M3 S10000 (Start spindle)
G0 Z2.000 (Move to safe height)

G0 X73.652 Y78.232 Z2.000
G1 X73.652 Y78.232 Z-1.600 F100.0
G1 X73.652 Y0.000 Z-1.600 F100.0
G0 X73.652 Y0.000 Z2.000
G0 X72.652 Y78.232 Z2.000
G1 X72.652 Y78.232 Z-1.600 F100.0
G1 X72.652 Y0.000 Z-1.600 F100.0
G0 X72.652 Y0.000 Z2.000
G0 X73.152 Y-0.500 Z2.000
G1 X73.152 Y-0.500 Z-1.600 F100.0
G1 X0.000 Y-0.500 Z-1.600 F100.0
G0 X0.000 Y-0.500 Z2.000
G0 X73.152 Y0.500 Z2.000
G1 X73.152 Y0.500 Z-1.600 F100.0
G1 X0.000 Y0.500 Z-1.600 F100.0
G0 X0.000 Y0.500 Z2.000
G0 X-0.500 Y0.000 Z2.000
G1 X-0.500 Y0.000 Z-1.600 F100.0
G1 X-0.500 Y78.232 Z-1.600 F100.0
G0 X-0.500 Y78.232 Z2.000
G0 X0.500 Y0.000 Z2.000
G1 X0.500 Y0.000 Z-1.600 F100.0
G1 X0.500 Y78.232 Z-1.600 F100.0
G0 X0.500 Y78.232 Z2.000

G0 Z2.000 (Move to safe height)
M5 (Stop spindle)
M2 (End program)
